(G-code generated by FlatCAM Evo vUnstable - Version Date: 2023/6/31)

(Name: AutomatedBlinds-B_Cu.gbr_iso_combined_cnc)
(Type: G-code from Geometry)
(Units: MM)

(Created on Samstag, 01 November 2025 at 22:23)

(This preprocessor is the default preprocessor.)
(It is made to work with MACH3 compatible motion controllers.)

(TOOL DIAMETER: 0.1375 mm)
(Feedrate_XY: 120.0 mm/min)
(Feedrate_Z: 60.0 mm/min)
(Feedrate rapids 1500.0 mm/min)

(Z_Cut: -0.07 mm)
(Z_Move: 2.0 mm)
(Z Start: None mm)
(Z End: 15.0 mm)
(X,Y End: None mm)
(Steps per circle: 16)
(Preprocessor Geometry: default)

(X range:   -0.0687 ...   71.5678  mm)
(Y range:   -0.0687 ...   46.0678  mm)

(Spindle Speed: 0.0 RPM)
G21
G90
G94

G01 F120.00
G00 Z2.0000

M03
G01 F120.00
G00 X2.5218 Y1.6645
G01 F60.00
G01 Z-0.0700
G01 F120.00
G01 X2.6645 Y1.5218
G01 X2.8277 Y1.4033
G01 X3.0075 Y1.3117
G01 X3.1994 Y1.2493
G01 X3.3986 Y1.2178
G01 X3.6004 Y1.2178
G01 X3.7996 Y1.2493
G01 X3.9915 Y1.3117
G01 X4.1713 Y1.4032
G01 X4.3345 Y1.5218
G01 X4.4772 Y1.6645
G01 X4.5957 Y1.8277
G01 X4.6873 Y2.0075
G01 X4.7497 Y2.1994
G01 X4.7813 Y2.3986
G01 X4.7813 Y2.6004
G01 X4.7497 Y2.7996
G01 X4.6873 Y2.9915
G01 X4.5958 Y3.1713
G01 X4.4772 Y3.3345
G01 X4.3345 Y3.4772
G01 X4.1713 Y3.5957
G01 X3.9915 Y3.6873
G01 X3.7996 Y3.7497
G01 X3.6004 Y3.7813
G01 X3.3986 Y3.7813
G01 X3.1994 Y3.7497
G01 X3.0075 Y3.6873
G01 X2.8277 Y3.5957
G01 X2.6645 Y3.4772
G01 X2.5218 Y3.3345
G01 X2.4033 Y3.1713
G01 X2.3117 Y2.9915
G01 X2.2493 Y2.7996
G01 X2.2178 Y2.6004
G01 X2.2178 Y2.3986
G01 X2.2493 Y2.1994
G01 X2.3117 Y2.0075
G01 X2.4033 Y1.8277
G01 X2.5218 Y1.6645
G00 Z2.0000
G00 X6.0740 Y7.4330
G01 F60.00
G01 Z-0.0700
G01 F120.00
G01 X6.4766 Y7.0303
G01 X6.5255 Y6.9411
G01 X6.5241 Y6.8486
G01 X6.5093 Y6.7996
G01 X6.4778 Y6.6004
G01 X6.4778 Y6.3986
G01 X6.5093 Y6.1994
G01 X6.5717 Y6.0075
G01 X6.6633 Y5.8277
G01 X6.7818 Y5.6645
G01 X6.9245 Y5.5218
G01 X7.0877 Y5.4033
G01 X7.2675 Y5.3117
G01 X7.4594 Y5.2493
G01 X7.6586 Y5.2178
G01 X7.8604 Y5.2178
G01 X8.0596 Y5.2493
G01 X8.2515 Y5.3117
G01 X8.4313 Y5.4032
G01 X8.5945 Y5.5218
G01 X8.7372 Y5.6645
G01 X8.8650 Y5.8432
G01 X8.9220 Y5.9035
G01 X8.9476 Y5.9177
G01 X9.0380 Y5.9373
G01 X9.1251 Y5.9105
G01 X9.1481 Y5.8963
G01 X9.1949 Y5.8428
G01 X9.3222 Y5.6648
G01 X9.4648 Y5.5222
G01 X9.6280 Y5.4037
G01 X9.8077 Y5.3121
G01 X9.9807 Y5.2559
G01 X9.9808 Y5.6388
G01 X9.8635 Y5.6909
G01 X9.7167 Y5.7893
G01 X9.6475 Y5.8523
G01 X9.5356 Y5.9891
G01 X9.4877 Y6.0694
G01 X9.4203 Y6.2328
G01 X9.3978 Y6.3236
G01 X9.3808 Y6.4995
G01 X9.3978 Y6.6754
G01 X9.4203 Y6.7662
G01 X9.4877 Y6.9296
G01 X9.5356 Y7.0099
G01 X9.6475 Y7.1467
G01 X9.7167 Y7.2097
G01 X9.8635 Y7.3081
G01 X9.9808 Y7.3602
G01 X9.9808 Y7.7431
G01 X9.8077 Y7.6869
G01 X9.6280 Y7.5953
G01 X9.4648 Y7.4768
G01 X9.3222 Y7.3342
G01 X9.1964 Y7.1584
G01 X9.1400 Y7.0977
G01 X9.1120 Y7.0813
G01 X9.0183 Y7.0619
G01 X8.9327 Y7.0891
G01 X8.9088 Y7.1053
G01 X8.7372 Y7.3345
G01 X8.5945 Y7.4772
G01 X8.4313 Y7.5957
G01 X8.2515 Y7.6873
G01 X8.0596 Y7.7497
G01 X7.8604 Y7.7813
G01 X7.6586 Y7.7813
G01 X7.4594 Y7.7497
G01 X7.3797 Y7.7290
G01 X7.3113 Y7.7352
G01 X7.2714 Y7.7512
G01 X7.2300 Y7.7813
G01 X7.0854 Y7.9257
G01 X7.0383 Y8.0095
G01 X7.0313 Y8.0559
G01 X7.0319 Y27.8836
G01 X7.0547 Y27.9634
G01 X7.0722 Y27.9906
G01 X7.1417 Y28.0481
G01 X7.2130 Y28.0657
G01 X8.6142 Y28.0666
G01 X8.6616 Y28.0717
G01 X8.7791 Y28.1155
G01 X8.8785 Y28.1899
G01 X8.9529 Y28.2893
G01 X8.9967 Y28.4068
G01 X9.0025 Y28.6336
G01 X9.0307 Y28.7253
G01 X9.1122 Y28.7981
G01 X9.1945 Y28.8166
G01 X25.5287 Y28.8165
G01 X25.6366 Y28.7808
G01 X25.6925 Y28.7191
G01 X25.8200 Y28.5371
G01 X25.9571 Y28.4000
G01 X26.1139 Y28.2860
G01 X26.2102 Y28.2362
G01 X26.2686 Y28.1820
G01 X26.2872 Y28.1517
G01 X26.3066 Y28.0711
G01 X26.2807 Y27.9759
G01 X26.2633 Y27.9485
G01 X26.2124 Y27.9044
G01 X26.1139 Y27.8530
G01 X25.9571 Y27.7390
G01 X25.8200 Y27.6019
G01 X25.7060 Y27.4451
G01 X25.6180 Y27.2723
G01 X25.5581 Y27.0879
G01 X25.5278 Y26.8964
G01 X25.5278 Y26.7026
G01 X25.5581 Y26.5111
G01 X25.6180 Y26.3267
G01 X25.7060 Y26.1539
G01 X25.8200 Y25.9971
G01 X25.9571 Y25.8600
G01 X26.1139 Y25.7460
G01 X26.2102 Y25.6962
G01 X26.2709 Y25.6397
G01 X26.2872 Y25.6117
G01 X26.3069 Y25.5245
G01 X26.2794 Y25.4325
G01 X26.2633 Y25.4085
G01 X26.2124 Y25.3644
G01 X26.1139 Y25.3130
G01 X25.9571 Y25.1990
G01 X25.8200 Y25.0619
G01 X25.7060 Y24.9051
G01 X25.6180 Y24.7323
G01 X25.5581 Y24.5479
G01 X25.5278 Y24.3564
G01 X25.5278 Y24.1626
G01 X25.5581 Y23.9711
G01 X25.6180 Y23.7867
G01 X25.7060 Y23.6139
G01 X25.8200 Y23.4571
G01 X25.9571 Y23.3200
G01 X26.1139 Y23.2060
G01 X26.2102 Y23.1562
G01 X26.2709 Y23.0997
G01 X26.2872 Y23.0717
G01 X26.3069 Y22.9845
G01 X26.2794 Y22.8925
G01 X26.2633 Y22.8685
G01 X26.2124 Y22.8244
G01 X26.1139 Y22.7730
G01 X25.9571 Y22.6590
G01 X25.8200 Y22.5219
G01 X25.7060 Y22.3651
G01 X25.6180 Y22.1923
G01 X25.5581 Y22.0079
G01 X25.5278 Y21.8164
G01 X25.5278 Y21.6226
G01 X25.5581 Y21.4311
G01 X25.6180 Y21.2467
G01 X25.6393 Y21.2033
G01 X25.6552 Y21.1219
G01 X25.6520 Y21.0896
G01 X25.6167 Y21.0075
G01 X25.5403 Y20.9492
G01 X25.4858 Y20.9312
G01 X25.3646 Y20.8612
G01 X12.4140 Y7.9106
G01 X12.3440 Y7.7893
G01 X12.3238 Y7.7235
G01 X12.2836 Y7.6657
G01 X12.2534 Y7.6408
G01 X12.1677 Y7.5958
G01 X12.0045 Y7.4772
G01 X11.8618 Y7.3345
G01 X11.7359 Y7.1584
G01 X11.6794 Y7.0977
G01 X11.6514 Y7.0813
G01 X11.5642 Y7.0617
G01 X11.4594 Y7.0959
G01 X11.4041 Y7.1562
G01 X11.2768 Y7.3342
G01 X11.1342 Y7.4768
G01 X10.9710 Y7.5953
G01 X10.7913 Y7.6869
G01 X10.6183 Y7.7431
G01 X10.6183 Y7.3602
G01 X10.7355 Y7.3081
G01 X10.8823 Y7.2097
G01 X10.9515 Y7.1467
G01 X11.0634 Y7.0099
G01 X11.1113 Y6.9296
G01 X11.1787 Y6.7662
G01 X11.2012 Y6.6754
G01 X11.2183 Y6.4995
G01 X11.2012 Y6.3236
G01 X11.1787 Y6.2328
G01 X11.1113 Y6.0694
G01 X11.0634 Y5.9891
G01 X10.9515 Y5.8523
G01 X10.8823 Y5.7893
G01 X10.7355 Y5.6909
G01 X10.6183 Y5.6388
G01 X10.6183 Y5.2559
G01 X10.7913 Y5.3121
G01 X10.9710 Y5.4037
G01 X11.1342 Y5.5222
G01 X11.2768 Y5.6648
G01 X11.4045 Y5.8432
G01 X11.4614 Y5.9035
G01 X11.4870 Y5.9177
G01 X11.5742 Y5.9373
G01 X11.6645 Y5.9105
G01 X11.6876 Y5.8963
G01 X11.7343 Y5.8428
G01 X11.8618 Y5.6645
G01 X12.0045 Y5.5218
G01 X12.1677 Y5.4033
G01 X12.3475 Y5.3117
G01 X12.5394 Y5.2493
G01 X12.7386 Y5.2178
G01 X12.9404 Y5.2178
G01 X13.1396 Y5.2493
G01 X13.3315 Y5.3117
G01 X13.5113 Y5.4032
G01 X13.6745 Y5.5218
G01 X13.8172 Y5.6645
G01 X13.9450 Y5.8432
G01 X14.0020 Y5.9035
G01 X14.0276 Y5.9177
G01 X14.1148 Y5.9373
G01 X14.2051 Y5.9105
G01 X14.2281 Y5.8963
G01 X14.2749 Y5.8428
G01 X14.4022 Y5.6648
G01 X14.5448 Y5.5222
G01 X14.7080 Y5.4037
G01 X14.8877 Y5.3121
G01 X15.0607 Y5.2559
G01 X15.0608 Y5.6388
G01 X14.9435 Y5.6909
G01 X14.7967 Y5.7893
G01 X14.7275 Y5.8523
G01 X14.6156 Y5.9891
G01 X14.5321 Y6.1448
G01 X14.5003 Y6.2328
G01 X14.4656 Y6.4061
G01 X14.4608 Y6.4995
G01 X14.4656 Y6.5929
G01 X14.5003 Y6.7662
G01 X14.5321 Y6.8542
G01 X14.6156 Y7.0099
G01 X14.7275 Y7.1467
G01 X14.7967 Y7.2097
G01 X14.9435 Y7.3081
G01 X15.0608 Y7.3602
G01 X15.0608 Y7.7431
G01 X14.8877 Y7.6869
G01 X14.7080 Y7.5953
G01 X14.5448 Y7.4768
G01 X14.4022 Y7.3342
G01 X14.2764 Y7.1584
G01 X14.2200 Y7.0977
G01 X14.1920 Y7.0813
G01 X14.1048 Y7.0617
G01 X14.0127 Y7.0891
G01 X13.9888 Y7.1053
G01 X13.8172 Y7.3345
G01 X13.7058 Y7.4486
G01 X13.6691 Y7.5157
G01 X13.6623 Y7.5474
G01 X13.6707 Y7.6372
G01 X13.7087 Y7.7000
G01 X25.2004 Y19.1930
G01 X25.2803 Y19.2397
G01 X25.3120 Y19.2466
G01 X25.4071 Y19.2360
G01 X25.4943 Y19.1674
G01 X25.5263 Y19.0909
G01 X25.5581 Y18.8911
G01 X25.6180 Y18.7067
G01 X25.7060 Y18.5339
G01 X25.8200 Y18.3771
G01 X25.9571 Y18.2400
G01 X26.1139 Y18.1260
G01 X26.2102 Y18.0762
G01 X26.2686 Y18.0220
G01 X26.2872 Y17.9917
G01 X26.3066 Y17.9111
G01 X26.2807 Y17.8159
G01 X26.2633 Y17.7885
G01 X26.2124 Y17.7444
G01 X26.1139 Y17.6930
G01 X25.9571 Y17.5790
G01 X25.8200 Y17.4419
G01 X25.7060 Y17.2851
G01 X25.6180 Y17.1123
G01 X25.5581 Y16.9279
G01 X25.5278 Y16.7364
G01 X25.5278 Y16.5426
G01 X25.5581 Y16.3511
G01 X25.6306 Y16.1405
G01 X25.6465 Y16.0591
G01 X25.6432 Y16.0268
G01 X25.6079 Y15.9447
G01 X25.5261 Y15.8833
G01 X25.3522 Y15.8350
G01 X25.2309 Y15.7650
G01 X17.4940 Y8.0281
G01 X17.4240 Y7.9068
G01 X17.3840 Y7.7537
G01 X17.3520 Y7.6740
G01 X17.2903 Y7.6181
G01 X17.2477 Y7.5957
G01 X17.0845 Y7.4772
G01 X16.9418 Y7.3345
G01 X16.8159 Y7.1584
G01 X16.7545 Y7.0934
G01 X16.7314 Y7.0813
G01 X16.6442 Y7.0617
G01 X16.5394 Y7.0959
G01 X16.4841 Y7.1562
G01 X16.3568 Y7.3342
G01 X16.2142 Y7.4768
G01 X16.0510 Y7.5953
G01 X15.8713 Y7.6869
G01 X15.6983 Y7.7431
G01 X15.6983 Y7.3602
G01 X15.8155 Y7.3081
G01 X15.9623 Y7.2097
G01 X16.0315 Y7.1467
G01 X16.1434 Y7.0099
G01 X16.2269 Y6.8542
G01 X16.2587 Y6.7662
G01 X16.2934 Y6.5929
G01 X16.2983 Y6.4995
G01 X16.2934 Y6.4061
G01 X16.2587 Y6.2328
G01 X16.2269 Y6.1448
G01 X16.1434 Y5.9891
G01 X16.0315 Y5.8523
G01 X15.9623 Y5.7893
G01 X15.8155 Y5.6909
G01 X15.6983 Y5.6388
G01 X15.6983 Y5.2559
G01 X15.8713 Y5.3121
G01 X16.0510 Y5.4037
G01 X16.2142 Y5.5222
G01 X16.3568 Y5.6648
G01 X16.4845 Y5.8432
G01 X16.5414 Y5.9035
G01 X16.5670 Y5.9177
G01 X16.6542 Y5.9373
G01 X16.7445 Y5.9105
G01 X16.7676 Y5.8963
G01 X16.8143 Y5.8428
G01 X16.9418 Y5.6645
G01 X17.0845 Y5.5218
G01 X17.2477 Y5.4033
G01 X17.4275 Y5.3117
G01 X17.6194 Y5.2493
G01 X17.8186 Y5.2178
G01 X18.0204 Y5.2178
G01 X18.2196 Y5.2493
G01 X18.4115 Y5.3117
G01 X18.5913 Y5.4032
G01 X18.7545 Y5.5218
G01 X18.8972 Y5.6645
G01 X19.0248 Y5.8427
G01 X19.0817 Y5.9030
G01 X19.1073 Y5.9171
G01 X19.1945 Y5.9368
G01 X19.2848 Y5.9100
G01 X19.3079 Y5.8958
G01 X19.3546 Y5.8422
G01 X19.4818 Y5.6645
G01 X19.6245 Y5.5218
G01 X19.7877 Y5.4033
G01 X19.9675 Y5.3117
G01 X20.1594 Y5.2493
G01 X20.3586 Y5.2178
G01 X20.5604 Y5.2178
G01 X20.7596 Y5.2493
G01 X20.9515 Y5.3117
G01 X21.1313 Y5.4032
G01 X21.2945 Y5.5218
G01 X21.4116 Y5.6380
G01 X21.4841 Y5.6783
G01 X21.5125 Y5.6851
G01 X21.6079 Y5.6758
G01 X21.6839 Y5.6223
G01 X21.7192 Y5.5671
G01 X21.7667 Y5.4405
G01 X21.8411 Y5.3411
G01 X21.9405 Y5.2667
G01 X22.0579 Y5.2228
G01 X23.8937 Y5.2178
G01 X23.9410 Y5.2228
G01 X24.0585 Y5.2667
G01 X24.1579 Y5.3411
G01 X24.2323 Y5.4405
G01 X24.2762 Y5.5580
G01 X24.2813 Y5.6053
G01 X24.2812 Y7.3937
G01 X24.2762 Y7.4410
G01 X24.2323 Y7.5585
G01 X24.1579 Y7.6579
G01 X24.0585 Y7.7323
G01 X23.9410 Y7.7762
G01 X23.8937 Y7.7812
G01 X22.0580 Y7.7762
G01 X21.9405 Y7.7323
G01 X21.8411 Y7.6579
G01 X21.7667 Y7.5585
G01 X21.7185 Y7.4304
G01 X21.6690 Y7.3618
G01 X21.6419 Y7.3413
G01 X21.5477 Y7.3113
G01 X21.4431 Y7.3376
G01 X21.2749 Y7.4947
G01 X21.2369 Y7.5510
G01 X21.2251 Y7.5841
G01 X21.2234 Y7.6681
G01 X21.2352 Y7.7046
G01 X21.2756 Y7.7657
G01 X25.1987 Y11.6888
G01 X25.2786 Y11.7355
G01 X25.3070 Y11.7424
G01 X25.4054 Y11.7319
G01 X25.4780 Y11.6798
G01 X25.4961 Y11.6568
G01 X25.5267 Y11.5711
G01 X25.5278 Y11.4626
G01 X25.5581 Y11.2711
G01 X25.6180 Y11.0867
G01 X25.7060 Y10.9139
G01 X25.8200 Y10.7571
G01 X25.9571 Y10.6200
G01 X26.1139 Y10.5060
G01 X26.2102 Y10.4562
G01 X26.2709 Y10.3997
G01 X26.2872 Y10.3717
G01 X26.3068 Y10.2878
G01 X26.2801 Y10.1942
G01 X26.2633 Y10.1685
G01 X26.2090 Y10.1220
G01 X26.1139 Y10.0730
G01 X25.9571 Y9.9590
G01 X25.8200 Y9.8219
G01 X25.7060 Y9.6651
G01 X25.6180 Y9.4923
G01 X25.5581 Y9.3079
G01 X25.5278 Y9.1164
G01 X25.5278 Y8.9226
G01 X25.5581 Y8.7311
G01 X25.6180 Y8.5467
G01 X25.7060 Y8.3739
G01 X25.8200 Y8.2171
G01 X25.9571 Y8.0800
G01 X26.1139 Y7.9660
G01 X26.2102 Y7.9162
G01 X26.2698 Y7.8609
G01 X26.2872 Y7.8317
G01 X26.3069 Y7.7445
G01 X26.2801 Y7.6542
G01 X26.2633 Y7.6285
G01 X26.2090 Y7.5820
G01 X26.1139 Y7.5330
G01 X25.9571 Y7.4190
G01 X25.8200 Y7.2819
G01 X25.7060 Y7.1251
G01 X25.6180 Y6.9523
G01 X25.5581 Y6.7679
G01 X25.5278 Y6.5764
G01 X25.5278 Y6.3826
G01 X25.5581 Y6.1911
G01 X25.6180 Y6.0067
G01 X25.7060 Y5.8339
G01 X25.8200 Y5.6771
G01 X25.9571 Y5.5400
G01 X26.1139 Y5.4260
G01 X26.2867 Y5.3380
G01 X26.4711 Y5.2781
G01 X26.6626 Y5.2478
G01 X26.8564 Y5.2478
G01 X27.0479 Y5.2781
G01 X27.2323 Y5.3380
G01 X27.4051 Y5.4260
G01 X27.5619 Y5.5400
G01 X27.6990 Y5.6771
G01 X27.8130 Y5.8339
G01 X27.9010 Y6.0067
G01 X27.9609 Y6.1911
G01 X27.9913 Y6.3826
G01 X27.9913 Y6.5764
G01 X27.9609 Y6.7679
G01 X27.9010 Y6.9523
G01 X27.8130 Y7.1251
G01 X27.6990 Y7.2819
G01 X27.5619 Y7.4190
G01 X27.4051 Y7.5330
G01 X27.3088 Y7.5828
G01 X27.2481 Y7.6393
G01 X27.2313 Y7.6689
G01 X27.2127 Y7.7643
G01 X27.2396 Y7.8465
G01 X27.2557 Y7.8705
G01 X27.3100 Y7.9170
G01 X27.4051 Y7.9660
G01 X27.5619 Y8.0800
G01 X27.6990 Y8.2171
G01 X27.8130 Y8.3739
G01 X27.9010 Y8.5467
G01 X27.9609 Y8.7311
G01 X27.9913 Y8.9226
G01 X27.9913 Y9.1164
G01 X27.9609 Y9.3079
G01 X27.9010 Y9.4923
G01 X27.8130 Y9.6651
G01 X27.6990 Y9.8219
G01 X27.5619 Y9.9590
G01 X27.4051 Y10.0730
G01 X27.3088 Y10.1228
G01 X27.2481 Y10.1793
G01 X27.2318 Y10.2073
G01 X27.2124 Y10.3010
G01 X27.2396 Y10.3865
G01 X27.2570 Y10.4117
G01 X27.3100 Y10.4570
G01 X27.4051 Y10.5060
G01 X27.5619 Y10.6200
G01 X27.6990 Y10.7571
G01 X27.8130 Y10.9139
G01 X27.9010 Y11.0867
G01 X27.9609 Y11.2711
G01 X27.9913 Y11.4626
G01 X27.9913 Y11.6564
G01 X27.9609 Y11.8479
G01 X27.8964 Y12.0441
G01 X27.8834 Y12.1212
G01 X27.8875 Y12.1551
G01 X27.9204 Y12.2296
G01 X27.9416 Y12.2522
G01 X28.0197 Y12.2996
G01 X28.0728 Y12.3077
G01 X28.2695 Y12.3078
G01 X28.4048 Y12.3440
G01 X28.5260 Y12.4140
G01 X39.7833 Y23.6713
G01 X39.8664 Y23.7194
G01 X39.9159 Y23.7277
G01 X40.7715 Y23.7277
G01 X40.8652 Y23.7020
G01 X40.9333 Y23.6351
G01 X41.0600 Y23.4571
G01 X41.1971 Y23.3200
G01 X41.3539 Y23.2060
G01 X41.4502 Y23.1562
G01 X41.5109 Y23.0997
G01 X41.5272 Y23.0717
G01 X41.5468 Y22.9878
G01 X41.5207 Y22.8959
G01 X41.5059 Y22.8711
G01 X41.4490 Y22.8220
G01 X41.3539 Y22.7730
G01 X41.1971 Y22.6590
G01 X41.0600 Y22.5219
G01 X40.9460 Y22.3651
G01 X40.8580 Y22.1923
G01 X40.7981 Y22.0079
G01 X40.7678 Y21.8164
G01 X40.7678 Y21.6226
G01 X40.7981 Y21.4311
G01 X40.8580 Y21.2467
G01 X40.9460 Y21.0739
G01 X41.0600 Y20.9171
G01 X41.1971 Y20.7800
G01 X41.3539 Y20.6660
G01 X41.4502 Y20.6162
G01 X41.5109 Y20.5597
G01 X41.5272 Y20.5317
G01 X41.5469 Y20.4445
G01 X41.5201 Y20.3542
G01 X41.5059 Y20.3311
G01 X41.4490 Y20.2820
G01 X41.3539 Y20.2330
G01 X41.1971 Y20.1190
G01 X41.0600 Y19.9819
G01 X40.9460 Y19.8251
G01 X40.8580 Y19.6523
G01 X40.7981 Y19.4679
G01 X40.7678 Y19.2764
G01 X40.7678 Y19.0826
G01 X40.7981 Y18.8911
G01 X40.8580 Y18.7067
G01 X40.9460 Y18.5339
G01 X41.0600 Y18.3771
G01 X41.1971 Y18.2400
G01 X41.3539 Y18.1260
G01 X41.4502 Y18.0762
G01 X41.5109 Y18.0197
G01 X41.5272 Y17.9917
G01 X41.5468 Y17.9078
G01 X41.5207 Y17.8159
G01 X41.5059 Y17.7911
G01 X41.4490 Y17.7420
G01 X41.3539 Y17.6930
G01 X41.1971 Y17.5790
G01 X41.0600 Y17.4419
G01 X40.9460 Y17.2851
G01 X40.8580 Y17.1123
G01 X40.7981 Y16.9279
G01 X40.7678 Y16.7364
G01 X40.7678 Y16.5426
G01 X40.7981 Y16.3511
G01 X40.8580 Y16.1667
G01 X40.9460 Y15.9939
G01 X41.0600 Y15.8371
G01 X41.1971 Y15.7000
G01 X41.3539 Y15.5860
G01 X41.4502 Y15.5362
G01 X41.5109 Y15.4797
G01 X41.5272 Y15.4517
G01 X41.5468 Y15.3678
G01 X41.5207 Y15.2759
G01 X41.5059 Y15.2511
G01 X41.4490 Y15.2020
G01 X41.3539 Y15.1530
G01 X41.1971 Y15.0390
G01 X41.0600 Y14.9019
G01 X40.9460 Y14.7451
G01 X40.8580 Y14.5723
G01 X40.7981 Y14.3879
G01 X40.7678 Y14.1964
G01 X40.7678 Y14.0026
G01 X40.7981 Y13.8111
G01 X40.8580 Y13.6267
G01 X40.9460 Y13.4539
G01 X41.0600 Y13.2971
G01 X41.1971 Y13.1600
G01 X41.3539 Y13.0460
G01 X41.4502 Y12.9962
G01 X41.5109 Y12.9397
G01 X41.5272 Y12.9117
G01 X41.5468 Y12.8278
G01 X41.5207 Y12.7359
G01 X41.5059 Y12.7111
G01 X41.4490 Y12.6620
G01 X41.3539 Y12.6130
G01 X41.1971 Y12.4990
G01 X41.0600 Y12.3619
G01 X40.9460 Y12.2051
G01 X40.8580 Y12.0323
G01 X40.7981 Y11.8479
G01 X40.7678 Y11.6564
G01 X40.7678 Y11.4626
G01 X40.7981 Y11.2711
G01 X40.8580 Y11.0867
G01 X40.9460 Y10.9139
G01 X41.0600 Y10.7571
G01 X41.1971 Y10.6200
G01 X41.3539 Y10.5060
G01 X41.4502 Y10.4562
G01 X41.5109 Y10.3997
G01 X41.5272 Y10.3717
G01 X41.5468 Y10.2878
G01 X41.5207 Y10.1959
G01 X41.5059 Y10.1711
G01 X41.4490 Y10.1220
G01 X41.3539 Y10.0730
G01 X41.1971 Y9.9590
G01 X41.0600 Y9.8219
G01 X40.9460 Y9.6651
G01 X40.8580 Y9.4923
G01 X40.7981 Y9.3079
G01 X40.7678 Y9.1164
G01 X40.7678 Y8.9226
G01 X40.7981 Y8.7311
G01 X40.8580 Y8.5467
G01 X40.9460 Y8.3739
G01 X41.0600 Y8.2171
G01 X41.1971 Y8.0800
G01 X41.3539 Y7.9660
G01 X41.4502 Y7.9162
G01 X41.5109 Y7.8597
G01 X41.5262 Y7.8348
G01 X41.5466 Y7.7510
G01 X41.5432 Y7.7220
G01 X41.5059 Y7.6311
G01 X41.4490 Y7.5820
G01 X41.3539 Y7.5330
G01 X41.1971 Y7.4190
G01 X41.0600 Y7.2819
G01 X40.9460 Y7.1251
G01 X40.8580 Y6.9523
G01 X40.7981 Y6.7679
G01 X40.7678 Y6.5764
G01 X40.7678 Y6.3826
G01 X40.7981 Y6.1911
G01 X40.8580 Y6.0067
G01 X40.9460 Y5.8339
G01 X41.0600 Y5.6771
G01 X41.1971 Y5.5400
G01 X41.3539 Y5.4260
G01 X41.5267 Y5.3380
G01 X41.7111 Y5.2781
G01 X41.9026 Y5.2478
G01 X42.0964 Y5.2478
G01 X42.2879 Y5.2781
G01 X42.4723 Y5.3380
G01 X42.6451 Y5.4260
G01 X42.8019 Y5.5400
G01 X42.9390 Y5.6771
G01 X43.0530 Y5.8339
G01 X43.1410 Y6.0067
G01 X43.2009 Y6.1911
G01 X43.2313 Y6.3826
G01 X43.2313 Y6.5764
G01 X43.2009 Y6.7679
G01 X43.1410 Y6.9523
G01 X43.0530 Y7.1251
G01 X42.9390 Y7.2819
G01 X42.8019 Y7.4190
G01 X42.6451 Y7.5330
G01 X42.5488 Y7.5828
G01 X42.4892 Y7.6381
G01 X42.4718 Y7.6673
G01 X42.4521 Y7.7545
G01 X42.4789 Y7.8448
G01 X42.4957 Y7.8705
G01 X42.5500 Y7.9170
G01 X42.6451 Y7.9660
G01 X42.8019 Y8.0800
G01 X42.9390 Y8.2171
G01 X43.0530 Y8.3739
G01 X43.1410 Y8.5467
G01 X43.2009 Y8.7311
G01 X43.2313 Y8.9226
G01 X43.2313 Y9.1164
G01 X43.2009 Y9.3079
G01 X43.1410 Y9.4923
G01 X43.0530 Y9.6651
G01 X42.9390 Y9.8219
G01 X42.8019 Y9.9590
G01 X42.6451 Y10.0730
G01 X42.5488 Y10.1228
G01 X42.4892 Y10.1781
G01 X42.4718 Y10.2073
G01 X42.4521 Y10.2978
G01 X42.4789 Y10.3848
G01 X42.4931 Y10.4079
G01 X42.5500 Y10.4570
G01 X42.6451 Y10.5060
G01 X42.8019 Y10.6200
G01 X42.9390 Y10.7571
G01 X43.0530 Y10.9139
G01 X43.1410 Y11.0867
G01 X43.2009 Y11.2711
G01 X43.2313 Y11.4626
G01 X43.2316 Y11.6569
G01 X43.2542 Y11.7384
G01 X43.2699 Y11.7649
G01 X43.3381 Y11.8227
G01 X43.4514 Y11.8412
G01 X43.5507 Y11.7957
G01 X44.8103 Y10.5367
G01 X44.8595 Y10.4488
G01 X44.8545 Y10.3373
G01 X44.8002 Y10.2586
G01 X44.5668 Y10.0916
G01 X44.4074 Y9.9322
G01 X44.2750 Y9.7499
G01 X44.1726 Y9.5491
G01 X44.1030 Y9.3348
G01 X44.0678 Y9.1122
G01 X44.0678 Y8.8868
G01 X44.1030 Y8.6642
G01 X44.1726 Y8.4499
G01 X44.2750 Y8.2491
G01 X44.4074 Y8.0668
G01 X44.5668 Y7.9074
G01 X44.7491 Y7.7750
G01 X44.9499 Y7.6726
G01 X45.1642 Y7.6030
G01 X45.3868 Y7.5678
G01 X45.6122 Y7.5678
G01 X45.8348 Y7.6030
G01 X46.0491 Y7.6726
G01 X46.2499 Y7.7750
G01 X46.4322 Y7.9074
G01 X46.5916 Y8.0668
G01 X46.7240 Y8.2491
G01 X46.8264 Y8.4499
G01 X46.8960 Y8.6642
G01 X46.9313 Y8.8868
G01 X46.9313 Y9.1122
G01 X46.8960 Y9.3348
G01 X46.8264 Y9.5491
G01 X46.7240 Y9.7499
G01 X46.5916 Y9.9322
G01 X46.4322 Y10.0916
G01 X46.2499 Y10.2240
G01 X46.1281 Y10.2869
G01 X46.0596 Y10.3531
G01 X46.0315 Y10.4475
G01 X46.0313 Y10.6695
G01 X45.9950 Y10.8047
G01 X45.9250 Y10.9260
G01 X43.2450 Y13.6060
G01 X43.1983 Y13.6858
G01 X43.1914 Y13.7131
G01 X43.1949 Y13.7871
G01 X43.2313 Y14.0026
G01 X43.2313 Y14.1964
G01 X43.2009 Y14.3879
G01 X43.1410 Y14.5723
G01 X43.0530 Y14.7451
G01 X42.9390 Y14.9019
G01 X42.8019 Y15.0390
G01 X42.6451 Y15.1530
G01 X42.5488 Y15.2028
G01 X42.4892 Y15.2581
G01 X42.4718 Y15.2873
G01 X42.4521 Y15.3745
G01 X42.4789 Y15.4648
G01 X42.4957 Y15.4905
G01 X42.5500 Y15.5370
G01 X42.6451 Y15.5860
G01 X42.8019 Y15.7000
G01 X42.9390 Y15.8371
G01 X43.0644 Y16.0135
G01 X43.1188 Y16.0715
G01 X43.1426 Y16.0865
G01 X43.2200 Y16.1072
G01 X48.5594 Y16.1078
G01 X48.6613 Y16.0786
G01 X48.6957 Y16.0513
G01 X55.0997 Y9.6468
G01 X55.1420 Y9.5719
G01 X55.1489 Y9.5415
G01 X55.1446 Y9.4646
G01 X55.1030 Y9.3348
G01 X55.0678 Y9.1122
G01 X55.0678 Y8.8868
G01 X55.1030 Y8.6642
G01 X55.1726 Y8.4499
G01 X55.2750 Y8.2491
G01 X55.4074 Y8.0668
G01 X55.5668 Y7.9074
G01 X55.7491 Y7.7750
G01 X55.9499 Y7.6726
G01 X56.1642 Y7.6030
G01 X56.3868 Y7.5678
G01 X56.6122 Y7.5678
G01 X56.8348 Y7.6030
G01 X57.0491 Y7.6726
G01 X57.2499 Y7.7750
G01 X57.4322 Y7.9074
G01 X57.5916 Y8.0668
G01 X57.7240 Y8.2491
G01 X57.8264 Y8.4499
G01 X57.8960 Y8.6642
G01 X57.9313 Y8.8868
G01 X57.9313 Y9.1122
G01 X57.8960 Y9.3348
G01 X57.8264 Y9.5491
G01 X57.7240 Y9.7499
G01 X57.5916 Y9.9322
G01 X57.4322 Y10.0916
G01 X57.2499 Y10.2240
G01 X57.0491 Y10.3264
G01 X56.8348 Y10.3960
G01 X56.6122 Y10.4313
G01 X56.3868 Y10.4313
G01 X56.1642 Y10.3960
G01 X56.0337 Y10.3543
G01 X55.9525 Y10.3513
G01 X55.9235 Y10.3576
G01 X55.8518 Y10.3996
G01 X49.1860 Y17.0650
G01 X49.0647 Y17.1350
G01 X48.9295 Y17.1713
G01 X43.2226 Y17.1716
G01 X43.1179 Y17.2070
G01 X43.0638 Y17.2662
G01 X42.9390 Y17.4419
G01 X42.8019 Y17.5790
G01 X42.6451 Y17.6930
G01 X42.5488 Y17.7428
G01 X42.4881 Y17.7993
G01 X42.4718 Y17.8273
G01 X42.4521 Y17.9145
G01 X42.4884 Y18.0223
G01 X42.5500 Y18.0770
G01 X42.6451 Y18.1260
G01 X42.8019 Y18.2400
G01 X42.9390 Y18.3771
G01 X43.0530 Y18.5339
G01 X43.1410 Y18.7067
G01 X43.2009 Y18.8911
G01 X43.2313 Y19.0826
G01 X43.2313 Y19.2764
G01 X43.2009 Y19.4679
G01 X43.1410 Y19.6523
G01 X43.0530 Y19.8251
G01 X42.9390 Y19.9819
G01 X42.8019 Y20.1190
G01 X42.6451 Y20.2330
G01 X42.5488 Y20.2828
G01 X42.4881 Y20.3393
G01 X42.4713 Y20.3689
G01 X42.4533 Y20.4675
G01 X42.4796 Y20.5465
G01 X42.4957 Y20.5705
G01 X42.5500 Y20.6170
G01 X42.6451 Y20.6660
G01 X42.8019 Y20.7800
G01 X42.9390 Y20.9171
G01 X43.0530 Y21.0739
G01 X43.1410 Y21.2467
G01 X43.2009 Y21.4311
G01 X43.2313 Y21.6226
G01 X43.2313 Y21.8164
G01 X43.2009 Y22.0079
G01 X43.1410 Y22.1923
G01 X43.0530 Y22.3651
G01 X42.9390 Y22.5219
G01 X42.8019 Y22.6590
G01 X42.6451 Y22.7730
G01 X42.5488 Y22.8228
G01 X42.4881 Y22.8793
G01 X42.4713 Y22.9089
G01 X42.4533 Y23.0075
G01 X42.4796 Y23.0865
G01 X42.4957 Y23.1105
G01 X42.5500 Y23.1570
G01 X42.6451 Y23.2060
G01 X42.8019 Y23.3200
G01 X42.9390 Y23.4571
G01 X43.0644 Y23.6335
G01 X43.1188 Y23.6915
G01 X43.1426 Y23.7065
G01 X43.2200 Y23.7272
G01 X48.8295 Y23.7277
G01 X48.9647 Y23.7640
G01 X49.0860 Y23.8340
G01 X60.8575 Y35.6053
G01 X60.9349 Y35.6497
G01 X60.9653 Y35.6567
G01 X61.0421 Y35.6523
G01 X61.2111 Y35.5981
G01 X61.4026 Y35.5678
G01 X61.5964 Y35.5678
G01 X61.7879 Y35.5981
G01 X61.9723 Y35.6580
G01 X62.1451 Y35.7460
G01 X62.3019 Y35.8600
G01 X62.4390 Y35.9971
G01 X62.5530 Y36.1539
G01 X62.6410 Y36.3267
G01 X62.7009 Y36.5111
G01 X62.7313 Y36.7026
G01 X62.7313 Y37.2964
G01 X62.7009 Y37.4879
G01 X62.6410 Y37.6723
G01 X62.5530 Y37.8451
G01 X62.4390 Y38.0019
G01 X62.3019 Y38.1390
G01 X62.1451 Y38.2530
G01 X61.9723 Y38.3410
G01 X61.7879 Y38.4009
G01 X61.5964 Y38.4313
G01 X61.4026 Y38.4313
G01 X61.2111 Y38.4009
G01 X61.0267 Y38.3410
G01 X60.8539 Y38.2530
G01 X60.6971 Y38.1390
G01 X60.5600 Y38.0019
G01 X60.4460 Y37.8451
G01 X60.3962 Y37.7488
G01 X60.3397 Y37.6881
G01 X60.3101 Y37.6713
G01 X60.2147 Y37.6527
G01 X60.1325 Y37.6796
G01 X60.1085 Y37.6957
G01 X60.0620 Y37.7500
G01 X60.0131 Y37.8448
G01 X59.8990 Y38.0019
G01 X59.7619 Y38.1390
G01 X59.6051 Y38.2530
G01 X59.4323 Y38.3410
G01 X59.2479 Y38.4009
G01 X59.0564 Y38.4313
G01 X58.8626 Y38.4313
G01 X58.6711 Y38.4009
G01 X58.4867 Y38.3410
G01 X58.3139 Y38.2530
G01 X58.1571 Y38.1390
G01 X58.0200 Y38.0019
G01 X57.9060 Y37.8451
G01 X57.8562 Y37.7488
G01 X57.7997 Y37.6881
G01 X57.7717 Y37.6718
G01 X57.6780 Y37.6524
G01 X57.5942 Y37.6789
G01 X57.5711 Y37.6931
G01 X57.5220 Y37.7500
G01 X57.4731 Y37.8448
G01 X57.3590 Y38.0019
G01 X57.2219 Y38.1390
G01 X57.0651 Y38.2530
G01 X56.8923 Y38.3410
G01 X56.7079 Y38.4009
G01 X56.5164 Y38.4313
G01 X56.3226 Y38.4313
G01 X56.1311 Y38.4009
G01 X55.9467 Y38.3410
G01 X55.7739 Y38.2530
G01 X55.6171 Y38.1390
G01 X55.4800 Y38.0019
G01 X55.3660 Y37.8451
G01 X55.3159 Y37.7483
G01 X55.2594 Y37.6875
G01 X55.2314 Y37.6712
G01 X55.1410 Y37.6516
G01 X55.0522 Y37.6790
G01 X55.0283 Y37.6951
G01 X54.9817 Y37.7495
G01 X54.9326 Y37.8448
G01 X54.8186 Y38.0016
G01 X54.6816 Y38.1386
G01 X54.5248 Y38.2526
G01 X54.3521 Y38.3405
G01 X54.1983 Y38.3905
G01 X54.1983 Y38.0071
G01 X54.2890 Y37.9657
G01 X54.3622 Y37.9218
G01 X54.4961 Y37.8114
G01 X54.5531 Y37.7480
G01 X54.6440 Y37.6120
G01 X54.7108 Y37.4517
G01 X54.7321 Y37.3657
G01 X54.7482 Y37.2012
G01 X54.7482 Y36.7978
G01 X54.7316 Y36.6300
G01 X54.7098 Y36.5441
G01 X54.6472 Y36.3930
G01 X54.5511 Y36.2484
G01 X54.4914 Y36.1829
G01 X54.3649 Y36.0791
G01 X54.2890 Y36.0333
G01 X54.1983 Y35.9919
G01 X54.1982 Y35.6068
G01 X54.1673 Y35.5054
G01 X53.6745 Y35.0066
G01 X53.5863 Y34.9572
G01 X53.5394 Y34.9513
G01 X43.2113 Y34.9536
G01 X43.1367 Y34.9758
G01 X43.1132 Y34.9913
G01 X43.0638 Y35.0462
G01 X42.9390 Y35.2219
G01 X42.8019 Y35.3590
G01 X42.6451 Y35.4730
G01 X42.5488 Y35.5228
G01 X42.4904 Y35.5770
G01 X42.4728 Y35.6042
G01 X42.4528 Y35.6847
G01 X42.4558 Y35.7170
G01 X42.4796 Y35.7865
G01 X42.4957 Y35.8105
G01 X42.5500 Y35.8570
G01 X42.6451 Y35.9060
G01 X42.8019 Y36.0200
G01 X42.9390 Y36.1571
G01 X43.0530 Y36.3139
G01 X43.1410 Y36.4867
G01 X43.2009 Y36.6711
G01 X43.2313 Y36.8626
G01 X43.2313 Y37.0564
G01 X43.2009 Y37.2479
G01 X43.1410 Y37.4323
G01 X43.0530 Y37.6051
G01 X42.9390 Y37.7619
G01 X42.8019 Y37.8990
G01 X42.6451 Y38.0130
G01 X42.5488 Y38.0628
G01 X42.4892 Y38.1181
G01 X42.4718 Y38.1473
G01 X42.4521 Y38.2345
G01 X42.4789 Y38.3248
G01 X42.4931 Y38.3479
G01 X42.5500 Y38.3970
G01 X42.6451 Y38.4460
G01 X42.8019 Y38.5600
G01 X42.9390 Y38.6971
G01 X43.0530 Y38.8539
G01 X43.1410 Y39.0267
G01 X43.2009 Y39.2111
G01 X43.2313 Y39.4026
G01 X43.2313 Y39.5964
G01 X43.2009 Y39.7879
G01 X43.1410 Y39.9723
G01 X43.0530 Y40.1451
G01 X42.9390 Y40.3019
G01 X42.8019 Y40.4390
G01 X42.6451 Y40.5530
G01 X42.5488 Y40.6028
G01 X42.4881 Y40.6593
G01 X42.4718 Y40.6873
G01 X42.4521 Y40.7745
G01 X42.4789 Y40.8648
G01 X42.4931 Y40.8879
G01 X42.5500 Y40.9370
G01 X42.6451 Y40.9860
G01 X42.8019 Y41.1000
G01 X42.9390 Y41.2371
G01 X43.0530 Y41.3939
G01 X43.1410 Y41.5667
G01 X43.2009 Y41.7511
G01 X43.2313 Y41.9426
G01 X43.2313 Y42.1364
G01 X43.2009 Y42.3279
G01 X43.1355 Y42.5232
G01 X43.0530 Y42.6851
G01 X42.9390 Y42.8419
G01 X42.8019 Y42.9790
G01 X42.6451 Y43.0930
G01 X42.4723 Y43.1810
G01 X42.2879 Y43.2409
G01 X42.0964 Y43.2713
G01 X41.9026 Y43.2713
G01 X41.7111 Y43.2409
G01 X41.5267 Y43.1810
G01 X41.3539 Y43.0930
G01 X41.1971 Y42.9790
G01 X41.0600 Y42.8419
G01 X40.9460 Y42.6851
G01 X40.8580 Y42.5123
G01 X40.7981 Y42.3279
G01 X40.7678 Y42.1364
G01 X40.7678 Y41.9426
G01 X40.8039 Y41.7291
G01 X40.8063 Y41.6465
G01 X40.7988 Y41.6193
G01 X40.7551 Y41.5471
G01 X32.9086 Y33.7024
G01 X32.8325 Y33.6613
G01 X32.7824 Y33.6543
G01 X28.0568 Y33.6550
G01 X27.9740 Y33.6789
G01 X27.9486 Y33.6964
G01 X27.8912 Y33.7669
G01 X27.8756 Y33.8564
G01 X27.8783 Y33.8854
G01 X27.9609 Y34.1311
G01 X27.9913 Y34.3226
G01 X27.9913 Y34.5164
G01 X27.9609 Y34.7079
G01 X27.9010 Y34.8923
G01 X27.8130 Y35.0651
G01 X27.6990 Y35.2219
G01 X27.5619 Y35.3590
G01 X27.4051 Y35.4730
G01 X27.3088 Y35.5228
G01 X27.2492 Y35.5781
G01 X27.2318 Y35.6073
G01 X27.2121 Y35.6945
G01 X27.2389 Y35.7848
G01 X27.2531 Y35.8079
G01 X27.3100 Y35.8570
G01 X27.4051 Y35.9060
G01 X27.5619 Y36.0200
G01 X27.6990 Y36.1571
G01 X27.8130 Y36.3139
G01 X27.9010 Y36.4867
G01 X27.9609 Y36.6711
G01 X27.9913 Y36.8626
G01 X27.9913 Y37.0564
G01 X27.9609 Y37.2479
G01 X27.9010 Y37.4323
G01 X27.8130 Y37.6051
G01 X27.6990 Y37.7619
G01 X27.5619 Y37.8990
G01 X27.4051 Y38.0130
G01 X27.3088 Y38.0628
G01 X27.2481 Y38.1193
G01 X27.2318 Y38.1473
G01 X27.2121 Y38.2345
G01 X27.2389 Y38.3248
G01 X27.2557 Y38.3505
G01 X27.3100 Y38.3970
G01 X27.4051 Y38.4460
G01 X27.5619 Y38.5600
G01 X27.6990 Y38.6971
G01 X27.8130 Y38.8539
G01 X27.9010 Y39.0267
G01 X27.9609 Y39.2111
G01 X27.9913 Y39.4026
G01 X27.9913 Y39.5964
G01 X27.9609 Y39.7879
G01 X27.9010 Y39.9723
G01 X27.8130 Y40.1451
G01 X27.6990 Y40.3019
G01 X27.5619 Y40.4390
G01 X27.5225 Y40.4685
G01 X27.4714 Y40.5338
G01 X27.4601 Y40.5608
G01 X27.4530 Y40.6434
G01 X27.4582 Y40.6689
G01 X27.4936 Y40.7367
G01 X27.5150 Y40.7609
G01 X27.5922 Y40.8037
G01 X27.6510 Y40.8128
G01 X27.7685 Y40.8567
G01 X27.8679 Y40.9311
G01 X27.9423 Y41.0305
G01 X27.9862 Y41.1480
G01 X27.9913 Y41.1953
G01 X27.9862 Y42.9310
G01 X27.9423 Y43.0485
G01 X27.8679 Y43.1479
G01 X27.7685 Y43.2223
G01 X27.6510 Y43.2662
G01 X25.9153 Y43.2713
G01 X25.8680 Y43.2662
G01 X25.7505 Y43.2223
G01 X25.6511 Y43.1479
G01 X25.5767 Y43.0485
G01 X25.5328 Y42.9310
G01 X25.5278 Y41.1953
G01 X25.5328 Y41.1480
G01 X25.5767 Y41.0305
G01 X25.6511 Y40.9311
G01 X25.7505 Y40.8567
G01 X25.8680 Y40.8128
G01 X25.9122 Y40.8061
G01 X25.9991 Y40.7661
G01 X26.0586 Y40.6790
G01 X26.0642 Y40.5801
G01 X26.0124 Y40.4827
G01 X25.9571 Y40.4390
G01 X25.8200 Y40.3019
G01 X25.7060 Y40.1451
G01 X25.6180 Y39.9723
G01 X25.5581 Y39.7879
G01 X25.5278 Y39.5964
G01 X25.5278 Y39.4026
G01 X25.5581 Y39.2111
G01 X25.6180 Y39.0267
G01 X25.7060 Y38.8539
G01 X25.8200 Y38.6971
G01 X25.9571 Y38.5600
G01 X26.1139 Y38.4460
G01 X26.2102 Y38.3962
G01 X26.2709 Y38.3397
G01 X26.2872 Y38.3117
G01 X26.3069 Y38.2212
G01 X26.2801 Y38.1342
G01 X26.2659 Y38.1111
G01 X26.2090 Y38.0620
G01 X26.1139 Y38.0130
G01 X25.9571 Y37.8990
G01 X25.8200 Y37.7619
G01 X25.7060 Y37.6051
G01 X25.6180 Y37.4323
G01 X25.5581 Y37.2479
G01 X25.5278 Y37.0564
G01 X25.5278 Y36.8626
G01 X25.5581 Y36.6711
G01 X25.6180 Y36.4867
G01 X25.7060 Y36.3139
G01 X25.8200 Y36.1571
G01 X25.9571 Y36.0200
G01 X26.1139 Y35.9060
G01 X26.2102 Y35.8562
G01 X26.2709 Y35.7997
G01 X26.2877 Y35.7701
G01 X26.3063 Y35.6747
G01 X26.2794 Y35.5925
G01 X26.2620 Y35.5673
G01 X26.2090 Y35.5220
G01 X26.1139 Y35.4730
G01 X25.9571 Y35.3590
G01 X25.8200 Y35.2219
G01 X25.7060 Y35.0651
G01 X25.6180 Y34.8923
G01 X25.5581 Y34.7079
G01 X25.5278 Y34.5164
G01 X25.5278 Y34.3226
G01 X25.5581 Y34.1311
G01 X25.6180 Y33.9467
G01 X25.7099 Y33.7661
G01 X25.7268 Y33.7082
G01 X25.7281 Y33.6591
G01 X25.7065 Y33.5903
G01 X25.6730 Y33.5453
G01 X24.7155 Y32.5877
G01 X24.6355 Y32.5409
G01 X24.5792 Y32.5313
G01 X18.9142 Y32.5319
G01 X18.8198 Y32.5618
G01 X18.7497 Y32.6417
G01 X18.7316 Y32.7167
G01 X18.7262 Y32.8910
G01 X18.6823 Y33.0085
G01 X18.6079 Y33.1079
G01 X18.5085 Y33.1823
G01 X18.3910 Y33.2262
G01 X18.3270 Y33.2336
G01 X18.2406 Y33.2656
G01 X18.1788 Y33.3364
G01 X18.1657 Y33.3825
G01 X17.8452 Y33.7030
G01 X17.7517 Y33.6682
G01 X17.6690 Y33.6474
G01 X17.4995 Y33.6308
G01 X17.3300 Y33.6474
G01 X17.2473 Y33.6682
G01 X17.1538 Y33.7030
G01 X16.8316 Y33.3809
G01 X16.8153 Y33.3272
G01 X16.7526 Y33.2623
G01 X16.6719 Y33.2336
G01 X16.6080 Y33.2262
G01 X16.4905 Y33.1823
G01 X16.3911 Y33.1079
G01 X16.3167 Y33.0085
G01 X16.2728 Y32.8910
G01 X16.2674 Y32.6063
G01 X16.2419 Y32.5173
G01 X16.1633 Y32.4420
G01 X16.0860 Y32.4210
G01 X8.9992 Y32.4204
G01 X8.9163 Y32.4435
G01 X8.8922 Y32.4579
G01 X8.8404 Y32.5151
G01 X8.8163 Y32.5601
G01 X8.6977 Y32.7233
G01 X8.5550 Y32.8660
G01 X8.3763 Y32.9939
G01 X8.3182 Y33.0484
G01 X8.3019 Y33.0764
G01 X8.2822 Y33.1636
G01 X8.3090 Y33.2540
G01 X8.3232 Y33.2770
G01 X8.3767 Y33.3237
G01 X8.5547 Y33.4511
G01 X8.6973 Y33.5937
G01 X8.8158 Y33.7568
G01 X8.9074 Y33.9365
G01 X8.9636 Y34.1096
G01 X8.5807 Y34.1096
G01 X8.5286 Y33.9923
G01 X8.4302 Y33.8455
G01 X8.3672 Y33.7764
G01 X8.2305 Y33.6644
G01 X8.1501 Y33.6166
G01 X7.9867 Y33.5492
G01 X7.8959 Y33.5267
G01 X7.7200 Y33.5096
G01 X7.5441 Y33.5267
G01 X7.4533 Y33.5492
G01 X7.2899 Y33.6166
G01 X7.2096 Y33.6644
G01 X7.0728 Y33.7764
G01 X7.0098 Y33.8455
G01 X6.9114 Y33.9923
G01 X6.8594 Y34.1096
G01 X6.4764 Y34.1096
G01 X6.5326 Y33.9365
G01 X6.6242 Y33.7568
G01 X6.7427 Y33.5937
G01 X6.8854 Y33.4511
G01 X7.0638 Y33.3234
G01 X7.1241 Y33.2664
G01 X7.1382 Y33.2408
G01 X7.1579 Y33.1536
G01 X7.1310 Y33.0633
G01 X7.1168 Y33.0403
G01 X7.0633 Y32.9936
G01 X6.8850 Y32.8660
G01 X6.7424 Y32.7233
G01 X6.6238 Y32.5601
G01 X6.5322 Y32.3804
G01 X6.4698 Y32.1885
G01 X6.4383 Y31.9892
G01 X6.4383 Y31.7875
G01 X6.4698 Y31.5882
G01 X6.4847 Y31.5383
G01 X6.4834 Y31.4372
G01 X6.4370 Y31.3574
G01 X6.0740 Y30.9943
G01 X6.0040 Y30.8731
G01 X5.9677 Y30.7378
G01 X5.9677 Y7.6895
G01 X6.0040 Y7.5543
G01 X6.0740 Y7.4330
G00 Z2.0000
G00 X12.6715 Y7.6006
G01 F60.00
G01 Z-0.0700
G01 F120.00
G01 X12.6891 Y7.6606
G01 X12.7201 Y7.7034
G01 X25.5840 Y20.5661
G01 X25.6296 Y20.5928
G01 X25.6894 Y20.6044
G01 X27.9457 Y20.6044
G01 X41.2776 Y33.9363
G01 X41.1969 Y34.0870
G01 X41.1474 Y34.2500
G01 X41.1308 Y34.4195
G01 X41.1474 Y34.5890
G01 X41.1969 Y34.7520
G01 X41.2772 Y34.9022
G01 X41.3852 Y35.0338
G01 X41.5168 Y35.1418
G01 X41.6702 Y35.2233
G01 X41.8267 Y35.2708
G01 X41.9143 Y35.2841
G01 X42.0880 Y35.2837
G01 X42.2484 Y35.2517
G01 X42.3320 Y35.2221
G01 X42.4849 Y35.1399
G01 X42.6114 Y35.0361
G01 X42.6711 Y34.9706
G01 X42.7236 Y34.8993
G01 X42.8008 Y34.7550
G01 X42.8517 Y34.5883
G01 X53.7696 Y34.5883
G01 X55.6269 Y36.4456
G01 X55.5873 Y36.5506
G01 X55.5549 Y36.7143
G01 X55.5553 Y37.2880
G01 X55.5882 Y37.4517
G01 X55.6518 Y37.6060
G01 X55.7459 Y37.7480
G01 X55.8076 Y37.8161
G01 X55.9341 Y37.9199
G01 X56.0070 Y37.9640
G01 X56.1641 Y38.0298
G01 X56.3343 Y38.0641
G01 X56.5047 Y38.0641
G01 X56.6749 Y38.0298
G01 X56.8260 Y37.9672
G01 X56.8993 Y37.9236
G01 X57.0338 Y37.8138
G01 X57.1418 Y37.6822
G01 X57.2233 Y37.5288
G01 X57.2708 Y37.3723
G01 X57.2837 Y37.2880
G01 X57.2843 Y36.7177
G01 X57.2517 Y36.5506
G01 X57.2208 Y36.4640
G01 X57.1418 Y36.3168
G01 X57.0361 Y36.1876
G01 X56.9022 Y36.0772
G01 X56.7520 Y35.9969
G01 X56.5890 Y35.9474
G01 X56.4195 Y35.9308
G01 X56.2500 Y35.9474
G01 X56.0870 Y35.9969
G01 X55.9368 Y36.0772
G01 X55.8255 Y36.1667
G01 X53.9589 Y34.3001
G01 X53.9220 Y34.2723
G01 X53.8852 Y34.2571
G01 X53.8395 Y34.2507
G01 X42.8517 Y34.2507
G01 X42.8008 Y34.0840
G01 X42.7236 Y33.9397
G01 X42.6711 Y33.8684
G01 X42.6114 Y33.8029
G01 X42.4849 Y33.6991
G01 X42.3320 Y33.6169
G01 X42.2484 Y33.5873
G01 X42.0880 Y33.5553
G01 X41.9143 Y33.5549
G01 X41.8267 Y33.5682
G01 X41.6702 Y33.6157
G01 X41.5163 Y33.6976
G01 X28.1227 Y20.3052
G01 X28.0771 Y20.2785
G01 X28.0173 Y20.2669
G01 X25.7610 Y20.2668
G01 X13.0083 Y7.5141
G01 X13.0083 Y7.4022
G01 X13.1062 Y7.3787
G01 X13.1911 Y7.3483
G01 X13.3499 Y7.2634
G01 X13.4892 Y7.1492
G01 X13.6015 Y7.0127
G01 X13.6513 Y6.9296
G01 X13.7187 Y6.7662
G01 X13.7534 Y6.5929
G01 X13.7583 Y6.4995
G01 X13.7406 Y6.3203
G01 X13.6895 Y6.1511
G01 X13.6481 Y6.0635
G01 X13.5497 Y5.9166
G01 X13.4223 Y5.7893
G01 X13.2755 Y5.6909
G01 X13.1879 Y5.6495
G01 X13.0154 Y5.5978
G01 X12.8395 Y5.5808
G01 X12.6603 Y5.5984
G01 X12.4879 Y5.6507
G01 X12.3291 Y5.7356
G01 X12.1898 Y5.8498
G01 X12.0756 Y5.9891
G01 X11.9907 Y6.1479
G01 X11.9378 Y6.3236
G01 X11.9208 Y6.4995
G01 X11.9378 Y6.6754
G01 X11.9614 Y6.7694
G01 X12.0309 Y6.9355
G01 X12.1315 Y7.0849
G01 X12.1923 Y7.1515
G01 X12.3263 Y7.2615
G01 X12.4879 Y7.3483
G01 X12.5728 Y7.3787
G01 X12.6707 Y7.4022
G01 X12.6715 Y7.6006
G00 Z2.0000
G00 X17.7519 Y7.7215
G01 F60.00
G01 Z-0.0700
G01 F120.00
G01 X17.7691 Y7.7781
G01 X17.8001 Y7.8209
G01 X25.4609 Y15.4779
G01 X25.5084 Y15.5010
G01 X25.5574 Y15.5083
G01 X28.2696 Y15.5083
G01 X39.7030 Y26.9379
G01 X39.7505 Y26.9610
G01 X39.7978 Y26.9683
G01 X41.1473 Y26.9683
G01 X41.1957 Y27.1288
G01 X41.2350 Y27.2120
G01 X41.3279 Y27.3506
G01 X41.4484 Y27.4711
G01 X41.5900 Y27.5657
G01 X41.7441 Y27.6298
G01 X41.8333 Y27.6521
G01 X41.9995 Y27.6683
G01 X42.1657 Y27.6521
G01 X42.2549 Y27.6298
G01 X42.4090 Y27.5657
G01 X42.5506 Y27.4711
G01 X42.6711 Y27.3506
G01 X42.7640 Y27.2120
G01 X42.8033 Y27.1288
G01 X42.8517 Y26.9683
G01 X48.6896 Y26.9683
G01 X58.1669 Y36.4456
G01 X58.1273 Y36.5506
G01 X58.0949 Y36.7143
G01 X58.0953 Y37.2880
G01 X58.1282 Y37.4517
G01 X58.1918 Y37.6060
G01 X58.2391 Y37.6849
G01 X58.3452 Y37.8138
G01 X58.4797 Y37.9236
G01 X58.5530 Y37.9672
G01 X58.7041 Y38.0298
G01 X58.8743 Y38.0641
G01 X59.0447 Y38.0641
G01 X59.2117 Y38.0308
G01 X59.3720 Y37.9640
G01 X59.4449 Y37.9199
G01 X59.5714 Y37.8161
G01 X59.6799 Y37.6849
G01 X59.7621 Y37.5320
G01 X59.8121 Y37.3657
G01 X59.8282 Y37.2012
G01 X59.8243 Y36.7177
G01 X59.7917 Y36.5506
G01 X59.7608 Y36.4640
G01 X59.6818 Y36.3168
G01 X59.5738 Y36.1852
G01 X59.4422 Y36.0772
G01 X59.2920 Y35.9969
G01 X59.1290 Y35.9474
G01 X58.9595 Y35.9308
G01 X58.7900 Y35.9474
G01 X58.6270 Y35.9969
G01 X58.4768 Y36.0772
G01 X58.3655 Y36.1667
G01 X48.8560 Y26.6611
G01 X48.8085 Y26.6380
G01 X48.7595 Y26.6307
G01 X42.8517 Y26.6307
G01 X42.8033 Y26.4702
G01 X42.7640 Y26.3870
G01 X42.6711 Y26.2484
G01 X42.5506 Y26.1279
G01 X42.4090 Y26.0333
G01 X42.2549 Y25.9692
G01 X42.1657 Y25.9469
G01 X41.9995 Y25.9308
G01 X41.8333 Y25.9469
G01 X41.7441 Y25.9692
G01 X41.5900 Y26.0333
G01 X41.4484 Y26.1279
G01 X41.3279 Y26.2484
G01 X41.2350 Y26.3870
G01 X41.1957 Y26.4702
G01 X41.1473 Y26.6307
G01 X39.8694 Y26.6307
G01 X28.4466 Y15.2090
G01 X28.4010 Y15.1823
G01 X28.3412 Y15.1707
G01 X25.6273 Y15.1707
G01 X18.0883 Y7.6317
G01 X18.0883 Y7.4022
G01 X18.1862 Y7.3787
G01 X18.2711 Y7.3483
G01 X18.4299 Y7.2634
G01 X18.5692 Y7.1492
G01 X18.6834 Y7.0099
G01 X18.7669 Y6.8542
G01 X18.7987 Y6.7662
G01 X18.8334 Y6.5929
G01 X18.8382 Y6.4961
G01 X18.8206 Y6.3203
G01 X18.7683 Y6.1479
G01 X18.6834 Y5.9891
G01 X18.5715 Y5.8523
G01 X18.4327 Y5.7375
G01 X18.3496 Y5.6877
G01 X18.1862 Y5.6203
G01 X18.0096 Y5.5852
G01 X17.8294 Y5.5852
G01 X17.6528 Y5.6203
G01 X17.4864 Y5.6892
G01 X17.3367 Y5.7893
G01 X17.2093 Y5.9166
G01 X17.1092 Y6.0664
G01 X17.0403 Y6.2328
G01 X17.0052 Y6.4094
G01 X17.0008 Y6.5029
G01 X17.0184 Y6.6787
G01 X17.0695 Y6.8479
G01 X17.1109 Y6.9355
G01 X17.2115 Y7.0849
G01 X17.2723 Y7.1515
G01 X17.4063 Y7.2615
G01 X17.5679 Y7.3483
G01 X17.6528 Y7.3787
G01 X17.7507 Y7.4022
G01 X17.7519 Y7.7215
G00 Z2.0000
G00 X18.7344 Y7.7645
G01 F60.00
G01 Z-0.0700
G01 F120.00
G01 X25.1987 Y14.2288
G01 X25.2786 Y14.2755
G01 X25.3103 Y14.2824
G01 X25.4054 Y14.2719
G01 X25.4829 Y14.2154
G01 X25.5261 Y14.1147
G01 X25.5278 Y14.0026
G01 X25.5581 Y13.8111
G01 X25.6228 Y13.6125
G01 X25.6333 Y13.5450
G01 X25.6301 Y13.5127
G01 X25.5907 Y13.4255
G01 X25.5120 Y13.3687
G01 X25.3922 Y13.3350
G01 X25.2709 Y13.2650
G01 X20.0340 Y8.0281
G01 X19.9640 Y7.9068
G01 X19.9240 Y7.7537
G01 X19.8920 Y7.6740
G01 X19.8303 Y7.6181
G01 X19.7877 Y7.5957
G01 X19.6245 Y7.4772
G01 X19.4818 Y7.3345
G01 X19.3562 Y7.1589
G01 X19.2948 Y7.0939
G01 X19.2717 Y7.0819
G01 X19.1845 Y7.0622
G01 X19.0797 Y7.0965
G01 X19.0244 Y7.1568
G01 X18.8972 Y7.3345
G01 X18.7437 Y7.4876
G01 X18.6916 Y7.5630
G01 X18.6821 Y7.6518
G01 X18.6885 Y7.6836
G01 X18.7344 Y7.7645
G00 Z2.0000
G00 X20.2919 Y7.7215
G01 F60.00
G01 Z-0.0700
G01 F120.00
G01 X20.3091 Y7.7781
G01 X20.3401 Y7.8209
G01 X25.5036 Y12.9799
G01 X25.5484 Y13.0010
G01 X25.5974 Y13.0083
G01 X28.1296 Y13.0083
G01 X39.5002 Y24.3789
G01 X39.5370 Y24.4067
G01 X39.5738 Y24.4219
G01 X39.6178 Y24.4283
G01 X41.1473 Y24.4283
G01 X41.1957 Y24.5888
G01 X41.2350 Y24.6720
G01 X41.3279 Y24.8106
G01 X41.4484 Y24.9311
G01 X41.5900 Y25.0257
G01 X41.7441 Y25.0898
G01 X41.8333 Y25.1121
G01 X41.9995 Y25.1283
G01 X42.1657 Y25.1121
G01 X42.2549 Y25.0898
G01 X42.4090 Y25.0257
G01 X42.5506 Y24.9311
G01 X42.6711 Y24.8106
G01 X42.7640 Y24.6720
G01 X42.8033 Y24.5888
G01 X42.8517 Y24.4283
G01 X48.6896 Y24.4283
G01 X60.7069 Y36.4456
G01 X60.6673 Y36.5506
G01 X60.6349 Y36.7143
G01 X60.6353 Y37.2880
G01 X60.6682 Y37.4517
G01 X60.7318 Y37.6060
G01 X60.7791 Y37.6849
G01 X60.8852 Y37.8138
G01 X61.0197 Y37.9236
G01 X61.0930 Y37.9672
G01 X61.2441 Y38.0298
G01 X61.4143 Y38.0641
G01 X61.5847 Y38.0641
G01 X61.7517 Y38.0308
G01 X61.9120 Y37.9640
G01 X61.9849 Y37.9199
G01 X62.1114 Y37.8161
G01 X62.2199 Y37.6849
G01 X62.3021 Y37.5320
G01 X62.3521 Y37.3657
G01 X62.3682 Y37.2012
G01 X62.3643 Y36.7177
G01 X62.3317 Y36.5506
G01 X62.3008 Y36.4640
G01 X62.2218 Y36.3168
G01 X62.1138 Y36.1852
G01 X61.9822 Y36.0772
G01 X61.8320 Y35.9969
G01 X61.6690 Y35.9474
G01 X61.4995 Y35.9308
G01 X61.3300 Y35.9474
G01 X61.1670 Y35.9969
G01 X61.0168 Y36.0772
G01 X60.9055 Y36.1667
G01 X48.8560 Y24.1211
G01 X48.8085 Y24.0980
G01 X48.7595 Y24.0907
G01 X42.8517 Y24.0907
G01 X42.8033 Y23.9302
G01 X42.7640 Y23.8470
G01 X42.6711 Y23.7084
G01 X42.5506 Y23.5879
G01 X42.4090 Y23.4933
G01 X42.2549 Y23.4292
G01 X42.1657 Y23.4069
G01 X41.9995 Y23.3908
G01 X41.8333 Y23.4069
G01 X41.7441 Y23.4292
G01 X41.5900 Y23.4933
G01 X41.4484 Y23.5879
G01 X41.3279 Y23.7084
G01 X41.2350 Y23.8470
G01 X41.1957 Y23.9302
G01 X41.1473 Y24.0907
G01 X39.6894 Y24.0907
G01 X28.3066 Y12.7090
G01 X28.2610 Y12.6823
G01 X28.2012 Y12.6707
G01 X25.6673 Y12.6707
G01 X20.6283 Y7.6317
G01 X20.6283 Y7.4022
G01 X20.7262 Y7.3787
G01 X20.8111 Y7.3483
G01 X20.9699 Y7.2634
G01 X21.1092 Y7.1492
G01 X21.2234 Y7.0099
G01 X21.3069 Y6.8542
G01 X21.3387 Y6.7662
G01 X21.3734 Y6.5929
G01 X21.3782 Y6.4961
G01 X21.3606 Y6.3203
G01 X21.3083 Y6.1479
G01 X21.2234 Y5.9891
G01 X21.1115 Y5.8523
G01 X20.9727 Y5.7375
G01 X20.8896 Y5.6877
G01 X20.7262 Y5.6203
G01 X20.5496 Y5.5852
G01 X20.3694 Y5.5852
G01 X20.1928 Y5.6203
G01 X20.0264 Y5.6892
G01 X19.8767 Y5.7893
G01 X19.7493 Y5.9166
G01 X19.6492 Y6.0664
G01 X19.5803 Y6.2328
G01 X19.5452 Y6.4094
G01 X19.5408 Y6.5029
G01 X19.5584 Y6.6787
G01 X19.6095 Y6.8479
G01 X19.6509 Y6.9355
G01 X19.7515 Y7.0849
G01 X19.8123 Y7.1515
G01 X19.9463 Y7.2615
G01 X20.1079 Y7.3483
G01 X20.1928 Y7.3787
G01 X20.2907 Y7.4022
G01 X20.2919 Y7.7215
G00 Z2.0000
G00 X22.1428 Y5.5811
G01 F60.00
G01 Z-0.0700
G01 F120.00
G01 X22.0986 Y5.6033
G01 X22.0808 Y5.6478
G01 X22.0808 Y7.3495
G01 X22.0860 Y7.3758
G01 X22.1009 Y7.3981
G01 X22.1232 Y7.4130
G01 X22.1495 Y7.4183
G01 X23.8495 Y7.4183
G01 X23.8758 Y7.4130
G01 X23.8981 Y7.3981
G01 X23.9130 Y7.3758
G01 X23.9183 Y7.3495
G01 X23.9183 Y5.6495
G01 X23.9130 Y5.6232
G01 X23.8981 Y5.6009
G01 X23.8758 Y5.5860
G01 X23.8495 Y5.5808
G01 X22.1428 Y5.5811
G00 Z2.0000
G00 X26.5933 Y5.6269
G01 F60.00
G01 Z-0.0700
G01 F120.00
G01 X26.4270 Y5.6769
G01 X26.2768 Y5.7572
G01 X26.1452 Y5.8652
G01 X26.0372 Y5.9968
G01 X25.9569 Y6.1470
G01 X25.9074 Y6.3100
G01 X25.8908 Y6.4795
G01 X25.9074 Y6.6490
G01 X25.9569 Y6.8120
G01 X26.0372 Y6.9622
G01 X26.1452 Y7.0938
G01 X26.2768 Y7.2018
G01 X26.4270 Y7.2821
G01 X26.5900 Y7.3316
G01 X26.7595 Y7.3483
G01 X26.9290 Y7.3316
G01 X27.0920 Y7.2821
G01 X27.2422 Y7.2018
G01 X27.3738 Y7.0938
G01 X27.4818 Y6.9622
G01 X27.5621 Y6.8120
G01 X27.6116 Y6.6490
G01 X27.6283 Y6.4795
G01 X27.6116 Y6.3100
G01 X27.5621 Y6.1470
G01 X27.4818 Y5.9968
G01 X27.3738 Y5.8652
G01 X27.2422 Y5.7572
G01 X27.0920 Y5.6769
G01 X26.9290 Y5.6274
G01 X26.7595 Y5.6108
G01 X26.5933 Y5.6269
G00 Z2.0000
G00 X26.5933 Y8.1669
G01 F60.00
G01 Z-0.0700
G01 F120.00
G01 X26.4270 Y8.2169
G01 X26.2768 Y8.2972
G01 X26.1452 Y8.4052
G01 X26.0372 Y8.5368
G01 X25.9569 Y8.6870
G01 X25.9074 Y8.8500
G01 X25.8908 Y9.0195
G01 X25.9074 Y9.1890
G01 X25.9569 Y9.3520
G01 X26.0372 Y9.5022
G01 X26.1452 Y9.6338
G01 X26.2768 Y9.7418
G01 X26.4270 Y9.8221
G01 X26.5900 Y9.8716
G01 X26.7595 Y9.8883
G01 X26.9290 Y9.8716
G01 X27.0920 Y9.8221
G01 X27.2422 Y9.7418
G01 X27.3738 Y9.6338
G01 X27.4818 Y9.5022
G01 X27.5621 Y9.3520
G01 X27.6116 Y9.1890
G01 X27.6283 Y9.0195
G01 X27.6116 Y8.8500
G01 X27.5621 Y8.6870
G01 X27.4818 Y8.5368
G01 X27.3738 Y8.4052
G01 X27.2422 Y8.2972
G01 X27.0920 Y8.2169
G01 X26.9290 Y8.1674
G01 X26.7595 Y8.1508
G01 X26.5933 Y8.1669
G00 Z2.0000
G00 X26.5900 Y10.7074
G01 F60.00
G01 Z-0.0700
G01 F120.00
G01 X26.4270 Y10.7569
G01 X26.2768 Y10.8372
G01 X26.1452 Y10.9452
G01 X26.0372 Y11.0768
G01 X25.9569 Y11.2270
G01 X25.9074 Y11.3900
G01 X25.8908 Y11.5595
G01 X25.9074 Y11.7290
G01 X25.9569 Y11.8920
G01 X26.0372 Y12.0422
G01 X26.1452 Y12.1738
G01 X26.2768 Y12.2818
G01 X26.4270 Y12.3621
G01 X26.5900 Y12.4116
G01 X26.7595 Y12.4283
G01 X26.9290 Y12.4116
G01 X27.0920 Y12.3621
G01 X27.2422 Y12.2818
G01 X27.3738 Y12.1738
G01 X27.4818 Y12.0422
G01 X27.5621 Y11.8920
G01 X27.6116 Y11.7290
G01 X27.6283 Y11.5595
G01 X27.6116 Y11.3900
G01 X27.5621 Y11.2270
G01 X27.4818 Y11.0768
G01 X27.3738 Y10.9452
G01 X27.2422 Y10.8372
G01 X27.0920 Y10.7569
G01 X26.9290 Y10.7074
G01 X26.7595 Y10.6908
G01 X26.5900 Y10.7074
G00 Z2.0000
G00 X26.5933 Y13.2469
G01 F60.00
G01 Z-0.0700
G01 F120.00
G01 X26.4270 Y13.2969
G01 X26.2768 Y13.3772
G01 X26.1452 Y13.4852
G01 X26.0372 Y13.6168
G01 X25.9569 Y13.7670
G01 X25.9074 Y13.9300
G01 X25.8908 Y14.0995
G01 X25.9074 Y14.2690
G01 X25.9569 Y14.4320
G01 X26.0372 Y14.5822
G01 X26.1452 Y14.7138
G01 X26.2768 Y14.8218
G01 X26.4270 Y14.9021
G01 X26.5900 Y14.9516
G01 X26.7595 Y14.9683
G01 X26.9290 Y14.9516
G01 X27.0920 Y14.9021
G01 X27.2422 Y14.8218
G01 X27.3738 Y14.7138
G01 X27.4818 Y14.5822
G01 X27.5621 Y14.4320
G01 X27.6116 Y14.2690
G01 X27.6283 Y14.0995
G01 X27.6116 Y13.9300
G01 X27.5621 Y13.7670
G01 X27.4818 Y13.6168
G01 X27.3738 Y13.4852
G01 X27.2422 Y13.3772
G01 X27.0920 Y13.2969
G01 X26.9290 Y13.2474
G01 X26.7595 Y13.2308
G01 X26.5933 Y13.2469
G00 Z2.0000
G00 X27.9094 Y14.6792
G01 F60.00
G01 Z-0.0700
G01 F120.00
G01 X27.9571 Y14.7547
G01 X28.0343 Y14.7996
G01 X28.0869 Y14.8077
G01 X28.4095 Y14.8078
G01 X28.5448 Y14.8440
G01 X28.6660 Y14.9140
G01 X39.9707 Y26.2177
G01 X40.0495 Y26.2607
G01 X40.0959 Y26.2677
G01 X40.7732 Y26.2677
G01 X40.8593 Y26.2443
G01 X40.8858 Y26.2277
G01 X40.9333 Y26.1751
G01 X41.0600 Y25.9971
G01 X41.1971 Y25.8600
G01 X41.3539 Y25.7460
G01 X41.4502 Y25.6962
G01 X41.5152 Y25.6348
G01 X41.5272 Y25.6117
G01 X41.5469 Y25.5245
G01 X41.5083 Y25.4139
G01 X41.4524 Y25.3644
G01 X41.3539 Y25.3130
G01 X41.1971 Y25.1990
G01 X41.0600 Y25.0619
G01 X40.9326 Y24.8829
G01 X40.8593 Y24.8136
G01 X40.7699 Y24.7913
G01 X39.5495 Y24.7913
G01 X39.4143 Y24.7550
G01 X39.2930 Y24.6850
G01 X28.2942 Y13.6862
G01 X28.2020 Y13.6349
G01 X28.1064 Y13.6380
G01 X28.0760 Y13.6494
G01 X28.0017 Y13.7096
G01 X27.9687 Y13.7928
G01 X27.9670 Y13.8487
G01 X27.9913 Y14.0026
G01 X27.9913 Y14.1964
G01 X27.9609 Y14.3879
G01 X27.9041 Y14.5650
G01 X27.8983 Y14.6327
G01 X27.9094 Y14.6792
G00 Z2.0000
G00 X26.5933 Y15.7869
G01 F60.00
G01 Z-0.0700
G01 F120.00
G01 X26.4270 Y15.8369
G01 X26.2768 Y15.9172
G01 X26.1452 Y16.0252
G01 X26.0372 Y16.1568
G01 X25.9569 Y16.3070
G01 X25.9074 Y16.4700
G01 X25.8908 Y16.6395
G01 X25.9074 Y16.8090
G01 X25.9569 Y16.9720
G01 X26.0372 Y17.1222
G01 X26.1452 Y17.2538
G01 X26.2768 Y17.3618
G01 X26.4270 Y17.4421
G01 X26.5900 Y17.4916
G01 X26.7595 Y17.5083
G01 X26.9290 Y17.4916
G01 X27.0920 Y17.4421
G01 X27.2422 Y17.3618
G01 X27.3738 Y17.2538
G01 X27.4818 Y17.1222
G01 X27.5621 Y16.9720
G01 X27.6116 Y16.8090
G01 X27.6283 Y16.6395
G01 X27.6116 Y16.4700
G01 X27.5621 Y16.3070
G01 X27.4818 Y16.1568
G01 X27.3738 Y16.0252
G01 X27.2422 Y15.9172
G01 X27.0920 Y15.8369
G01 X26.9290 Y15.7874
G01 X26.7595 Y15.7708
G01 X26.5933 Y15.7869
G00 Z2.0000
G00 X27.2463 Y18.0193
G01 F60.00
G01 Z-0.0700
G01 F120.00
G01 X27.3066 Y18.0746
G01 X27.4051 Y18.1260
G01 X27.5619 Y18.2400
G01 X27.6990 Y18.3771
G01 X27.8130 Y18.5339
G01 X27.9010 Y18.7067
G01 X27.9609 Y18.8911
G01 X27.9913 Y19.0826
G01 X27.9913 Y19.2764
G01 X27.9609 Y19.4679
G01 X27.8979 Y19.6709
G01 X27.8991 Y19.7633
G01 X27.9519 Y19.8509
G01 X28.0419 Y19.8986
G01 X28.2209 Y19.9401
G01 X28.3421 Y20.0101
G01 X40.4387 Y32.1067
G01 X40.4980 Y32.1470
G01 X40.5372 Y32.1594
G01 X40.5927 Y32.1619
G01 X40.6454 Y32.1498
G01 X40.7036 Y32.1139
G01 X40.7346 Y32.0777
G01 X40.7614 Y32.0188
G01 X40.7677 Y31.9729
G01 X40.7678 Y31.7826
G01 X40.7981 Y31.5911
G01 X40.8580 Y31.4067
G01 X40.9460 Y31.2339
G01 X41.0600 Y31.0771
G01 X41.1971 Y30.9400
G01 X41.3539 Y30.8260
G01 X41.4502 Y30.7762
G01 X41.5109 Y30.7197
G01 X41.5272 Y30.6917
G01 X41.5456 Y30.6175
G01 X41.5432 Y30.5820
G01 X41.5194 Y30.5125
G01 X41.5033 Y30.4885
G01 X41.4524 Y30.4444
G01 X41.3539 Y30.3930
G01 X41.1971 Y30.2790
G01 X41.0600 Y30.1419
G01 X40.9460 Y29.9851
G01 X40.8580 Y29.8123
G01 X40.7981 Y29.6279
G01 X40.7678 Y29.4364
G01 X40.7678 Y29.2426
G01 X40.7981 Y29.0511
G01 X40.8580 Y28.8667
G01 X40.9460 Y28.6939
G01 X41.0600 Y28.5371
G01 X41.1971 Y28.4000
G01 X41.3539 Y28.2860
G01 X41.4502 Y28.2362
G01 X41.5190 Y28.1695
G01 X41.5466 Y28.0580
G01 X41.5194 Y27.9725
G01 X41.5033 Y27.9485
G01 X41.4524 Y27.9044
G01 X41.3539 Y27.8530
G01 X41.1971 Y27.7390
G01 X41.0600 Y27.6019
G01 X40.9326 Y27.4229
G01 X40.8802 Y27.3675
G01 X40.8534 Y27.3514
G01 X40.7699 Y27.3313
G01 X39.7295 Y27.3313
G01 X39.5943 Y27.2950
G01 X39.4730 Y27.2250
G01 X28.2215 Y15.9735
G01 X28.1356 Y15.9242
G01 X28.0370 Y15.9250
G01 X28.0033 Y15.9367
G01 X27.9290 Y15.9970
G01 X27.8943 Y16.0864
G01 X27.8995 Y16.1597
G01 X27.9609 Y16.3511
G01 X27.9913 Y16.5426
G01 X27.9913 Y16.7364
G01 X27.9609 Y16.9279
G01 X27.9010 Y17.1123
G01 X27.8130 Y17.2851
G01 X27.6990 Y17.4419
G01 X27.5619 Y17.5790
G01 X27.4051 Y17.6930
G01 X27.3088 Y17.7428
G01 X27.2438 Y17.8042
G01 X27.2318 Y17.8273
G01 X27.2121 Y17.9145
G01 X27.2463 Y18.0193
G00 Z2.0000
G00 X26.5900 Y18.3274
G01 F60.00
G01 Z-0.0700
G01 F120.00
G01 X26.4270 Y18.3769
G01 X26.2768 Y18.4572
G01 X26.1452 Y18.5652
G01 X26.0372 Y18.6968
G01 X25.9569 Y18.8470
G01 X25.9074 Y19.0100
G01 X25.8908 Y19.1795
G01 X25.9074 Y19.3490
G01 X25.9569 Y19.5120
G01 X26.0372 Y19.6622
G01 X26.1452 Y19.7938
G01 X26.2768 Y19.9018
G01 X26.4270 Y19.9821
G01 X26.5900 Y20.0316
G01 X26.7595 Y20.0483
G01 X26.9290 Y20.0316
G01 X27.0920 Y19.9821
G01 X27.2422 Y19.9018
G01 X27.3738 Y19.7938
G01 X27.4818 Y19.6622
G01 X27.5621 Y19.5120
G01 X27.6116 Y19.3490
G01 X27.6283 Y19.1795
G01 X27.6116 Y19.0100
G01 X27.5621 Y18.8470
G01 X27.4818 Y18.6968
G01 X27.3738 Y18.5652
G01 X27.2422 Y18.4572
G01 X27.0920 Y18.3769
G01 X26.9290 Y18.3274
G01 X26.7595 Y18.3108
G01 X26.5900 Y18.3274
G00 Z2.0000
G00 X26.5933 Y20.8669
G01 F60.00
G01 Z-0.0700
G01 F120.00
G01 X26.4270 Y20.9169
G01 X26.2768 Y20.9972
G01 X26.1452 Y21.1052
G01 X26.0372 Y21.2368
G01 X25.9569 Y21.3870
G01 X25.9074 Y21.5500
G01 X25.8908 Y21.7195
G01 X25.9074 Y21.8890
G01 X25.9569 Y22.0520
G01 X26.0372 Y22.2022
G01 X26.1452 Y22.3338
G01 X26.2768 Y22.4418
G01 X26.4270 Y22.5221
G01 X26.5900 Y22.5716
G01 X26.7595 Y22.5883
G01 X26.9290 Y22.5716
G01 X27.0920 Y22.5221
G01 X27.2422 Y22.4418
G01 X27.3738 Y22.3338
G01 X27.4818 Y22.2022
G01 X27.5621 Y22.0520
G01 X27.6116 Y21.8890
G01 X27.6283 Y21.7195
G01 X27.6116 Y21.5500
G01 X27.5621 Y21.3870
G01 X27.4818 Y21.2368
G01 X27.3738 Y21.1052
G01 X27.2422 Y20.9972
G01 X27.0920 Y20.9169
G01 X26.9290 Y20.8674
G01 X26.7595 Y20.8508
G01 X26.5933 Y20.8669
G00 Z2.0000
G00 X27.2463 Y23.0993
G01 F60.00
G01 Z-0.0700
G01 F120.00
G01 X27.3066 Y23.1546
G01 X27.4051 Y23.2060
G01 X27.5619 Y23.3200
G01 X27.6990 Y23.4571
G01 X27.8130 Y23.6139
G01 X27.9010 Y23.7867
G01 X27.9609 Y23.9711
G01 X27.9913 Y24.1626
G01 X27.9913 Y24.3564
G01 X27.9609 Y24.5479
G01 X27.9010 Y24.7323
G01 X27.8130 Y24.9051
G01 X27.6990 Y25.0619
G01 X27.5619 Y25.1990
G01 X27.4051 Y25.3130
G01 X27.3088 Y25.3628
G01 X27.2481 Y25.4193
G01 X27.2318 Y25.4473
G01 X27.2121 Y25.5345
G01 X27.2396 Y25.6265
G01 X27.2557 Y25.6504
G01 X27.3066 Y25.6946
G01 X27.4051 Y25.7460
G01 X27.5619 Y25.8600
G01 X27.6990 Y25.9971
G01 X27.8130 Y26.1539
G01 X27.9010 Y26.3267
G01 X27.9609 Y26.5111
G01 X27.9913 Y26.7026
G01 X27.9913 Y26.8964
G01 X27.9609 Y27.0879
G01 X27.9010 Y27.2723
G01 X27.8130 Y27.4451
G01 X27.6990 Y27.6019
G01 X27.5619 Y27.7390
G01 X27.4051 Y27.8530
G01 X27.3088 Y27.9028
G01 X27.2481 Y27.9593
G01 X27.2318 Y27.9873
G01 X27.2121 Y28.0745
G01 X27.2396 Y28.1665
G01 X27.2557 Y28.1904
G01 X27.3066 Y28.2346
G01 X27.4051 Y28.2860
G01 X27.5619 Y28.4000
G01 X27.6990 Y28.5371
G01 X27.8130 Y28.6939
G01 X27.9010 Y28.8667
G01 X27.9609 Y29.0511
G01 X27.9913 Y29.2426
G01 X27.9913 Y29.4364
G01 X27.9609 Y29.6279
G01 X27.9010 Y29.8123
G01 X27.8130 Y29.9851
G01 X27.6990 Y30.1419
G01 X27.5619 Y30.2790
G01 X27.4051 Y30.3930
G01 X27.3088 Y30.4428
G01 X27.2504 Y30.4970
G01 X27.2318 Y30.5273
G01 X27.2121 Y30.6145
G01 X27.2396 Y30.7065
G01 X27.2557 Y30.7304
G01 X27.3066 Y30.7746
G01 X27.4051 Y30.8260
G01 X27.5619 Y30.9400
G01 X27.6990 Y31.0771
G01 X27.8130 Y31.2339
G01 X27.9010 Y31.4067
G01 X27.9609 Y31.5911
G01 X27.9913 Y31.7826
G01 X27.9913 Y31.9764
G01 X27.9609 Y32.1679
G01 X27.9024 Y32.3545
G01 X27.9033 Y32.4502
G01 X27.9518 Y32.5329
G01 X28.0402 Y32.5832
G01 X28.0888 Y32.5908
G01 X33.1525 Y32.5908
G01 X33.2878 Y32.6270
G01 X33.4090 Y32.6970
G01 X40.4387 Y39.7267
G01 X40.5186 Y39.7734
G01 X40.5503 Y39.7803
G01 X40.6393 Y39.7721
G01 X40.7180 Y39.7177
G01 X40.7375 Y39.6918
G01 X40.7661 Y39.6127
G01 X40.7678 Y39.4026
G01 X40.7981 Y39.2111
G01 X40.8580 Y39.0267
G01 X40.9460 Y38.8539
G01 X41.0600 Y38.6971
G01 X41.1971 Y38.5600
G01 X41.3539 Y38.4460
G01 X41.4502 Y38.3962
G01 X41.5109 Y38.3397
G01 X41.5272 Y38.3117
G01 X41.5469 Y38.2245
G01 X41.5194 Y38.1325
G01 X41.5033 Y38.1085
G01 X41.4524 Y38.0644
G01 X41.3539 Y38.0130
G01 X41.1971 Y37.8990
G01 X41.0600 Y37.7619
G01 X40.9460 Y37.6051
G01 X40.8580 Y37.4323
G01 X40.7981 Y37.2479
G01 X40.7678 Y37.0564
G01 X40.7678 Y36.8626
G01 X40.7981 Y36.6711
G01 X40.8580 Y36.4867
G01 X40.9460 Y36.3139
G01 X41.0600 Y36.1571
G01 X41.1971 Y36.0200
G01 X41.3539 Y35.9060
G01 X41.4502 Y35.8562
G01 X41.5086 Y35.8020
G01 X41.5272 Y35.7717
G01 X41.5469 Y35.6845
G01 X41.5194 Y35.5925
G01 X41.5033 Y35.5685
G01 X41.4524 Y35.5244
G01 X41.3539 Y35.4730
G01 X41.1971 Y35.3590
G01 X41.0600 Y35.2219
G01 X40.9460 Y35.0651
G01 X40.8580 Y34.8923
G01 X40.7981 Y34.7079
G01 X40.7678 Y34.5164
G01 X40.7678 Y34.3226
G01 X40.8034 Y34.1124
G01 X40.8064 Y34.0296
G01 X40.7988 Y33.9993
G01 X40.7600 Y33.9329
G01 X28.3074 Y21.4822
G01 X28.2281 Y21.4410
G01 X28.1325 Y21.4442
G01 X28.1021 Y21.4555
G01 X28.0278 Y21.5158
G01 X27.9918 Y21.6136
G01 X27.9913 Y21.8164
G01 X27.9609 Y22.0079
G01 X27.9010 Y22.1923
G01 X27.8130 Y22.3651
G01 X27.6990 Y22.5219
G01 X27.5619 Y22.6590
G01 X27.4051 Y22.7730
G01 X27.3088 Y22.8228
G01 X27.2438 Y22.8842
G01 X27.2318 Y22.9073
G01 X27.2121 Y22.9945
G01 X27.2463 Y23.0993
G00 Z2.0000
G00 X26.5900 Y23.4074
G01 F60.00
G01 Z-0.0700
G01 F120.00
G01 X26.4270 Y23.4569
G01 X26.2768 Y23.5372
G01 X26.1452 Y23.6452
G01 X26.0372 Y23.7768
G01 X25.9569 Y23.9270
G01 X25.9074 Y24.0900
G01 X25.8908 Y24.2595
G01 X25.9074 Y24.4290
G01 X25.9569 Y24.5920
G01 X26.0372 Y24.7422
G01 X26.1452 Y24.8738
G01 X26.2768 Y24.9818
G01 X26.4270 Y25.0621
G01 X26.5900 Y25.1116
G01 X26.7595 Y25.1283
G01 X26.9290 Y25.1116
G01 X27.0920 Y25.0621
G01 X27.2422 Y24.9818
G01 X27.3738 Y24.8738
G01 X27.4818 Y24.7422
G01 X27.5621 Y24.5920
G01 X27.6116 Y24.4290
G01 X27.6283 Y24.2595
G01 X27.6116 Y24.0900
G01 X27.5621 Y23.9270
G01 X27.4818 Y23.7768
G01 X27.3738 Y23.6452
G01 X27.2422 Y23.5372
G01 X27.0920 Y23.4569
G01 X26.9290 Y23.4074
G01 X26.7595 Y23.3908
G01 X26.5900 Y23.4074
G00 Z2.0000
G00 X26.5933 Y25.9469
G01 F60.00
G01 Z-0.0700
G01 F120.00
G01 X26.4270 Y25.9969
G01 X26.2768 Y26.0772
G01 X26.1452 Y26.1852
G01 X26.0372 Y26.3168
G01 X25.9569 Y26.4670
G01 X25.9074 Y26.6300
G01 X25.8908 Y26.7995
G01 X25.9074 Y26.9690
G01 X25.9569 Y27.1320
G01 X26.0372 Y27.2822
G01 X26.1452 Y27.4138
G01 X26.2768 Y27.5218
G01 X26.4270 Y27.6021
G01 X26.5900 Y27.6516
G01 X26.7595 Y27.6683
G01 X26.9290 Y27.6516
G01 X27.0920 Y27.6021
G01 X27.2422 Y27.5218
G01 X27.3738 Y27.4138
G01 X27.4818 Y27.2822
G01 X27.5621 Y27.1320
G01 X27.6116 Y26.9690
G01 X27.6283 Y26.7995
G01 X27.6116 Y26.6300
G01 X27.5621 Y26.4670
G01 X27.4818 Y26.3168
G01 X27.3738 Y26.1852
G01 X27.2422 Y26.0772
G01 X27.0920 Y25.9969
G01 X26.9290 Y25.9474
G01 X26.7595 Y25.9308
G01 X26.5933 Y25.9469
G00 Z2.0000
G00 X26.5900 Y31.0274
G01 F60.00
G01 Z-0.0700
G01 F120.00
G01 X26.4270 Y31.0769
G01 X26.2768 Y31.1572
G01 X26.1452 Y31.2652
G01 X26.0372 Y31.3968
G01 X25.9569 Y31.5470
G01 X25.9074 Y31.7100
G01 X25.8908 Y31.8795
G01 X25.9074 Y32.0490
G01 X25.9569 Y32.2120
G01 X26.0372 Y32.3622
G01 X26.1452 Y32.4938
G01 X26.2768 Y32.6018
G01 X26.4270 Y32.6821
G01 X26.5900 Y32.7316
G01 X26.7595 Y32.7483
G01 X26.9290 Y32.7316
G01 X27.0920 Y32.6821
G01 X27.2422 Y32.6018
G01 X27.3738 Y32.4938
G01 X27.4818 Y32.3622
G01 X27.5621 Y32.2120
G01 X27.6116 Y32.0490
G01 X27.6283 Y31.8795
G01 X27.6116 Y31.7100
G01 X27.5621 Y31.5470
G01 X27.4818 Y31.3968
G01 X27.3738 Y31.2652
G01 X27.2422 Y31.1572
G01 X27.0920 Y31.0769
G01 X26.9290 Y31.0274
G01 X26.7595 Y31.0108
G01 X26.5900 Y31.0274
G00 Z2.0000
G00 X26.5900 Y33.5674
G01 F60.00
G01 Z-0.0700
G01 F120.00
G01 X26.4270 Y33.6169
G01 X26.2768 Y33.6972
G01 X26.1452 Y33.8052
G01 X26.0372 Y33.9368
G01 X25.9569 Y34.0870
G01 X25.9074 Y34.2500
G01 X25.8908 Y34.4195
G01 X25.9074 Y34.5890
G01 X25.9569 Y34.7520
G01 X26.0372 Y34.9022
G01 X26.1452 Y35.0338
G01 X26.2768 Y35.1418
G01 X26.4270 Y35.2221
G01 X26.5900 Y35.2716
G01 X26.7595 Y35.2883
G01 X26.9290 Y35.2716
G01 X27.0920 Y35.2221
G01 X27.2422 Y35.1418
G01 X27.3738 Y35.0338
G01 X27.4818 Y34.9022
G01 X27.5621 Y34.7520
G01 X27.6116 Y34.5890
G01 X27.6283 Y34.4195
G01 X27.6116 Y34.2500
G01 X27.5621 Y34.0870
G01 X27.4818 Y33.9368
G01 X27.3738 Y33.8052
G01 X27.2422 Y33.6972
G01 X27.0920 Y33.6169
G01 X26.9290 Y33.5674
G01 X26.7595 Y33.5508
G01 X26.5900 Y33.5674
G00 Z2.0000
G00 X26.5933 Y36.1069
G01 F60.00
G01 Z-0.0700
G01 F120.00
G01 X26.4270 Y36.1569
G01 X26.2768 Y36.2372
G01 X26.1452 Y36.3452
G01 X26.0372 Y36.4768
G01 X25.9569 Y36.6270
G01 X25.9074 Y36.7900
G01 X25.8908 Y36.9595
G01 X25.9074 Y37.1290
G01 X25.9569 Y37.2920
G01 X26.0372 Y37.4422
G01 X26.1452 Y37.5738
G01 X26.2768 Y37.6818
G01 X26.4270 Y37.7621
G01 X26.5900 Y37.8116
G01 X26.7595 Y37.8283
G01 X26.9290 Y37.8116
G01 X27.0920 Y37.7621
G01 X27.2422 Y37.6818
G01 X27.3738 Y37.5738
G01 X27.4818 Y37.4422
G01 X27.5621 Y37.2920
G01 X27.6116 Y37.1290
G01 X27.6283 Y36.9595
G01 X27.6116 Y36.7900
G01 X27.5621 Y36.6270
G01 X27.4818 Y36.4768
G01 X27.3738 Y36.3452
G01 X27.2422 Y36.2372
G01 X27.0920 Y36.1569
G01 X26.9290 Y36.1074
G01 X26.7595 Y36.0908
G01 X26.5933 Y36.1069
G00 Z2.0000
G00 X26.5933 Y38.6469
G01 F60.00
G01 Z-0.0700
G01 F120.00
G01 X26.4270 Y38.6969
G01 X26.2768 Y38.7772
G01 X26.1452 Y38.8852
G01 X26.0372 Y39.0168
G01 X25.9569 Y39.1670
G01 X25.9074 Y39.3300
G01 X25.8908 Y39.4995
G01 X25.9074 Y39.6690
G01 X25.9569 Y39.8320
G01 X26.0372 Y39.9822
G01 X26.1452 Y40.1138
G01 X26.2768 Y40.2218
G01 X26.4270 Y40.3021
G01 X26.5900 Y40.3516
G01 X26.7595 Y40.3683
G01 X26.9290 Y40.3516
G01 X27.0920 Y40.3021
G01 X27.2422 Y40.2218
G01 X27.3738 Y40.1138
G01 X27.4818 Y39.9822
G01 X27.5621 Y39.8320
G01 X27.6116 Y39.6690
G01 X27.6283 Y39.4995
G01 X27.6116 Y39.3300
G01 X27.5621 Y39.1670
G01 X27.4818 Y39.0168
G01 X27.3738 Y38.8852
G01 X27.2422 Y38.7772
G01 X27.0920 Y38.6969
G01 X26.9290 Y38.6474
G01 X26.7595 Y38.6308
G01 X26.5933 Y38.6469
G00 Z2.0000
G00 X25.9494 Y41.1715
G01 F60.00
G01 Z-0.0700
G01 F120.00
G01 X25.9086 Y41.1933
G01 X25.8908 Y41.2378
G01 X25.8908 Y42.8395
G01 X25.8960 Y42.8658
G01 X25.9109 Y42.8881
G01 X25.9332 Y42.9030
G01 X25.9595 Y42.9083
G01 X27.5595 Y42.9083
G01 X27.5858 Y42.9030
G01 X27.6081 Y42.8881
G01 X27.6230 Y42.8658
G01 X27.6283 Y42.8395
G01 X27.6283 Y41.2395
G01 X27.6230 Y41.2132
G01 X27.6081 Y41.1909
G01 X27.5858 Y41.1760
G01 X27.5595 Y41.1708
G01 X25.9494 Y41.1715
G00 Z2.0000
G00 X18.3308 Y34.7517
G01 F60.00
G01 Z-0.0700
G01 F120.00
G01 X18.3641 Y34.5847
G01 X18.3643 Y34.4177
G01 X18.3317 Y34.2506
G01 X18.2960 Y34.1538
G01 X18.5671 Y33.8827
G01 X18.6405 Y34.0269
G01 X18.7004 Y34.2112
G01 X18.7308 Y34.4026
G01 X18.7308 Y34.5964
G01 X18.7004 Y34.7878
G01 X18.6405 Y34.9721
G01 X18.5671 Y35.1163
G01 X18.2960 Y34.8452
G01 X18.3308 Y34.7517
G00 Z2.0000
G00 X17.2441 Y35.3298
G01 F60.00
G01 Z-0.0700
G01 F120.00
G01 X17.4143 Y35.3641
G01 X17.5813 Y35.3643
G01 X17.7484 Y35.3317
G01 X17.8452 Y35.2960
G01 X18.1163 Y35.5671
G01 X17.9721 Y35.6405
G01 X17.7878 Y35.7004
G01 X17.5964 Y35.7308
G01 X17.4026 Y35.7308
G01 X17.2112 Y35.7004
G01 X17.0269 Y35.6405
G01 X16.8827 Y35.5671
G01 X17.1538 Y35.2960
G01 X17.2441 Y35.3298
G00 Z2.0000
G00 X16.6692 Y34.2441
G01 F60.00
G01 Z-0.0700
G01 F120.00
G01 X16.6349 Y34.4143
G01 X16.6347 Y34.5813
G01 X16.6673 Y34.7484
G01 X16.7030 Y34.8452
G01 X16.4319 Y35.1163
G01 X16.3585 Y34.9721
G01 X16.2986 Y34.7878
G01 X16.2683 Y34.5964
G01 X16.2683 Y34.4026
G01 X16.2986 Y34.2112
G01 X16.3585 Y34.0269
G01 X16.4319 Y33.8827
G01 X16.7030 Y34.1538
G01 X16.6692 Y34.2441
G00 Z2.0000
G00 X8.1531 Y35.2386
G01 F60.00
G01 Z-0.0700
G01 F120.00
G01 X8.3029 Y35.1386
G01 X8.4280 Y35.0138
G01 X8.5286 Y34.8644
G01 X8.5807 Y34.7471
G01 X8.9636 Y34.7471
G01 X8.9074 Y34.9202
G01 X8.8158 Y35.0999
G01 X8.6973 Y35.2630
G01 X8.5547 Y35.4056
G01 X8.3916 Y35.5242
G01 X8.2119 Y35.6157
G01 X8.0388 Y35.6720
G01 X8.0388 Y35.2890
G01 X8.1531 Y35.2386
G00 Z2.0000
G00 X6.9082 Y34.8584
G01 F60.00
G01 Z-0.0700
G01 F120.00
G01 X7.0098 Y35.0112
G01 X7.1346 Y35.1363
G01 X7.2840 Y35.2370
G01 X7.4013 Y35.2890
G01 X7.4013 Y35.6720
G01 X7.2282 Y35.6157
G01 X7.0485 Y35.5242
G01 X6.8854 Y35.4056
G01 X6.7427 Y35.2630
G01 X6.6242 Y35.0999
G01 X6.5326 Y34.9202
G01 X6.4764 Y34.7471
G01 X6.8594 Y34.7471
G01 X6.9082 Y34.8584
G00 Z2.0000
G00 X6.3339 Y30.7008
G01 F60.00
G01 Z-0.0700
G01 F120.00
G01 X6.3506 Y30.7474
G01 X6.3790 Y30.7860
G01 X6.9623 Y31.3694
G01 X6.9082 Y31.4583
G01 X6.8408 Y31.6217
G01 X6.8184 Y31.7124
G01 X6.8013 Y31.8884
G01 X6.8184 Y32.0643
G01 X6.8408 Y32.1550
G01 X6.8726 Y32.2430
G01 X6.9543 Y32.3959
G01 X7.0704 Y32.5380
G01 X7.2124 Y32.6541
G01 X7.2899 Y32.7001
G01 X7.4501 Y32.7665
G01 X7.6300 Y32.8027
G01 X7.8101 Y32.8027
G01 X7.9867 Y32.7675
G01 X8.1531 Y32.6986
G01 X8.3002 Y32.6006
G01 X8.4302 Y32.4712
G01 X8.5286 Y32.3244
G01 X8.5982 Y32.1583
G01 X8.6228 Y32.0572
G01 X16.6307 Y32.0572
G01 X16.6311 Y32.8062
G01 X16.6533 Y32.8504
G01 X16.6995 Y32.8683
G01 X18.2995 Y32.8683
G01 X18.3258 Y32.8630
G01 X18.3547 Y32.8405
G01 X18.3682 Y32.8029
G01 X18.3683 Y32.1683
G01 X24.8094 Y32.1683
G01 X25.8841 Y33.2430
G01 X25.9257 Y33.2729
G01 X25.9824 Y33.2901
G01 X33.0126 Y33.2913
G01 X41.2776 Y41.5563
G01 X41.1982 Y41.7040
G01 X41.1673 Y41.7906
G01 X41.1349 Y41.9543
G01 X41.1349 Y42.1247
G01 X41.1682 Y42.2917
G01 X41.2318 Y42.4460
G01 X41.3259 Y42.5880
G01 X41.3876 Y42.6561
G01 X41.5141 Y42.7599
G01 X41.5900 Y42.8057
G01 X41.6702 Y42.8433
G01 X41.8267 Y42.8908
G01 X42.0029 Y42.9082
G01 X42.1657 Y42.8921
G01 X42.2484 Y42.8717
G01 X42.4120 Y42.8040
G01 X42.5480 Y42.7131
G01 X42.6138 Y42.6538
G01 X42.6731 Y42.5880
G01 X42.7640 Y42.4520
G01 X42.8308 Y42.2917
G01 X42.8637 Y42.1280
G01 X42.8683 Y42.0395
G01 X42.8637 Y41.9510
G01 X42.8317 Y41.7906
G01 X42.7640 Y41.6270
G01 X42.6731 Y41.4910
G01 X42.6138 Y41.4252
G01 X42.4849 Y41.3191
G01 X42.4060 Y41.2718
G01 X42.2517 Y41.2082
G01 X42.0847 Y41.1749
G01 X41.9143 Y41.1749
G01 X41.7506 Y41.2073
G01 X41.6640 Y41.2382
G01 X41.5163 Y41.3176
G01 X33.2019 Y33.0031
G01 X33.1315 Y32.9610
G01 X33.0825 Y32.9537
G01 X26.0722 Y32.9537
G01 X24.9974 Y31.8790
G01 X24.9589 Y31.8506
G01 X24.9155 Y31.8347
G01 X18.3683 Y31.8307
G01 X18.3679 Y31.1928
G01 X18.3457 Y31.1486
G01 X18.3029 Y31.1308
G01 X16.6763 Y31.1348
G01 X16.6464 Y31.1559
G01 X16.6311 Y31.1928
G01 X16.6308 Y31.7196
G01 X8.6228 Y31.7196
G01 X8.5992 Y31.6217
G01 X8.5688 Y31.5368
G01 X8.4820 Y31.3752
G01 X8.4280 Y31.3029
G01 X8.3054 Y31.1804
G01 X8.1561 Y31.0797
G01 X8.0685 Y31.0383
G01 X7.8993 Y30.9873
G01 X7.8067 Y30.9738
G01 X7.6333 Y30.9738
G01 X7.5375 Y30.9880
G01 X7.3716 Y31.0383
G01 X7.2869 Y31.0781
G01 X7.2011 Y31.1307
G01 X6.6683 Y30.5979
G01 X6.6683 Y7.8294
G01 X7.2405 Y7.2572
G01 X7.3264 Y7.3098
G01 X7.4079 Y7.3483
G01 X7.5803 Y7.4006
G01 X7.7595 Y7.4183
G01 X7.9420 Y7.3999
G01 X8.1142 Y7.3469
G01 X8.1955 Y7.3081
G01 X8.3397 Y7.2118
G01 X8.4697 Y7.0823
G01 X8.5698 Y6.9326
G01 X8.6095 Y6.8479
G01 X8.6599 Y6.6820
G01 X8.6783 Y6.4995
G01 X8.6599 Y6.3170
G01 X8.6095 Y6.1511
G01 X8.5698 Y6.0664
G01 X8.4675 Y5.9141
G01 X8.3449 Y5.7915
G01 X8.2699 Y5.7356
G01 X8.1896 Y5.6877
G01 X8.0294 Y5.6214
G01 X7.8462 Y5.5849
G01 X7.6728 Y5.5849
G01 X7.5803 Y5.5984
G01 X7.4896 Y5.6214
G01 X7.3294 Y5.6877
G01 X7.1741 Y5.7915
G01 X7.0515 Y5.9141
G01 X6.9956 Y5.9891
G01 X6.9477 Y6.0694
G01 X6.8803 Y6.2328
G01 X6.8578 Y6.3236
G01 X6.8408 Y6.4995
G01 X6.8578 Y6.6754
G01 X6.8803 Y6.7662
G01 X6.9477 Y6.9296
G01 X7.0018 Y7.0185
G01 X6.3778 Y7.6426
G01 X6.3449 Y7.6918
G01 X6.3313 Y7.7463
G01 X6.3339 Y30.7008
G00 Z2.0000
G00 X8.5545 Y30.8986
G01 F60.00
G01 Z-0.0700
G01 F120.00
G01 X8.5846 Y30.9400
G01 X8.6977 Y31.0533
G01 X8.8163 Y31.2166
G01 X8.8391 Y31.2598
G01 X8.8933 Y31.3181
G01 X8.9223 Y31.3364
G01 X9.0027 Y31.3565
G01 X16.0750 Y31.3566
G01 X16.1764 Y31.3277
G01 X16.2459 Y31.2521
G01 X16.2669 Y31.1748
G01 X16.2728 Y31.1080
G01 X16.3167 Y30.9905
G01 X16.3911 Y30.8911
G01 X16.4905 Y30.8167
G01 X16.6079 Y30.7728
G01 X18.3437 Y30.7678
G01 X18.3910 Y30.7728
G01 X18.5085 Y30.8167
G01 X18.6079 Y30.8911
G01 X18.6823 Y30.9905
G01 X18.7262 Y31.1080
G01 X18.7320 Y31.2848
G01 X18.7601 Y31.3764
G01 X18.8357 Y31.4459
G01 X18.9130 Y31.4669
G01 X24.9493 Y31.4677
G01 X25.0845 Y31.5040
G01 X25.2058 Y31.5740
G01 X25.2830 Y31.6453
G01 X25.3394 Y31.6709
G01 X25.3799 Y31.6778
G01 X25.4602 Y31.6647
G01 X25.4909 Y31.6489
G01 X25.5415 Y31.6041
G01 X25.5721 Y31.5476
G01 X25.6180 Y31.4067
G01 X25.7060 Y31.2339
G01 X25.8200 Y31.0771
G01 X25.9571 Y30.9400
G01 X26.1139 Y30.8260
G01 X26.2102 Y30.7762
G01 X26.2686 Y30.7220
G01 X26.2872 Y30.6917
G01 X26.3069 Y30.6045
G01 X26.2794 Y30.5125
G01 X26.2633 Y30.4885
G01 X26.2124 Y30.4444
G01 X26.1139 Y30.3930
G01 X25.9571 Y30.2790
G01 X25.8200 Y30.1419
G01 X25.6971 Y29.9718
G01 X25.6400 Y29.9122
G01 X25.5374 Y29.8802
G01 X9.1945 Y29.8801
G01 X9.0931 Y29.9090
G01 X9.0203 Y29.9906
G01 X9.0019 Y30.0692
G01 X8.9967 Y30.2899
G01 X8.9529 Y30.4074
G01 X8.8785 Y30.5068
G01 X8.7791 Y30.5812
G01 X8.6480 Y30.6308
G01 X8.5681 Y30.6945
G01 X8.5319 Y30.7969
G01 X8.5545 Y30.8986
G00 Z2.0000
G00 X6.8633 Y28.4299
G01 F60.00
G01 Z-0.0700
G01 F120.00
G01 X6.8191 Y28.4522
G01 X6.8013 Y28.4967
G01 X6.8013 Y30.1984
G01 X6.8065 Y30.2247
G01 X6.8214 Y30.2470
G01 X6.8667 Y30.2670
G01 X8.5700 Y30.2671
G01 X8.5963 Y30.2619
G01 X8.6272 Y30.2365
G01 X8.6387 Y30.2017
G01 X8.6388 Y29.5172
G01 X25.9094 Y29.5172
G01 X25.9569 Y29.6720
G01 X26.0354 Y29.8193
G01 X26.0902 Y29.8932
G01 X26.2084 Y30.0111
G01 X26.3500 Y30.1057
G01 X26.5041 Y30.1698
G01 X26.5933 Y30.1921
G01 X26.7629 Y30.2082
G01 X26.9290 Y30.1916
G01 X27.0920 Y30.1421
G01 X27.2422 Y30.0618
G01 X27.3738 Y29.9538
G01 X27.4818 Y29.8222
G01 X27.5621 Y29.6720
G01 X27.6116 Y29.5090
G01 X27.6282 Y29.3429
G01 X27.6116 Y29.1700
G01 X27.5621 Y29.0070
G01 X27.4818 Y28.8568
G01 X27.3738 Y28.7252
G01 X27.2422 Y28.6172
G01 X27.0920 Y28.5369
G01 X26.9290 Y28.4874
G01 X26.7629 Y28.4708
G01 X26.5933 Y28.4869
G01 X26.5041 Y28.5092
G01 X26.3500 Y28.5733
G01 X26.2084 Y28.6679
G01 X26.0879 Y28.7884
G01 X25.9950 Y28.9270
G01 X25.9292 Y29.0841
G01 X25.9059 Y29.1796
G01 X8.6388 Y29.1796
G01 X8.6387 Y28.4950
G01 X8.6272 Y28.4602
G01 X8.5963 Y28.4348
G01 X8.5700 Y28.4296
G01 X6.8633 Y28.4299
G00 Z2.0000
G00 X2.4033 Y41.8277
G01 F60.00
G01 Z-0.0700
G01 F120.00
G01 X2.5218 Y41.6645
G01 X2.6645 Y41.5218
G01 X2.8277 Y41.4033
G01 X3.0075 Y41.3117
G01 X3.1994 Y41.2493
G01 X3.3986 Y41.2178
G01 X3.6004 Y41.2178
G01 X3.7996 Y41.2493
G01 X3.9915 Y41.3117
G01 X4.1713 Y41.4032
G01 X4.3345 Y41.5218
G01 X4.4772 Y41.6645
G01 X4.5957 Y41.8277
G01 X4.6873 Y42.0075
G01 X4.7497 Y42.1994
G01 X4.7813 Y42.3986
G01 X4.7813 Y42.6004
G01 X4.7497 Y42.7996
G01 X4.6873 Y42.9915
G01 X4.5958 Y43.1713
G01 X4.4772 Y43.3345
G01 X4.3345 Y43.4772
G01 X4.1713 Y43.5957
G01 X3.9915 Y43.6873
G01 X3.7996 Y43.7497
G01 X3.6004 Y43.7813
G01 X3.3986 Y43.7813
G01 X3.3553 Y43.7744
G01 X3.1994 Y43.7497
G01 X3.0075 Y43.6873
G01 X2.8277 Y43.5957
G01 X2.6645 Y43.4772
G01 X2.5218 Y43.3345
G01 X2.4033 Y43.1713
G01 X2.3117 Y42.9915
G01 X2.2493 Y42.7996
G01 X2.2178 Y42.6004
G01 X2.2178 Y42.3986
G01 X2.2493 Y42.1994
G01 X2.3117 Y42.0075
G01 X2.4033 Y41.8277
G00 Z2.0000
G00 X-0.0668 Y45.8912
G01 F60.00
G01 Z-0.0700
G01 F120.00
G01 X-0.0441 Y45.9676
G01 X-0.0266 Y45.9929
G01 X0.0417 Y46.0493
G01 X0.1240 Y46.0678
G01 X71.3750 Y46.0678
G01 X71.4792 Y46.0372
G01 X71.5477 Y45.9603
G01 X71.5678 Y45.8750
G01 X71.5678 Y0.1240
G01 X71.5372 Y0.0198
G01 X71.4603 Y-0.0487
G01 X71.3750 Y-0.0687
G01 X0.1240 Y-0.0687
G01 X0.0198 Y-0.0382
G01 X-0.0487 Y0.0387
G01 X-0.0687 Y0.1240
G01 X-0.0668 Y45.8912
G00 Z2.0000
G00 X41.8300 Y38.6474
G01 F60.00
G01 Z-0.0700
G01 F120.00
G01 X41.6670 Y38.6969
G01 X41.5168 Y38.7772
G01 X41.3852 Y38.8852
G01 X41.2772 Y39.0168
G01 X41.1969 Y39.1670
G01 X41.1474 Y39.3300
G01 X41.1308 Y39.4995
G01 X41.1474 Y39.6690
G01 X41.1969 Y39.8320
G01 X41.2772 Y39.9822
G01 X41.3852 Y40.1138
G01 X41.5168 Y40.2218
G01 X41.6670 Y40.3021
G01 X41.8300 Y40.3516
G01 X41.9995 Y40.3683
G01 X42.1690 Y40.3516
G01 X42.3320 Y40.3021
G01 X42.4822 Y40.2218
G01 X42.6138 Y40.1138
G01 X42.7218 Y39.9822
G01 X42.8021 Y39.8320
G01 X42.8516 Y39.6690
G01 X42.8683 Y39.4995
G01 X42.8516 Y39.3300
G01 X42.8021 Y39.1670
G01 X42.7218 Y39.0168
G01 X42.6138 Y38.8852
G01 X42.4822 Y38.7772
G01 X42.3320 Y38.6969
G01 X42.1690 Y38.6474
G01 X41.9995 Y38.6308
G01 X41.8300 Y38.6474
G00 Z2.0000
G00 X41.8333 Y36.1069
G01 F60.00
G01 Z-0.0700
G01 F120.00
G01 X41.6670 Y36.1569
G01 X41.5168 Y36.2372
G01 X41.3852 Y36.3452
G01 X41.2772 Y36.4768
G01 X41.1969 Y36.6270
G01 X41.1474 Y36.7900
G01 X41.1308 Y36.9595
G01 X41.1474 Y37.1290
G01 X41.1969 Y37.2920
G01 X41.2772 Y37.4422
G01 X41.3852 Y37.5738
G01 X41.5168 Y37.6818
G01 X41.6670 Y37.7621
G01 X41.8300 Y37.8116
G01 X41.9995 Y37.8283
G01 X42.1690 Y37.8116
G01 X42.3320 Y37.7621
G01 X42.4822 Y37.6818
G01 X42.6138 Y37.5738
G01 X42.7218 Y37.4422
G01 X42.8021 Y37.2920
G01 X42.8516 Y37.1290
G01 X42.8683 Y36.9595
G01 X42.8516 Y36.7900
G01 X42.8021 Y36.6270
G01 X42.7218 Y36.4768
G01 X42.6138 Y36.3452
G01 X42.4822 Y36.2372
G01 X42.3320 Y36.1569
G01 X42.1690 Y36.1074
G01 X41.9995 Y36.0908
G01 X41.8333 Y36.1069
G00 Z2.0000
G00 X41.8300 Y31.0274
G01 F60.00
G01 Z-0.0700
G01 F120.00
G01 X41.6670 Y31.0769
G01 X41.5168 Y31.1572
G01 X41.3852 Y31.2652
G01 X41.2772 Y31.3968
G01 X41.1969 Y31.5470
G01 X41.1474 Y31.7100
G01 X41.1308 Y31.8795
G01 X41.1474 Y32.0490
G01 X41.1969 Y32.2120
G01 X41.2772 Y32.3622
G01 X41.3852 Y32.4938
G01 X41.5168 Y32.6018
G01 X41.6670 Y32.6821
G01 X41.8300 Y32.7316
G01 X41.9995 Y32.7483
G01 X42.1690 Y32.7316
G01 X42.3320 Y32.6821
G01 X42.4822 Y32.6018
G01 X42.6138 Y32.4938
G01 X42.7218 Y32.3622
G01 X42.8021 Y32.2120
G01 X42.8516 Y32.0490
G01 X42.8683 Y31.8795
G01 X42.8516 Y31.7100
G01 X42.8021 Y31.5470
G01 X42.7218 Y31.3968
G01 X42.6138 Y31.2652
G01 X42.4822 Y31.1572
G01 X42.3320 Y31.0769
G01 X42.1690 Y31.0274
G01 X41.9995 Y31.0108
G01 X41.8300 Y31.0274
G00 Z2.0000
G00 X41.8300 Y28.4874
G01 F60.00
G01 Z-0.0700
G01 F120.00
G01 X41.6670 Y28.5369
G01 X41.5168 Y28.6172
G01 X41.3852 Y28.7252
G01 X41.2772 Y28.8568
G01 X41.1969 Y29.0070
G01 X41.1474 Y29.1700
G01 X41.1308 Y29.3395
G01 X41.1474 Y29.5090
G01 X41.1969 Y29.6720
G01 X41.2772 Y29.8222
G01 X41.3852 Y29.9538
G01 X41.5168 Y30.0618
G01 X41.6670 Y30.1421
G01 X41.8300 Y30.1916
G01 X41.9995 Y30.2083
G01 X42.1690 Y30.1916
G01 X42.3320 Y30.1421
G01 X42.4822 Y30.0618
G01 X42.6138 Y29.9538
G01 X42.7218 Y29.8222
G01 X42.8021 Y29.6720
G01 X42.8516 Y29.5090
G01 X42.8683 Y29.3395
G01 X42.8516 Y29.1700
G01 X42.8021 Y29.0070
G01 X42.7218 Y28.8568
G01 X42.6138 Y28.7252
G01 X42.4822 Y28.6172
G01 X42.3320 Y28.5369
G01 X42.1690 Y28.4874
G01 X41.9995 Y28.4708
G01 X41.8300 Y28.4874
G00 Z2.0000
G00 X42.4863 Y28.1793
G01 F60.00
G01 Z-0.0700
G01 F120.00
G01 X42.5466 Y28.2346
G01 X42.6451 Y28.2860
G01 X42.8019 Y28.4000
G01 X42.9390 Y28.5371
G01 X43.0530 Y28.6939
G01 X43.1410 Y28.8667
G01 X43.2009 Y29.0511
G01 X43.2313 Y29.2426
G01 X43.2313 Y29.4364
G01 X43.2009 Y29.6279
G01 X43.1410 Y29.8123
G01 X43.0530 Y29.9851
G01 X42.9390 Y30.1419
G01 X42.8019 Y30.2790
G01 X42.6451 Y30.3930
G01 X42.5488 Y30.4428
G01 X42.4881 Y30.4993
G01 X42.4718 Y30.5273
G01 X42.4521 Y30.6145
G01 X42.4796 Y30.7065
G01 X42.4957 Y30.7304
G01 X42.5466 Y30.7746
G01 X42.6451 Y30.8260
G01 X42.8019 Y30.9400
G01 X42.9390 Y31.0771
G01 X43.0530 Y31.2339
G01 X43.1410 Y31.4067
G01 X43.2009 Y31.5911
G01 X43.2313 Y31.7826
G01 X43.2313 Y31.9764
G01 X43.2009 Y32.1679
G01 X43.1410 Y32.3523
G01 X43.0530 Y32.5251
G01 X42.9390 Y32.6819
G01 X42.8019 Y32.8190
G01 X42.6451 Y32.9330
G01 X42.5488 Y32.9828
G01 X42.4904 Y33.0370
G01 X42.4718 Y33.0673
G01 X42.4521 Y33.1545
G01 X42.4796 Y33.2465
G01 X42.4957 Y33.2704
G01 X42.5466 Y33.3146
G01 X42.6451 Y33.3660
G01 X42.8019 Y33.4800
G01 X42.9390 Y33.6171
G01 X43.0664 Y33.7961
G01 X43.1340 Y33.8626
G01 X43.2291 Y33.8878
G01 X53.9095 Y33.8877
G01 X54.0447 Y33.9240
G01 X54.1660 Y33.9940
G01 X55.7879 Y35.6132
G01 X55.8666 Y35.6542
G01 X55.9562 Y35.6532
G01 X56.1311 Y35.5981
G01 X56.3354 Y35.5658
G01 X56.4297 Y35.5266
G01 X56.4876 Y35.4502
G01 X56.4953 Y35.4253
G01 X56.4992 Y35.3361
G01 X56.4468 Y35.2388
G01 X48.5957 Y27.3877
G01 X48.5187 Y27.3425
G01 X48.4594 Y27.3313
G01 X43.2193 Y27.3319
G01 X43.1179 Y27.3670
G01 X43.0657 Y27.4239
G01 X42.9390 Y27.6019
G01 X42.8019 Y27.7390
G01 X42.6451 Y27.8530
G01 X42.5488 Y27.9028
G01 X42.4838 Y27.9642
G01 X42.4718 Y27.9873
G01 X42.4521 Y28.0745
G01 X42.4863 Y28.1793
G00 Z2.0000
G00 X42.4907 Y25.6451
G01 F60.00
G01 Z-0.0700
G01 F120.00
G01 X42.5466 Y25.6946
G01 X42.6451 Y25.7460
G01 X42.8019 Y25.8600
G01 X42.9390 Y25.9971
G01 X43.0624 Y26.1709
G01 X43.1236 Y26.2357
G01 X43.2200 Y26.2672
G01 X48.8295 Y26.2677
G01 X48.9647 Y26.3040
G01 X49.0860 Y26.3740
G01 X58.3175 Y35.6053
G01 X58.3547 Y35.6335
G01 X58.4066 Y35.6542
G01 X58.4557 Y35.6595
G01 X58.5062 Y35.6515
G01 X58.6711 Y35.5981
G01 X58.8754 Y35.5658
G01 X58.9502 Y35.5381
G01 X58.9789 Y35.5172
G01 X59.0276 Y35.4501
G01 X59.0353 Y35.4253
G01 X59.0392 Y35.3361
G01 X58.9868 Y35.2388
G01 X48.5828 Y24.8376
G01 X48.5095 Y24.7983
G01 X48.4594 Y24.7913
G01 X43.2193 Y24.7919
G01 X43.1179 Y24.8270
G01 X43.0657 Y24.8839
G01 X42.9390 Y25.0619
G01 X42.8019 Y25.1990
G01 X42.6451 Y25.3130
G01 X42.5488 Y25.3628
G01 X42.4838 Y25.4242
G01 X42.4718 Y25.4473
G01 X42.4521 Y25.5345
G01 X42.4907 Y25.6451
G00 Z2.0000
G00 X41.8333 Y20.8669
G01 F60.00
G01 Z-0.0700
G01 F120.00
G01 X41.6670 Y20.9169
G01 X41.5168 Y20.9972
G01 X41.3852 Y21.1052
G01 X41.2772 Y21.2368
G01 X41.1969 Y21.3870
G01 X41.1474 Y21.5500
G01 X41.1308 Y21.7195
G01 X41.1474 Y21.8890
G01 X41.1969 Y22.0520
G01 X41.2772 Y22.2022
G01 X41.3852 Y22.3338
G01 X41.5168 Y22.4418
G01 X41.6670 Y22.5221
G01 X41.8300 Y22.5716
G01 X41.9995 Y22.5883
G01 X42.1690 Y22.5716
G01 X42.3320 Y22.5221
G01 X42.4822 Y22.4418
G01 X42.6138 Y22.3338
G01 X42.7218 Y22.2022
G01 X42.8021 Y22.0520
G01 X42.8516 Y21.8890
G01 X42.8683 Y21.7195
G01 X42.8516 Y21.5500
G01 X42.8021 Y21.3870
G01 X42.7218 Y21.2368
G01 X42.6138 Y21.1052
G01 X42.4822 Y20.9972
G01 X42.3320 Y20.9169
G01 X42.1690 Y20.8674
G01 X41.9995 Y20.8508
G01 X41.8333 Y20.8669
G00 Z2.0000
G00 X41.8333 Y18.3269
G01 F60.00
G01 Z-0.0700
G01 F120.00
G01 X41.6670 Y18.3769
G01 X41.5168 Y18.4572
G01 X41.3852 Y18.5652
G01 X41.2772 Y18.6968
G01 X41.1969 Y18.8470
G01 X41.1474 Y19.0100
G01 X41.1308 Y19.1795
G01 X41.1474 Y19.3490
G01 X41.1969 Y19.5120
G01 X41.2772 Y19.6622
G01 X41.3852 Y19.7938
G01 X41.5168 Y19.9018
G01 X41.6670 Y19.9821
G01 X41.8300 Y20.0316
G01 X41.9995 Y20.0483
G01 X42.1690 Y20.0316
G01 X42.3320 Y19.9821
G01 X42.4822 Y19.9018
G01 X42.6138 Y19.7938
G01 X42.7218 Y19.6622
G01 X42.8021 Y19.5120
G01 X42.8516 Y19.3490
G01 X42.8683 Y19.1795
G01 X42.8516 Y19.0100
G01 X42.8021 Y18.8470
G01 X42.7218 Y18.6968
G01 X42.6138 Y18.5652
G01 X42.4822 Y18.4572
G01 X42.3320 Y18.3769
G01 X42.1690 Y18.3274
G01 X41.9995 Y18.3108
G01 X41.8333 Y18.3269
G00 Z2.0000
G00 X41.8300 Y15.7874
G01 F60.00
G01 Z-0.0700
G01 F120.00
G01 X41.6702 Y15.8357
G01 X41.5870 Y15.8750
G01 X41.4484 Y15.9679
G01 X41.3279 Y16.0884
G01 X41.2333 Y16.2300
G01 X41.1692 Y16.3841
G01 X41.1469 Y16.4733
G01 X41.1308 Y16.6429
G01 X41.1474 Y16.8090
G01 X41.1969 Y16.9720
G01 X41.2772 Y17.1222
G01 X41.3829 Y17.2514
G01 X41.5141 Y17.3599
G01 X41.5930 Y17.4072
G01 X41.7473 Y17.4708
G01 X41.9110 Y17.5037
G01 X42.0029 Y17.5082
G01 X42.1723 Y17.4908
G01 X42.3320 Y17.4421
G01 X42.4849 Y17.3599
G01 X42.6138 Y17.2538
G01 X42.7218 Y17.1222
G01 X42.8021 Y16.9720
G01 X42.8517 Y16.8083
G01 X48.8595 Y16.8083
G01 X48.9272 Y16.7941
G01 X48.9789 Y16.7589
G01 X55.8734 Y9.8643
G01 X55.9987 Y9.9436
G01 X56.0905 Y9.9869
G01 X56.1925 Y10.0231
G01 X56.2910 Y10.0477
G01 X56.3947 Y10.0631
G01 X56.4995 Y10.0683
G01 X56.6043 Y10.0631
G01 X56.7080 Y10.0477
G01 X56.8097 Y10.0222
G01 X56.9085 Y9.9869
G01 X57.0003 Y9.9436
G01 X57.0960 Y9.8862
G01 X57.1775 Y9.8257
G01 X57.2552 Y9.7552
G01 X57.3277 Y9.6748
G01 X57.3881 Y9.5933
G01 X57.4421 Y9.5033
G01 X57.4881 Y9.4053
G01 X57.5222 Y9.3097
G01 X57.5477 Y9.2080
G01 X57.5631 Y9.1043
G01 X57.5682 Y9.0029
G01 X57.5631 Y8.8947
G01 X57.5477 Y8.7910
G01 X57.5231 Y8.6925
G01 X57.4855 Y8.5874
G01 X57.3899 Y8.4086
G01 X57.3277 Y8.3242
G01 X57.2552 Y8.2438
G01 X57.1775 Y8.1733
G01 X57.0904 Y8.1091
G01 X56.9116 Y8.0135
G01 X56.8097 Y7.9768
G01 X56.7080 Y7.9513
G01 X56.6009 Y7.9356
G01 X56.3981 Y7.9356
G01 X56.2910 Y7.9513
G01 X56.1893 Y7.9768
G01 X56.0905 Y8.0121
G01 X55.9928 Y8.0586
G01 X55.9030 Y8.1128
G01 X55.7462 Y8.2415
G01 X55.6733 Y8.3215
G01 X55.6128 Y8.4030
G01 X55.5554 Y8.4987
G01 X55.5121 Y8.5905
G01 X55.4768 Y8.6893
G01 X55.4513 Y8.7910
G01 X55.4359 Y8.8947
G01 X55.4308 Y8.9995
G01 X55.4359 Y9.1043
G01 X55.4513 Y9.2080
G01 X55.4759 Y9.3065
G01 X55.5121 Y9.4085
G01 X55.5554 Y9.5003
G01 X55.6347 Y9.6256
G01 X48.7896 Y16.4707
G01 X42.8517 Y16.4707
G01 X42.8021 Y16.3070
G01 X42.7218 Y16.1568
G01 X42.6138 Y16.0252
G01 X42.4822 Y15.9172
G01 X42.3320 Y15.8369
G01 X42.1690 Y15.7874
G01 X41.9995 Y15.7708
G01 X41.8300 Y15.7874
G00 Z2.0000
G00 X41.8333 Y13.2469
G01 F60.00
G01 Z-0.0700
G01 F120.00
G01 X41.6670 Y13.2969
G01 X41.5168 Y13.3772
G01 X41.3852 Y13.4852
G01 X41.2772 Y13.6168
G01 X41.1969 Y13.7670
G01 X41.1474 Y13.9300
G01 X41.1308 Y14.0995
G01 X41.1474 Y14.2690
G01 X41.1969 Y14.4320
G01 X41.2772 Y14.5822
G01 X41.3852 Y14.7138
G01 X41.5168 Y14.8218
G01 X41.6670 Y14.9021
G01 X41.8300 Y14.9516
G01 X41.9995 Y14.9683
G01 X42.1690 Y14.9516
G01 X42.3350 Y14.9008
G01 X42.4793 Y14.8236
G01 X42.5506 Y14.7711
G01 X42.6161 Y14.7114
G01 X42.7199 Y14.5849
G01 X42.8021 Y14.4320
G01 X42.8317 Y14.3484
G01 X42.8637 Y14.1880
G01 X42.8641 Y14.0143
G01 X42.8508 Y13.9267
G01 X42.8033 Y13.7702
G01 X42.7214 Y13.6163
G01 X45.6300 Y10.7066
G01 X45.6555 Y10.6641
G01 X45.6677 Y10.6127
G01 X45.6683 Y10.0537
G01 X45.8097 Y10.0222
G01 X45.9085 Y9.9869
G01 X46.0033 Y9.9421
G01 X46.0960 Y9.8862
G01 X46.1775 Y9.8257
G01 X46.2575 Y9.7528
G01 X46.3862 Y9.5960
G01 X46.4404 Y9.5062
G01 X46.4869 Y9.4085
G01 X46.5212 Y9.3129
G01 X46.5483 Y9.2047
G01 X46.5631 Y9.1043
G01 X46.5683 Y8.9995
G01 X46.5631 Y8.8947
G01 X46.5477 Y8.7910
G01 X46.5222 Y8.6893
G01 X46.4869 Y8.5905
G01 X46.4421 Y8.4957
G01 X46.3899 Y8.4086
G01 X46.3235 Y8.3189
G01 X46.2552 Y8.2438
G01 X46.1775 Y8.1733
G01 X46.0933 Y8.1109
G01 X46.0033 Y8.0569
G01 X45.9085 Y8.0121
G01 X45.8097 Y7.9768
G01 X45.7080 Y7.9513
G01 X45.6043 Y7.9359
G01 X45.4995 Y7.9308
G01 X45.3947 Y7.9359
G01 X45.2910 Y7.9513
G01 X45.1893 Y7.9768
G01 X45.0905 Y8.0121
G01 X44.9957 Y8.0569
G01 X44.9057 Y8.1109
G01 X44.8215 Y8.1733
G01 X44.7438 Y8.2438
G01 X44.6733 Y8.3215
G01 X44.6109 Y8.4057
G01 X44.5554 Y8.4987
G01 X44.4778 Y8.6861
G01 X44.4513 Y8.7910
G01 X44.4359 Y8.8947
G01 X44.4308 Y9.0029
G01 X44.4507 Y9.2047
G01 X44.4768 Y9.3097
G01 X44.5135 Y9.4116
G01 X44.5569 Y9.5033
G01 X44.6109 Y9.5933
G01 X44.6755 Y9.6801
G01 X44.8189 Y9.8235
G01 X44.9086 Y9.8899
G01 X45.0874 Y9.9855
G01 X45.1893 Y10.0222
G01 X45.3307 Y10.0537
G01 X45.3307 Y10.5296
G01 X42.4827 Y13.3776
G01 X42.3320 Y13.2969
G01 X42.1690 Y13.2474
G01 X41.9995 Y13.2308
G01 X41.8333 Y13.2469
G00 Z2.0000
G00 X41.8300 Y10.7074
G01 F60.00
G01 Z-0.0700
G01 F120.00
G01 X41.6670 Y10.7569
G01 X41.5168 Y10.8372
G01 X41.3852 Y10.9452
G01 X41.2772 Y11.0768
G01 X41.1969 Y11.2270
G01 X41.1474 Y11.3900
G01 X41.1308 Y11.5595
G01 X41.1474 Y11.7290
G01 X41.1969 Y11.8920
G01 X41.2772 Y12.0422
G01 X41.3852 Y12.1738
G01 X41.5168 Y12.2818
G01 X41.6670 Y12.3621
G01 X41.8300 Y12.4116
G01 X41.9995 Y12.4283
G01 X42.1690 Y12.4116
G01 X42.3320 Y12.3621
G01 X42.4822 Y12.2818
G01 X42.6138 Y12.1738
G01 X42.7218 Y12.0422
G01 X42.8021 Y11.8920
G01 X42.8516 Y11.7290
G01 X42.8683 Y11.5595
G01 X42.8516 Y11.3900
G01 X42.8021 Y11.2270
G01 X42.7218 Y11.0768
G01 X42.6138 Y10.9452
G01 X42.4822 Y10.8372
G01 X42.3320 Y10.7569
G01 X42.1690 Y10.7074
G01 X41.9995 Y10.6908
G01 X41.8300 Y10.7074
G00 Z2.0000
G00 X41.8333 Y8.1669
G01 F60.00
G01 Z-0.0700
G01 F120.00
G01 X41.6670 Y8.2169
G01 X41.5168 Y8.2972
G01 X41.3852 Y8.4052
G01 X41.2772 Y8.5368
G01 X41.1969 Y8.6870
G01 X41.1474 Y8.8500
G01 X41.1308 Y9.0195
G01 X41.1474 Y9.1890
G01 X41.1969 Y9.3520
G01 X41.2772 Y9.5022
G01 X41.3852 Y9.6338
G01 X41.5168 Y9.7418
G01 X41.6670 Y9.8221
G01 X41.8300 Y9.8716
G01 X41.9995 Y9.8883
G01 X42.1690 Y9.8716
G01 X42.3320 Y9.8221
G01 X42.4822 Y9.7418
G01 X42.6138 Y9.6338
G01 X42.7218 Y9.5022
G01 X42.8021 Y9.3520
G01 X42.8516 Y9.1890
G01 X42.8683 Y9.0195
G01 X42.8516 Y8.8500
G01 X42.8021 Y8.6870
G01 X42.7218 Y8.5368
G01 X42.6138 Y8.4052
G01 X42.4822 Y8.2972
G01 X42.3320 Y8.2169
G01 X42.1690 Y8.1674
G01 X41.9995 Y8.1508
G01 X41.8333 Y8.1669
G00 Z2.0000
G00 X41.8300 Y5.6274
G01 F60.00
G01 Z-0.0700
G01 F120.00
G01 X41.6670 Y5.6769
G01 X41.5168 Y5.7572
G01 X41.3852 Y5.8652
G01 X41.2772 Y5.9968
G01 X41.1969 Y6.1470
G01 X41.1474 Y6.3100
G01 X41.1308 Y6.4795
G01 X41.1474 Y6.6490
G01 X41.1969 Y6.8120
G01 X41.2772 Y6.9622
G01 X41.3852 Y7.0938
G01 X41.5168 Y7.2018
G01 X41.6670 Y7.2821
G01 X41.8300 Y7.3316
G01 X41.9995 Y7.3483
G01 X42.1690 Y7.3316
G01 X42.3320 Y7.2821
G01 X42.4822 Y7.2018
G01 X42.6138 Y7.0938
G01 X42.7218 Y6.9622
G01 X42.8021 Y6.8120
G01 X42.8516 Y6.6490
G01 X42.8683 Y6.4795
G01 X42.8516 Y6.3100
G01 X42.8021 Y6.1470
G01 X42.7218 Y5.9968
G01 X42.6138 Y5.8652
G01 X42.4822 Y5.7572
G01 X42.3320 Y5.6769
G01 X42.1690 Y5.6274
G01 X41.9995 Y5.6108
G01 X41.8300 Y5.6274
G00 Z2.0000
G00 X44.2851 Y3.7359
G01 F60.00
G01 Z-0.0700
G01 F120.00
G01 X44.5530 Y4.0038
G01 X44.4778 Y4.1861
G01 X44.4520 Y4.2877
G01 X44.4359 Y4.3947
G01 X44.4308 Y4.4995
G01 X44.4359 Y4.6043
G01 X44.4520 Y4.7113
G01 X44.4778 Y4.8129
G01 X44.5530 Y4.9952
G01 X44.2851 Y5.2631
G01 X44.1731 Y5.0489
G01 X44.1035 Y4.8346
G01 X44.0683 Y4.6121
G01 X44.0683 Y4.3869
G01 X44.1035 Y4.1644
G01 X44.1731 Y3.9501
G01 X44.2851 Y3.7359
G00 Z2.0000
G00 X45.3869 Y3.0683
G01 F60.00
G01 Z-0.0700
G01 F120.00
G01 X45.6121 Y3.0683
G01 X45.8346 Y3.1035
G01 X46.0489 Y3.1731
G01 X46.2631 Y3.2851
G01 X45.9952 Y3.5530
G01 X45.8129 Y3.4778
G01 X45.7113 Y3.4520
G01 X45.6043 Y3.4359
G01 X45.4995 Y3.4308
G01 X45.3947 Y3.4359
G01 X45.2877 Y3.4520
G01 X45.1861 Y3.4778
G01 X45.0038 Y3.5530
G01 X44.7359 Y3.2851
G01 X44.9501 Y3.1731
G01 X45.1644 Y3.1035
G01 X45.3869 Y3.0683
G00 Z2.0000
G00 X46.9308 Y4.3869
G01 F60.00
G01 Z-0.0700
G01 F120.00
G01 X46.9308 Y4.6121
G01 X46.8955 Y4.8346
G01 X46.8259 Y5.0489
G01 X46.7139 Y5.2631
G01 X46.4460 Y4.9952
G01 X46.5212 Y4.8129
G01 X46.5470 Y4.7113
G01 X46.5631 Y4.6043
G01 X46.5683 Y4.4995
G01 X46.5631 Y4.3947
G01 X46.5470 Y4.2877
G01 X46.5212 Y4.1861
G01 X46.4460 Y4.0038
G01 X46.7139 Y3.7359
G01 X46.8259 Y3.9501
G01 X46.8955 Y4.1644
G01 X46.9308 Y4.3869
G00 Z2.0000
G00 X45.1893 Y5.5222
G01 F60.00
G01 Z-0.0700
G01 F120.00
G01 X45.2910 Y5.5477
G01 X45.3947 Y5.5631
G01 X45.4995 Y5.5683
G01 X45.6043 Y5.5631
G01 X45.7080 Y5.5477
G01 X45.8097 Y5.5222
G01 X45.9952 Y5.4460
G01 X46.2631 Y5.7139
G01 X46.0489 Y5.8259
G01 X45.8346 Y5.8955
G01 X45.6121 Y5.9308
G01 X45.3869 Y5.9308
G01 X45.1644 Y5.8955
G01 X44.9501 Y5.8259
G01 X44.7359 Y5.7139
G01 X45.0038 Y5.4460
G01 X45.1893 Y5.5222
G00 Z2.0000
G00 X50.7851 Y3.7359
G01 F60.00
G01 Z-0.0700
G01 F120.00
G01 X51.0530 Y4.0038
G01 X50.9778 Y4.1861
G01 X50.9520 Y4.2877
G01 X50.9359 Y4.3947
G01 X50.9308 Y4.4995
G01 X50.9359 Y4.6043
G01 X50.9520 Y4.7113
G01 X50.9778 Y4.8129
G01 X51.0530 Y4.9952
G01 X50.7851 Y5.2631
G01 X50.6731 Y5.0489
G01 X50.6035 Y4.8346
G01 X50.5683 Y4.6121
G01 X50.5683 Y4.3869
G01 X50.6035 Y4.1644
G01 X50.6731 Y3.9501
G01 X50.7851 Y3.7359
G00 Z2.0000
G00 X51.8869 Y3.0683
G01 F60.00
G01 Z-0.0700
G01 F120.00
G01 X52.1121 Y3.0683
G01 X52.3346 Y3.1035
G01 X52.5489 Y3.1731
G01 X52.7631 Y3.2851
G01 X52.4952 Y3.5530
G01 X52.3129 Y3.4778
G01 X52.2113 Y3.4520
G01 X52.1043 Y3.4359
G01 X51.9995 Y3.4308
G01 X51.8947 Y3.4359
G01 X51.7877 Y3.4520
G01 X51.6861 Y3.4778
G01 X51.5038 Y3.5530
G01 X51.2359 Y3.2851
G01 X51.4501 Y3.1731
G01 X51.6644 Y3.1035
G01 X51.8869 Y3.0683
G00 Z2.0000
G00 X53.4308 Y4.3869
G01 F60.00
G01 Z-0.0700
G01 F120.00
G01 X53.4308 Y4.6121
G01 X53.3955 Y4.8346
G01 X53.3259 Y5.0489
G01 X53.2139 Y5.2631
G01 X52.9460 Y4.9952
G01 X53.0212 Y4.8129
G01 X53.0470 Y4.7113
G01 X53.0631 Y4.6043
G01 X53.0683 Y4.4995
G01 X53.0631 Y4.3947
G01 X53.0470 Y4.2877
G01 X53.0212 Y4.1861
G01 X52.9460 Y4.0038
G01 X53.2139 Y3.7359
G01 X53.3259 Y3.9501
G01 X53.3955 Y4.1644
G01 X53.4308 Y4.3869
G00 Z2.0000
G00 X55.2851 Y3.7359
G01 F60.00
G01 Z-0.0700
G01 F120.00
G01 X55.5530 Y4.0038
G01 X55.4778 Y4.1861
G01 X55.4520 Y4.2877
G01 X55.4359 Y4.3947
G01 X55.4308 Y4.4995
G01 X55.4359 Y4.6043
G01 X55.4520 Y4.7113
G01 X55.4778 Y4.8129
G01 X55.5530 Y4.9952
G01 X55.2851 Y5.2631
G01 X55.1731 Y5.0489
G01 X55.1035 Y4.8346
G01 X55.0683 Y4.6121
G01 X55.0683 Y4.3869
G01 X55.1035 Y4.1644
G01 X55.1731 Y3.9501
G01 X55.2851 Y3.7359
G00 Z2.0000
G00 X56.3869 Y3.0683
G01 F60.00
G01 Z-0.0700
G01 F120.00
G01 X56.6121 Y3.0683
G01 X56.8346 Y3.1035
G01 X57.0489 Y3.1731
G01 X57.2631 Y3.2851
G01 X56.9952 Y3.5530
G01 X56.8129 Y3.4778
G01 X56.7113 Y3.4520
G01 X56.6043 Y3.4359
G01 X56.4995 Y3.4308
G01 X56.3947 Y3.4359
G01 X56.2877 Y3.4520
G01 X56.1861 Y3.4778
G01 X56.0038 Y3.5530
G01 X55.7359 Y3.2851
G01 X55.9501 Y3.1731
G01 X56.1644 Y3.1035
G01 X56.3869 Y3.0683
G00 Z2.0000
G00 X57.9308 Y4.3869
G01 F60.00
G01 Z-0.0700
G01 F120.00
G01 X57.9308 Y4.6121
G01 X57.8955 Y4.8346
G01 X57.8259 Y5.0489
G01 X57.7139 Y5.2631
G01 X57.4460 Y4.9952
G01 X57.5212 Y4.8129
G01 X57.5470 Y4.7113
G01 X57.5631 Y4.6043
G01 X57.5683 Y4.4995
G01 X57.5631 Y4.3947
G01 X57.5470 Y4.2877
G01 X57.5212 Y4.1861
G01 X57.4460 Y4.0038
G01 X57.7139 Y3.7359
G01 X57.8259 Y3.9501
G01 X57.8955 Y4.1644
G01 X57.9308 Y4.3869
G00 Z2.0000
G00 X56.1893 Y5.5222
G01 F60.00
G01 Z-0.0700
G01 F120.00
G01 X56.2910 Y5.5477
G01 X56.3947 Y5.5631
G01 X56.4995 Y5.5683
G01 X56.6043 Y5.5631
G01 X56.7080 Y5.5477
G01 X56.8097 Y5.5222
G01 X56.9952 Y5.4460
G01 X57.2631 Y5.7139
G01 X57.0489 Y5.8259
G01 X56.8346 Y5.8955
G01 X56.6121 Y5.9308
G01 X56.3869 Y5.9308
G01 X56.1644 Y5.8955
G01 X55.9501 Y5.8259
G01 X55.7359 Y5.7139
G01 X56.0038 Y5.4460
G01 X56.1893 Y5.5222
G00 Z2.0000
G00 X51.6893 Y5.5222
G01 F60.00
G01 Z-0.0700
G01 F120.00
G01 X51.7910 Y5.5477
G01 X51.8947 Y5.5631
G01 X51.9995 Y5.5683
G01 X52.1043 Y5.5631
G01 X52.2080 Y5.5477
G01 X52.3097 Y5.5222
G01 X52.4952 Y5.4460
G01 X52.7631 Y5.7139
G01 X52.5489 Y5.8259
G01 X52.3346 Y5.8955
G01 X52.1121 Y5.9308
G01 X51.8869 Y5.9308
G01 X51.6644 Y5.8955
G01 X51.4501 Y5.8259
G01 X51.2359 Y5.7139
G01 X51.5038 Y5.4460
G01 X51.6893 Y5.5222
G00 Z2.0000
G00 X50.9074 Y8.0668
G01 F60.00
G01 Z-0.0700
G01 F120.00
G01 X51.0668 Y7.9074
G01 X51.2491 Y7.7750
G01 X51.4499 Y7.6726
G01 X51.6642 Y7.6030
G01 X51.8868 Y7.5678
G01 X52.1122 Y7.5678
G01 X52.3348 Y7.6030
G01 X52.5491 Y7.6726
G01 X52.7499 Y7.7750
G01 X52.9322 Y7.9074
G01 X53.0916 Y8.0668
G01 X53.2240 Y8.2491
G01 X53.3264 Y8.4499
G01 X53.3960 Y8.6642
G01 X53.4313 Y8.8868
G01 X53.4313 Y9.1122
G01 X53.3960 Y9.3348
G01 X53.3264 Y9.5491
G01 X53.2240 Y9.7499
G01 X53.0916 Y9.9322
G01 X52.9322 Y10.0916
G01 X52.7499 Y10.2240
G01 X52.5491 Y10.3264
G01 X52.3348 Y10.3960
G01 X52.1122 Y10.4313
G01 X51.8868 Y10.4313
G01 X51.6642 Y10.3960
G01 X51.4499 Y10.3264
G01 X51.2491 Y10.2240
G01 X51.0668 Y10.0916
G01 X50.9074 Y9.9322
G01 X50.8510 Y9.8545
G01 X50.7750 Y9.7499
G01 X50.6726 Y9.5491
G01 X50.6030 Y9.3348
G01 X50.5678 Y9.1122
G01 X50.5678 Y8.8868
G01 X50.6030 Y8.6642
G01 X50.6726 Y8.4499
G01 X50.7750 Y8.2491
G01 X50.9074 Y8.0668
G00 Z2.0000
G00 X53.0477 Y8.7910
G01 F60.00
G01 Z-0.0700
G01 F120.00
G01 X53.0222 Y8.6893
G01 X52.9869 Y8.5905
G01 X52.9421 Y8.4957
G01 X52.8881 Y8.4057
G01 X52.8257 Y8.3215
G01 X52.7552 Y8.2438
G01 X52.6775 Y8.1733
G01 X52.5933 Y8.1109
G01 X52.5033 Y8.0569
G01 X52.4085 Y8.0121
G01 X52.3097 Y7.9768
G01 X52.2080 Y7.9513
G01 X52.1043 Y7.9359
G01 X51.9995 Y7.9308
G01 X51.8947 Y7.9359
G01 X51.7910 Y7.9513
G01 X51.6893 Y7.9768
G01 X51.5905 Y8.0121
G01 X51.4957 Y8.0569
G01 X51.4057 Y8.1109
G01 X51.3215 Y8.1733
G01 X51.2438 Y8.2438
G01 X51.1733 Y8.3215
G01 X51.1109 Y8.4057
G01 X51.0569 Y8.4957
G01 X51.0121 Y8.5905
G01 X50.9768 Y8.6893
G01 X50.9513 Y8.7910
G01 X50.9359 Y8.8947
G01 X50.9308 Y8.9995
G01 X50.9359 Y9.1043
G01 X50.9513 Y9.2080
G01 X50.9768 Y9.3097
G01 X51.0121 Y9.4085
G01 X51.0569 Y9.5033
G01 X51.1109 Y9.5933
G01 X51.1733 Y9.6775
G01 X51.2438 Y9.7552
G01 X51.3215 Y9.8257
G01 X51.4057 Y9.8881
G01 X51.4957 Y9.9421
G01 X51.5905 Y9.9869
G01 X51.6893 Y10.0222
G01 X51.7910 Y10.0477
G01 X51.8947 Y10.0631
G01 X51.9995 Y10.0683
G01 X52.1043 Y10.0631
G01 X52.2080 Y10.0477
G01 X52.3097 Y10.0222
G01 X52.4085 Y9.9869
G01 X52.5033 Y9.9421
G01 X52.5933 Y9.8881
G01 X52.6775 Y9.8257
G01 X52.7552 Y9.7552
G01 X52.8257 Y9.6775
G01 X52.8881 Y9.5933
G01 X52.9421 Y9.5033
G01 X52.9869 Y9.4085
G01 X53.0222 Y9.3097
G01 X53.0477 Y9.2080
G01 X53.0631 Y9.1043
G01 X53.0683 Y8.9995
G01 X53.0631 Y8.8947
G01 X53.0477 Y8.7910
G00 Z2.0000
G00 X61.9074 Y8.0668
G01 F60.00
G01 Z-0.0700
G01 F120.00
G01 X62.0668 Y7.9074
G01 X62.2491 Y7.7750
G01 X62.4499 Y7.6726
G01 X62.6642 Y7.6030
G01 X62.8868 Y7.5678
G01 X63.1122 Y7.5678
G01 X63.3348 Y7.6030
G01 X63.5491 Y7.6726
G01 X63.7499 Y7.7750
G01 X63.9322 Y7.9074
G01 X64.0916 Y8.0668
G01 X64.2240 Y8.2491
G01 X64.3264 Y8.4499
G01 X64.3960 Y8.6642
G01 X64.4313 Y8.8868
G01 X64.4313 Y9.1122
G01 X64.3960 Y9.3348
G01 X64.3264 Y9.5491
G01 X64.2240 Y9.7499
G01 X64.0916 Y9.9322
G01 X63.9322 Y10.0916
G01 X63.7499 Y10.2240
G01 X63.5491 Y10.3264
G01 X63.3348 Y10.3960
G01 X63.1122 Y10.4313
G01 X62.8868 Y10.4313
G01 X62.6642 Y10.3960
G01 X62.4499 Y10.3264
G01 X62.2491 Y10.2240
G01 X62.0668 Y10.0916
G01 X61.9074 Y9.9322
G01 X61.8510 Y9.8545
G01 X61.7750 Y9.7499
G01 X61.6726 Y9.5491
G01 X61.6030 Y9.3348
G01 X61.5678 Y9.1122
G01 X61.5678 Y8.8868
G01 X61.6030 Y8.6642
G01 X61.6726 Y8.4499
G01 X61.7750 Y8.2491
G01 X61.9074 Y8.0668
G00 Z2.0000
G00 X64.0483 Y8.7943
G01 F60.00
G01 Z-0.0700
G01 F120.00
G01 X64.0222 Y8.6893
G01 X63.9869 Y8.5905
G01 X63.9421 Y8.4957
G01 X63.8881 Y8.4057
G01 X63.8257 Y8.3215
G01 X63.7552 Y8.2438
G01 X63.6775 Y8.1733
G01 X63.5933 Y8.1109
G01 X63.5033 Y8.0569
G01 X63.4085 Y8.0121
G01 X63.3097 Y7.9768
G01 X63.2080 Y7.9513
G01 X63.1043 Y7.9359
G01 X62.9995 Y7.9308
G01 X62.8947 Y7.9359
G01 X62.7910 Y7.9513
G01 X62.6893 Y7.9768
G01 X62.5905 Y8.0121
G01 X62.4957 Y8.0569
G01 X62.4057 Y8.1109
G01 X62.3215 Y8.1733
G01 X62.2438 Y8.2438
G01 X62.1733 Y8.3215
G01 X62.1109 Y8.4057
G01 X62.0569 Y8.4957
G01 X62.0121 Y8.5905
G01 X61.9768 Y8.6893
G01 X61.9513 Y8.7910
G01 X61.9359 Y8.8947
G01 X61.9308 Y8.9995
G01 X61.9359 Y9.1043
G01 X61.9513 Y9.2080
G01 X61.9768 Y9.3097
G01 X62.0121 Y9.4085
G01 X62.0569 Y9.5033
G01 X62.1109 Y9.5933
G01 X62.1733 Y9.6775
G01 X62.2438 Y9.7552
G01 X62.3215 Y9.8257
G01 X62.4057 Y9.8881
G01 X62.4957 Y9.9421
G01 X62.5905 Y9.9869
G01 X62.6893 Y10.0222
G01 X62.7910 Y10.0477
G01 X62.8947 Y10.0631
G01 X62.9995 Y10.0683
G01 X63.1043 Y10.0631
G01 X63.2080 Y10.0477
G01 X63.3097 Y10.0222
G01 X63.4085 Y9.9869
G01 X63.5033 Y9.9421
G01 X63.5933 Y9.8881
G01 X63.6775 Y9.8257
G01 X63.7552 Y9.7552
G01 X63.8257 Y9.6775
G01 X63.8881 Y9.5933
G01 X63.9421 Y9.5033
G01 X63.9869 Y9.4085
G01 X64.0222 Y9.3097
G01 X64.0477 Y9.2080
G01 X64.0631 Y9.1043
G01 X64.0683 Y8.9995
G01 X64.0631 Y8.8947
G01 X64.0483 Y8.7943
G00 Z2.0000
G00 X62.6893 Y5.5222
G01 F60.00
G01 Z-0.0700
G01 F120.00
G01 X62.7910 Y5.5477
G01 X62.8947 Y5.5631
G01 X62.9995 Y5.5683
G01 X63.1043 Y5.5631
G01 X63.2080 Y5.5477
G01 X63.3097 Y5.5222
G01 X63.4952 Y5.4460
G01 X63.7631 Y5.7139
G01 X63.5489 Y5.8259
G01 X63.3346 Y5.8955
G01 X63.1121 Y5.9308
G01 X62.8869 Y5.9308
G01 X62.6644 Y5.8955
G01 X62.4501 Y5.8259
G01 X62.2359 Y5.7139
G01 X62.5038 Y5.4460
G01 X62.6893 Y5.5222
G00 Z2.0000
G00 X61.7851 Y3.7359
G01 F60.00
G01 Z-0.0700
G01 F120.00
G01 X62.0530 Y4.0038
G01 X61.9778 Y4.1861
G01 X61.9520 Y4.2877
G01 X61.9359 Y4.3947
G01 X61.9308 Y4.4995
G01 X61.9359 Y4.6043
G01 X61.9520 Y4.7113
G01 X61.9778 Y4.8129
G01 X62.0530 Y4.9952
G01 X61.7851 Y5.2631
G01 X61.6731 Y5.0489
G01 X61.6035 Y4.8346
G01 X61.5683 Y4.6121
G01 X61.5683 Y4.3869
G01 X61.6035 Y4.1644
G01 X61.6731 Y3.9501
G01 X61.7851 Y3.7359
G00 Z2.0000
G00 X62.8869 Y3.0683
G01 F60.00
G01 Z-0.0700
G01 F120.00
G01 X63.1121 Y3.0683
G01 X63.3346 Y3.1035
G01 X63.5489 Y3.1731
G01 X63.7631 Y3.2851
G01 X63.4952 Y3.5530
G01 X63.3129 Y3.4778
G01 X63.2113 Y3.4520
G01 X63.1043 Y3.4359
G01 X62.9995 Y3.4308
G01 X62.8947 Y3.4359
G01 X62.7877 Y3.4520
G01 X62.6861 Y3.4778
G01 X62.5038 Y3.5530
G01 X62.2359 Y3.2851
G01 X62.4501 Y3.1731
G01 X62.6644 Y3.1035
G01 X62.8869 Y3.0683
G00 Z2.0000
G00 X64.4308 Y4.3869
G01 F60.00
G01 Z-0.0700
G01 F120.00
G01 X64.4308 Y4.6121
G01 X64.3955 Y4.8346
G01 X64.3259 Y5.0489
G01 X64.2139 Y5.2631
G01 X63.9460 Y4.9952
G01 X64.0212 Y4.8129
G01 X64.0470 Y4.7113
G01 X64.0631 Y4.6043
G01 X64.0683 Y4.4995
G01 X64.0631 Y4.3947
G01 X64.0470 Y4.2877
G01 X64.0212 Y4.1861
G01 X63.9460 Y4.0038
G01 X64.2139 Y3.7359
G01 X64.3259 Y3.9501
G01 X64.3955 Y4.1644
G01 X64.4308 Y4.3869
G00 Z2.0000
G00 X67.5218 Y1.6645
G01 F60.00
G01 Z-0.0700
G01 F120.00
G01 X67.6645 Y1.5218
G01 X67.8277 Y1.4033
G01 X68.0075 Y1.3117
G01 X68.1994 Y1.2493
G01 X68.3986 Y1.2178
G01 X68.6004 Y1.2178
G01 X68.7996 Y1.2493
G01 X68.9915 Y1.3117
G01 X69.1713 Y1.4032
G01 X69.3345 Y1.5218
G01 X69.4772 Y1.6645
G01 X69.5957 Y1.8277
G01 X69.6873 Y2.0075
G01 X69.7497 Y2.1994
G01 X69.7813 Y2.3986
G01 X69.7813 Y2.6004
G01 X69.7497 Y2.7996
G01 X69.6873 Y2.9915
G01 X69.5958 Y3.1713
G01 X69.4772 Y3.3345
G01 X69.3345 Y3.4772
G01 X69.1713 Y3.5957
G01 X68.9915 Y3.6873
G01 X68.7996 Y3.7497
G01 X68.6004 Y3.7813
G01 X68.3986 Y3.7813
G01 X68.1994 Y3.7497
G01 X68.0075 Y3.6873
G01 X67.8277 Y3.5957
G01 X67.6645 Y3.4772
G01 X67.5218 Y3.3345
G01 X67.4033 Y3.1713
G01 X67.3117 Y2.9915
G01 X67.2493 Y2.7996
G01 X67.2178 Y2.6004
G01 X67.2178 Y2.3986
G01 X67.2493 Y2.1994
G01 X67.3117 Y2.0075
G01 X67.4033 Y1.8277
G01 X67.5218 Y1.6645
G00 Z2.0000
G00 X53.0774 Y35.8604
G01 F60.00
G01 Z-0.0700
G01 F120.00
G01 X53.2342 Y35.7464
G01 X53.4069 Y35.6585
G01 X53.5607 Y35.6085
G01 X53.5608 Y35.9919
G01 X53.4700 Y36.0333
G01 X53.3941 Y36.0791
G01 X53.2676 Y36.1829
G01 X53.2079 Y36.2484
G01 X53.1150 Y36.3870
G01 X53.0769 Y36.4670
G01 X53.0473 Y36.5506
G01 X53.0198 Y36.6807
G01 X52.6517 Y36.6808
G01 X52.6786 Y36.5112
G01 X52.7385 Y36.3269
G01 X52.8264 Y36.1542
G01 X52.9404 Y35.9974
G01 X53.0774 Y35.8604
G00 Z2.0000
G00 X53.0473 Y37.4484
G01 F60.00
G01 Z-0.0700
G01 F120.00
G01 X53.1150 Y37.6120
G01 X53.2059 Y37.7480
G01 X53.2629 Y37.8114
G01 X53.3968 Y37.9218
G01 X53.4700 Y37.9657
G01 X53.5607 Y38.0071
G01 X53.5608 Y38.3905
G01 X53.4069 Y38.3405
G01 X53.2342 Y38.2526
G01 X53.0774 Y38.1386
G01 X52.9404 Y38.0016
G01 X52.8264 Y37.8448
G01 X52.7385 Y37.6721
G01 X52.6786 Y37.4878
G01 X52.6517 Y37.3183
G01 X53.0198 Y37.3183
G01 X53.0473 Y37.4484
G00 Z2.0000
G00 X67.4033 Y41.8277
G01 F60.00
G01 Z-0.0700
G01 F120.00
G01 X67.5218 Y41.6645
G01 X67.6645 Y41.5218
G01 X67.8277 Y41.4033
G01 X68.0075 Y41.3117
G01 X68.1994 Y41.2493
G01 X68.3986 Y41.2178
G01 X68.6004 Y41.2178
G01 X68.7996 Y41.2493
G01 X68.9915 Y41.3117
G01 X69.1713 Y41.4032
G01 X69.3345 Y41.5218
G01 X69.4772 Y41.6645
G01 X69.5957 Y41.8277
G01 X69.6873 Y42.0075
G01 X69.7497 Y42.1994
G01 X69.7813 Y42.3986
G01 X69.7813 Y42.6004
G01 X69.7497 Y42.7996
G01 X69.6873 Y42.9915
G01 X69.5958 Y43.1713
G01 X69.4772 Y43.3345
G01 X69.3345 Y43.4772
G01 X69.1713 Y43.5957
G01 X68.9915 Y43.6873
G01 X68.7996 Y43.7497
G01 X68.6004 Y43.7813
G01 X68.3986 Y43.7813
G01 X68.3553 Y43.7744
G01 X68.1994 Y43.7497
G01 X68.0075 Y43.6873
G01 X67.8277 Y43.5957
G01 X67.6645 Y43.4772
G01 X67.5218 Y43.3345
G01 X67.4033 Y43.1713
G01 X67.3117 Y42.9915
G01 X67.2493 Y42.7996
G01 X67.2178 Y42.6004
G01 X67.2178 Y42.3986
G01 X67.2493 Y42.1994
G01 X67.3117 Y42.0075
G01 X67.4033 Y41.8277
G00 Z2.0000
M05
G00 Z2.0000
G00 Z15.00


