(G-code generated by FlatCAM Evo vUnstable - Version Date: 2023/6/31)

(Name: platine_sensor-B_Cu.gbr_iso_combined_cnc)
(Type: G-code from Geometry)
(Units: MM)

(Created on Sonntag, 02 November 2025 at 18:05)

(This preprocessor is the default preprocessor.)
(It is made to work with MACH3 compatible motion controllers.)

(TOOL DIAMETER: 0.1247 mm)
(Feedrate_XY: 120.0 mm/min)
(Feedrate_Z: 60.0 mm/min)
(Feedrate rapids 1500.0 mm/min)

(Z_Cut: -0.07 mm)
(Z_Move: 2.0 mm)
(Z Start: None mm)
(Z End: 15.0 mm)
(X,Y End: None mm)
(Steps per circle: 16)
(Preprocessor Geometry: default)

(X range:   -0.0623 ...   11.5614  mm)
(Y range:   -0.0623 ...   16.5614  mm)

(Spindle Speed: 0.0 RPM)
G21
G90
G94

G01 F120.00
G00 Z2.0000

M03
G01 F120.00
G00 X1.1645 Y1.6967
G01 F60.00
G01 Z-0.0700
G01 F120.00
G01 X1.2390 Y1.5168
G01 X1.3471 Y1.3550
G01 X1.4848 Y1.2173
G01 X1.6466 Y1.1092
G01 X1.8264 Y1.0347
G01 X2.0173 Y0.9967
G01 X2.2120 Y0.9967
G01 X2.4029 Y1.0347
G01 X2.5827 Y1.1092
G01 X2.7446 Y1.2173
G01 X2.8822 Y1.3550
G01 X2.9904 Y1.5168
G01 X3.0419 Y1.6397
G01 X3.0948 Y1.7058
G01 X3.1169 Y1.7204
G01 X3.1983 Y1.7462
G01 X8.3250 Y1.7467
G01 X8.4257 Y1.7172
G01 X8.4971 Y1.6312
G01 X8.5113 Y1.5621
G01 X8.5114 Y1.0959
G01 X8.5194 Y1.0556
G01 X8.5499 Y1.0099
G01 X8.5956 Y0.9794
G01 X8.6359 Y0.9714
G01 X10.3631 Y0.9714
G01 X10.4034 Y0.9794
G01 X10.4491 Y1.0099
G01 X10.4796 Y1.0556
G01 X10.4876 Y1.0959
G01 X10.4876 Y2.8231
G01 X10.4796 Y2.8634
G01 X10.4491 Y2.9091
G01 X10.4034 Y2.9396
G01 X10.3631 Y2.9477
G01 X8.6359 Y2.9477
G01 X8.5956 Y2.9396
G01 X8.5499 Y2.9091
G01 X8.5194 Y2.8634
G01 X8.5114 Y2.8231
G01 X8.5113 Y2.4064
G01 X8.4882 Y2.3220
G01 X8.4723 Y2.2972
G01 X8.4098 Y2.2439
G01 X8.3317 Y2.2234
G01 X3.2086 Y2.2231
G01 X3.1227 Y2.2462
G01 X3.0979 Y2.2621
G01 X3.0446 Y2.3246
G01 X2.9904 Y2.4530
G01 X2.8822 Y2.6148
G01 X2.7446 Y2.7524
G01 X2.5827 Y2.8606
G01 X2.4029 Y2.9351
G01 X2.2120 Y2.9730
G01 X2.0173 Y2.9730
G01 X1.8264 Y2.9351
G01 X1.6466 Y2.8606
G01 X1.4848 Y2.7524
G01 X1.3471 Y2.6148
G01 X1.2390 Y2.4530
G01 X1.1645 Y2.2731
G01 X1.1265 Y2.0822
G01 X1.1265 Y1.8876
G01 X1.1645 Y1.6967
G00 Z2.0000
G00 X2.0283 Y1.0767
G01 F60.00
G01 Z-0.0700
G01 F120.00
G01 X1.9337 Y1.0907
G01 X1.7627 Y1.1432
G01 X1.6078 Y1.2263
G01 X1.4695 Y1.3398
G01 X1.3561 Y1.4780
G01 X1.2730 Y1.6330
G01 X1.2408 Y1.7230
G01 X1.2065 Y1.8985
G01 X1.2067 Y2.0743
G01 X1.2416 Y2.2497
G01 X1.3101 Y2.4150
G01 X1.4075 Y2.5613
G01 X1.4718 Y2.6321
G01 X1.6104 Y2.7451
G01 X1.7655 Y2.8278
G01 X1.9367 Y2.8797
G01 X2.1147 Y2.8972
G01 X2.2927 Y2.8797
G01 X2.4638 Y2.8278
G01 X2.6215 Y2.7435
G01 X2.7598 Y2.6300
G01 X2.8733 Y2.4918
G01 X2.9576 Y2.3340
G01 X2.9877 Y2.2497
G01 X3.0119 Y2.1473
G01 X8.5871 Y2.1473
G01 X8.5872 Y2.8126
G01 X8.5994 Y2.8466
G01 X8.6285 Y2.8682
G01 X10.3510 Y2.8718
G01 X10.3891 Y2.8577
G01 X10.4107 Y2.8217
G01 X10.4118 Y1.1080
G01 X10.3977 Y1.0699
G01 X10.3617 Y1.0483
G01 X8.6256 Y1.0519
G01 X8.5994 Y1.0724
G01 X8.5872 Y1.1064
G01 X8.5872 Y1.8225
G01 X3.0119 Y1.8225
G01 X2.9868 Y1.7171
G01 X2.9178 Y1.5522
G01 X2.8199 Y1.4061
G01 X2.6910 Y1.2778
G01 X2.5448 Y1.1803
G01 X2.3795 Y1.1118
G01 X2.2041 Y1.0769
G01 X2.0283 Y1.0767
G00 Z2.0000
G00 X2.0252 Y3.6169
G01 F60.00
G01 Z-0.0700
G01 F120.00
G01 X1.8498 Y3.6518
G01 X1.6846 Y3.7203
G01 X1.5359 Y3.8196
G01 X1.4114 Y3.9438
G01 X1.3116 Y4.0922
G01 X1.2707 Y4.1786
G01 X1.2199 Y4.3469
G01 X1.2023 Y4.5249
G01 X1.2199 Y4.7029
G01 X1.2707 Y4.8712
G01 X1.3116 Y4.9576
G01 X1.4114 Y5.1060
G01 X1.5359 Y5.2301
G01 X1.6846 Y5.3295
G01 X1.8498 Y5.3980
G01 X2.0252 Y5.4328
G01 X2.2041 Y5.4328
G01 X2.3795 Y5.3980
G01 X2.5448 Y5.3295
G01 X2.6910 Y5.2320
G01 X2.8199 Y5.1037
G01 X2.9178 Y4.9576
G01 X2.9868 Y4.7926
G01 X3.0119 Y4.6873
G01 X8.6071 Y4.6873
G01 X8.6566 Y4.8486
G01 X8.7409 Y5.0064
G01 X8.8544 Y5.1446
G01 X8.9901 Y5.2563
G01 X9.0722 Y5.3055
G01 X9.2376 Y5.3734
G01 X9.4101 Y5.4075
G01 X9.5889 Y5.4075
G01 X9.7643 Y5.3726
G01 X9.9268 Y5.3055
G01 X10.0089 Y5.2563
G01 X10.1446 Y5.1446
G01 X10.2563 Y5.0089
G01 X10.3055 Y4.9268
G01 X10.3726 Y4.7643
G01 X10.4075 Y4.5889
G01 X10.4075 Y4.4101
G01 X10.3726 Y4.2347
G01 X10.3041 Y4.0694
G01 X10.2048 Y3.9207
G01 X10.0783 Y3.7942
G01 X9.9296 Y3.6949
G01 X9.7643 Y3.6264
G01 X9.5889 Y3.5915
G01 X9.4101 Y3.5915
G01 X9.2347 Y3.6264
G01 X9.0694 Y3.6949
G01 X8.9231 Y3.7924
G01 X8.7942 Y3.9207
G01 X8.6964 Y4.0668
G01 X8.6274 Y4.2318
G01 X8.5985 Y4.3625
G01 X3.0119 Y4.3625
G01 X2.9868 Y4.2571
G01 X2.9178 Y4.0922
G01 X2.8199 Y3.9461
G01 X2.6910 Y3.8178
G01 X2.5448 Y3.7203
G01 X2.3795 Y3.6518
G01 X2.2041 Y3.6169
G01 X2.0252 Y3.6169
G00 Z2.0000
G00 X1.1645 Y4.2367
G01 F60.00
G01 Z-0.0700
G01 F120.00
G01 X1.2390 Y4.0568
G01 X1.3471 Y3.8950
G01 X1.4848 Y3.7573
G01 X1.6466 Y3.6492
G01 X1.8264 Y3.5747
G01 X2.0173 Y3.5367
G01 X2.2120 Y3.5367
G01 X2.4029 Y3.5747
G01 X2.5827 Y3.6492
G01 X2.7446 Y3.7573
G01 X2.8822 Y3.8950
G01 X2.9904 Y4.0568
G01 X3.0419 Y4.1797
G01 X3.0918 Y4.2425
G01 X3.1169 Y4.2604
G01 X3.1983 Y4.2862
G01 X8.3995 Y4.2865
G01 X8.4810 Y4.2636
G01 X8.5057 Y4.2477
G01 X8.5591 Y4.1851
G01 X8.6238 Y4.0314
G01 X8.7320 Y3.8696
G01 X8.8696 Y3.7320
G01 X9.0314 Y3.6238
G01 X9.2113 Y3.5493
G01 X9.4022 Y3.5114
G01 X9.5968 Y3.5114
G01 X9.7877 Y3.5493
G01 X9.9676 Y3.6238
G01 X10.1294 Y3.7320
G01 X10.2670 Y3.8696
G01 X10.3752 Y4.0314
G01 X10.4497 Y4.2113
G01 X10.4877 Y4.4022
G01 X10.4877 Y4.5968
G01 X10.4497 Y4.7877
G01 X10.3752 Y4.9676
G01 X10.2670 Y5.1294
G01 X10.1294 Y5.2670
G01 X9.9676 Y5.3752
G01 X9.7877 Y5.4497
G01 X9.5968 Y5.4877
G01 X9.4022 Y5.4877
G01 X9.2113 Y5.4497
G01 X9.0314 Y5.3752
G01 X8.8696 Y5.2670
G01 X8.7320 Y5.1294
G01 X8.6238 Y4.9676
G01 X8.5828 Y4.8701
G01 X8.5299 Y4.8040
G01 X8.5078 Y4.7894
G01 X8.4264 Y4.7636
G01 X3.2101 Y4.7630
G01 X3.1227 Y4.7862
G01 X3.0979 Y4.8021
G01 X3.0446 Y4.8646
G01 X2.9904 Y4.9930
G01 X2.8822 Y5.1548
G01 X2.7446 Y5.2924
G01 X2.5827 Y5.4006
G01 X2.4029 Y5.4751
G01 X2.2120 Y5.5130
G01 X2.0173 Y5.5130
G01 X1.8264 Y5.4751
G01 X1.6466 Y5.4006
G01 X1.4848 Y5.2924
G01 X1.3471 Y5.1548
G01 X1.2390 Y4.9930
G01 X1.1645 Y4.8131
G01 X1.1265 Y4.6222
G01 X1.1265 Y4.4276
G01 X1.1645 Y4.2367
G00 Z2.0000
G00 X2.0252 Y6.1569
G01 F60.00
G01 Z-0.0700
G01 F120.00
G01 X1.8498 Y6.1918
G01 X1.6846 Y6.2603
G01 X1.5359 Y6.3596
G01 X1.4114 Y6.4838
G01 X1.3116 Y6.6322
G01 X1.2707 Y6.7186
G01 X1.2199 Y6.8869
G01 X1.2023 Y7.0649
G01 X1.2199 Y7.2429
G01 X1.2707 Y7.4112
G01 X1.3116 Y7.4976
G01 X1.4114 Y7.6460
G01 X1.5359 Y7.7701
G01 X1.6846 Y7.8695
G01 X1.8498 Y7.9380
G01 X2.0252 Y7.9728
G01 X2.2041 Y7.9728
G01 X2.3795 Y7.9380
G01 X2.5448 Y7.8695
G01 X2.6910 Y7.7720
G01 X2.8199 Y7.6437
G01 X2.9178 Y7.4976
G01 X2.9868 Y7.3326
G01 X3.0119 Y7.2273
G01 X8.6071 Y7.2273
G01 X8.6566 Y7.3886
G01 X8.7409 Y7.5464
G01 X8.8544 Y7.6846
G01 X8.9901 Y7.7963
G01 X9.0722 Y7.8455
G01 X9.2376 Y7.9134
G01 X9.4101 Y7.9475
G01 X9.5889 Y7.9475
G01 X9.7643 Y7.9126
G01 X9.9268 Y7.8455
G01 X10.0089 Y7.7963
G01 X10.1446 Y7.6846
G01 X10.2563 Y7.5489
G01 X10.3055 Y7.4668
G01 X10.3726 Y7.3043
G01 X10.4075 Y7.1289
G01 X10.4075 Y6.9501
G01 X10.3726 Y6.7747
G01 X10.3041 Y6.6094
G01 X10.2048 Y6.4607
G01 X10.0783 Y6.3342
G01 X9.9296 Y6.2349
G01 X9.7643 Y6.1664
G01 X9.5889 Y6.1315
G01 X9.4101 Y6.1315
G01 X9.2347 Y6.1664
G01 X9.0694 Y6.2349
G01 X8.9231 Y6.3324
G01 X8.7942 Y6.4607
G01 X8.6964 Y6.6068
G01 X8.6274 Y6.7718
G01 X8.5985 Y6.9025
G01 X3.0119 Y6.9025
G01 X2.9868 Y6.7971
G01 X2.9178 Y6.6322
G01 X2.8199 Y6.4861
G01 X2.6910 Y6.3578
G01 X2.5448 Y6.2603
G01 X2.3795 Y6.1918
G01 X2.2041 Y6.1569
G01 X2.0252 Y6.1569
G00 Z2.0000
G00 X1.1645 Y6.7767
G01 F60.00
G01 Z-0.0700
G01 F120.00
G01 X1.2390 Y6.5968
G01 X1.3471 Y6.4350
G01 X1.4848 Y6.2973
G01 X1.6466 Y6.1892
G01 X1.8264 Y6.1147
G01 X2.0173 Y6.0767
G01 X2.2120 Y6.0767
G01 X2.4029 Y6.1147
G01 X2.5827 Y6.1892
G01 X2.7446 Y6.2973
G01 X2.8822 Y6.4350
G01 X2.9904 Y6.5968
G01 X3.0419 Y6.7197
G01 X3.0918 Y6.7825
G01 X3.1169 Y6.8004
G01 X3.1983 Y6.8262
G01 X8.3995 Y6.8265
G01 X8.4810 Y6.8036
G01 X8.5057 Y6.7877
G01 X8.5591 Y6.7251
G01 X8.6238 Y6.5714
G01 X8.7320 Y6.4096
G01 X8.8696 Y6.2720
G01 X9.0314 Y6.1638
G01 X9.2113 Y6.0893
G01 X9.4022 Y6.0514
G01 X9.5968 Y6.0514
G01 X9.7877 Y6.0893
G01 X9.9676 Y6.1638
G01 X10.1294 Y6.2720
G01 X10.2670 Y6.4096
G01 X10.3752 Y6.5714
G01 X10.4497 Y6.7513
G01 X10.4877 Y6.9422
G01 X10.4877 Y7.1368
G01 X10.4497 Y7.3277
G01 X10.3752 Y7.5076
G01 X10.2670 Y7.6694
G01 X10.1294 Y7.8070
G01 X9.9676 Y7.9152
G01 X9.7877 Y7.9897
G01 X9.5968 Y8.0277
G01 X9.4022 Y8.0277
G01 X9.2113 Y7.9897
G01 X9.0314 Y7.9152
G01 X8.8696 Y7.8070
G01 X8.7320 Y7.6694
G01 X8.6238 Y7.5076
G01 X8.5828 Y7.4101
G01 X8.5299 Y7.3440
G01 X8.5078 Y7.3294
G01 X8.4264 Y7.3036
G01 X3.2101 Y7.3030
G01 X3.1227 Y7.3262
G01 X3.0979 Y7.3421
G01 X3.0446 Y7.4046
G01 X2.9904 Y7.5330
G01 X2.8822 Y7.6948
G01 X2.7446 Y7.8324
G01 X2.5827 Y7.9406
G01 X2.4029 Y8.0151
G01 X2.2120 Y8.0530
G01 X2.0173 Y8.0530
G01 X1.8264 Y8.0151
G01 X1.6466 Y7.9406
G01 X1.4848 Y7.8324
G01 X1.3471 Y7.6948
G01 X1.2390 Y7.5330
G01 X1.1645 Y7.3531
G01 X1.1265 Y7.1622
G01 X1.1265 Y6.9676
G01 X1.1645 Y6.7767
G00 Z2.0000
G00 X2.0252 Y8.6969
G01 F60.00
G01 Z-0.0700
G01 F120.00
G01 X1.8498 Y8.7318
G01 X1.6846 Y8.8003
G01 X1.5359 Y8.8996
G01 X1.4114 Y9.0238
G01 X1.3116 Y9.1722
G01 X1.2707 Y9.2586
G01 X1.2199 Y9.4269
G01 X1.2023 Y9.6049
G01 X1.2199 Y9.7829
G01 X1.2707 Y9.9512
G01 X1.3116 Y10.0376
G01 X1.4114 Y10.1860
G01 X1.5359 Y10.3101
G01 X1.6846 Y10.4095
G01 X1.8498 Y10.4780
G01 X2.0252 Y10.5128
G01 X2.2041 Y10.5128
G01 X2.3795 Y10.4780
G01 X2.5448 Y10.4095
G01 X2.6910 Y10.3120
G01 X2.8199 Y10.1837
G01 X2.9178 Y10.0376
G01 X2.9868 Y9.8726
G01 X3.0119 Y9.7673
G01 X8.6071 Y9.7673
G01 X8.6566 Y9.9286
G01 X8.7409 Y10.0864
G01 X8.8544 Y10.2246
G01 X8.9901 Y10.3363
G01 X9.0722 Y10.3855
G01 X9.2376 Y10.4534
G01 X9.4101 Y10.4875
G01 X9.5889 Y10.4875
G01 X9.7643 Y10.4526
G01 X9.9268 Y10.3855
G01 X10.0089 Y10.3363
G01 X10.1446 Y10.2246
G01 X10.2563 Y10.0889
G01 X10.3055 Y10.0068
G01 X10.3726 Y9.8443
G01 X10.4075 Y9.6689
G01 X10.4075 Y9.4901
G01 X10.3726 Y9.3147
G01 X10.3041 Y9.1494
G01 X10.2048 Y9.0007
G01 X10.0783 Y8.8742
G01 X9.9296 Y8.7749
G01 X9.7643 Y8.7064
G01 X9.5889 Y8.6715
G01 X9.4101 Y8.6715
G01 X9.2347 Y8.7064
G01 X9.0694 Y8.7749
G01 X8.9231 Y8.8724
G01 X8.7942 Y9.0007
G01 X8.6964 Y9.1468
G01 X8.6274 Y9.3118
G01 X8.5985 Y9.4425
G01 X3.0119 Y9.4425
G01 X2.9868 Y9.3371
G01 X2.9178 Y9.1722
G01 X2.8199 Y9.0261
G01 X2.6910 Y8.8978
G01 X2.5448 Y8.8003
G01 X2.3795 Y8.7318
G01 X2.2041 Y8.6969
G01 X2.0252 Y8.6969
G00 Z2.0000
G00 X1.1645 Y9.3167
G01 F60.00
G01 Z-0.0700
G01 F120.00
G01 X1.2390 Y9.1368
G01 X1.3471 Y8.9750
G01 X1.4848 Y8.8373
G01 X1.6466 Y8.7292
G01 X1.8264 Y8.6547
G01 X2.0173 Y8.6167
G01 X2.2120 Y8.6167
G01 X2.4029 Y8.6547
G01 X2.5827 Y8.7292
G01 X2.7446 Y8.8373
G01 X2.8822 Y8.9750
G01 X2.9904 Y9.1368
G01 X3.0419 Y9.2597
G01 X3.0918 Y9.3225
G01 X3.1169 Y9.3404
G01 X3.1983 Y9.3662
G01 X8.3995 Y9.3665
G01 X8.4810 Y9.3436
G01 X8.5057 Y9.3277
G01 X8.5591 Y9.2651
G01 X8.6238 Y9.1114
G01 X8.7320 Y8.9496
G01 X8.8696 Y8.8120
G01 X9.0314 Y8.7038
G01 X9.2113 Y8.6293
G01 X9.4022 Y8.5914
G01 X9.5968 Y8.5914
G01 X9.7877 Y8.6293
G01 X9.9676 Y8.7038
G01 X10.1294 Y8.8120
G01 X10.2670 Y8.9496
G01 X10.3752 Y9.1114
G01 X10.4497 Y9.2913
G01 X10.4877 Y9.4822
G01 X10.4877 Y9.6768
G01 X10.4497 Y9.8677
G01 X10.3752 Y10.0476
G01 X10.2670 Y10.2094
G01 X10.1294 Y10.3470
G01 X9.9676 Y10.4552
G01 X9.7877 Y10.5297
G01 X9.5968 Y10.5677
G01 X9.4022 Y10.5677
G01 X9.2113 Y10.5297
G01 X9.0314 Y10.4552
G01 X8.8696 Y10.3470
G01 X8.7320 Y10.2094
G01 X8.6238 Y10.0476
G01 X8.5828 Y9.9501
G01 X8.5299 Y9.8840
G01 X8.5078 Y9.8694
G01 X8.4264 Y9.8436
G01 X3.2101 Y9.8430
G01 X3.1227 Y9.8662
G01 X3.0979 Y9.8821
G01 X3.0446 Y9.9446
G01 X2.9904 Y10.0730
G01 X2.8822 Y10.2348
G01 X2.7446 Y10.3724
G01 X2.5827 Y10.4806
G01 X2.4029 Y10.5551
G01 X2.2120 Y10.5930
G01 X2.0173 Y10.5930
G01 X1.8264 Y10.5551
G01 X1.6466 Y10.4806
G01 X1.4848 Y10.3724
G01 X1.3471 Y10.2348
G01 X1.2390 Y10.0730
G01 X1.1645 Y9.8931
G01 X1.1265 Y9.7022
G01 X1.1265 Y9.5076
G01 X1.1645 Y9.3167
G00 Z2.0000
G00 X2.0252 Y11.2369
G01 F60.00
G01 Z-0.0700
G01 F120.00
G01 X1.8498 Y11.2718
G01 X1.6846 Y11.3403
G01 X1.5359 Y11.4396
G01 X1.4114 Y11.5638
G01 X1.3116 Y11.7122
G01 X1.2707 Y11.7986
G01 X1.2199 Y11.9669
G01 X1.2023 Y12.1449
G01 X1.2199 Y12.3229
G01 X1.2707 Y12.4912
G01 X1.3116 Y12.5776
G01 X1.4114 Y12.7260
G01 X1.5359 Y12.8501
G01 X1.6846 Y12.9495
G01 X1.8498 Y13.0180
G01 X2.0252 Y13.0528
G01 X2.2041 Y13.0528
G01 X2.3795 Y13.0180
G01 X2.5448 Y12.9495
G01 X2.6910 Y12.8520
G01 X2.8199 Y12.7237
G01 X2.9178 Y12.5776
G01 X2.9868 Y12.4126
G01 X3.0119 Y12.3073
G01 X8.6071 Y12.3073
G01 X8.6566 Y12.4686
G01 X8.7409 Y12.6264
G01 X8.8544 Y12.7646
G01 X8.9901 Y12.8763
G01 X9.0722 Y12.9255
G01 X9.2376 Y12.9934
G01 X9.4101 Y13.0275
G01 X9.5889 Y13.0275
G01 X9.7643 Y12.9926
G01 X9.9268 Y12.9255
G01 X10.0089 Y12.8763
G01 X10.1446 Y12.7646
G01 X10.2563 Y12.6289
G01 X10.3055 Y12.5468
G01 X10.3726 Y12.3843
G01 X10.4075 Y12.2089
G01 X10.4075 Y12.0301
G01 X10.3726 Y11.8547
G01 X10.3041 Y11.6894
G01 X10.2048 Y11.5407
G01 X10.0783 Y11.4142
G01 X9.9296 Y11.3149
G01 X9.7643 Y11.2464
G01 X9.5889 Y11.2115
G01 X9.4101 Y11.2115
G01 X9.2347 Y11.2464
G01 X9.0694 Y11.3149
G01 X8.9231 Y11.4124
G01 X8.7942 Y11.5407
G01 X8.6964 Y11.6868
G01 X8.6274 Y11.8518
G01 X8.5985 Y11.9825
G01 X3.0119 Y11.9825
G01 X2.9868 Y11.8771
G01 X2.9178 Y11.7122
G01 X2.8199 Y11.5661
G01 X2.6910 Y11.4378
G01 X2.5448 Y11.3403
G01 X2.3795 Y11.2718
G01 X2.2041 Y11.2369
G01 X2.0252 Y11.2369
G00 Z2.0000
G00 X1.2390 Y11.6768
G01 F60.00
G01 Z-0.0700
G01 F120.00
G01 X1.3471 Y11.5150
G01 X1.4848 Y11.3773
G01 X1.6466 Y11.2692
G01 X1.8264 Y11.1947
G01 X2.0173 Y11.1567
G01 X2.2120 Y11.1567
G01 X2.4029 Y11.1947
G01 X2.5827 Y11.2692
G01 X2.7446 Y11.3773
G01 X2.8822 Y11.5150
G01 X2.9904 Y11.6768
G01 X3.0419 Y11.7997
G01 X3.0918 Y11.8625
G01 X3.1169 Y11.8804
G01 X3.1983 Y11.9062
G01 X8.3965 Y11.9067
G01 X8.4810 Y11.8836
G01 X8.5057 Y11.8677
G01 X8.5591 Y11.8051
G01 X8.6238 Y11.6514
G01 X8.7320 Y11.4896
G01 X8.8696 Y11.3520
G01 X9.0314 Y11.2438
G01 X9.2113 Y11.1693
G01 X9.4022 Y11.1314
G01 X9.5968 Y11.1314
G01 X9.7877 Y11.1693
G01 X9.9676 Y11.2438
G01 X10.1294 Y11.3520
G01 X10.2670 Y11.4896
G01 X10.3752 Y11.6514
G01 X10.4497 Y11.8313
G01 X10.4877 Y12.0222
G01 X10.4877 Y12.2168
G01 X10.4497 Y12.4077
G01 X10.3752 Y12.5876
G01 X10.2670 Y12.7494
G01 X10.1294 Y12.8870
G01 X9.9676 Y12.9952
G01 X9.8006 Y13.0650
G01 X9.7344 Y13.1179
G01 X9.7198 Y13.1400
G01 X9.6938 Y13.2236
G01 X9.7136 Y13.3148
G01 X9.7286 Y13.3401
G01 X9.7931 Y13.3981
G01 X9.9938 Y13.4662
G01 X10.1744 Y13.5582
G01 X10.3383 Y13.6773
G01 X10.4817 Y13.8207
G01 X10.6008 Y13.9846
G01 X10.6928 Y14.1652
G01 X10.7519 Y14.3471
G01 X10.3556 Y14.3472
G01 X10.3041 Y14.2294
G01 X10.2048 Y14.0807
G01 X10.0806 Y13.9562
G01 X10.0064 Y13.9009
G01 X9.9268 Y13.8535
G01 X9.7643 Y13.7864
G01 X9.6745 Y13.7642
G01 X9.4995 Y13.7472
G01 X9.3245 Y13.7642
G01 X9.2347 Y13.7864
G01 X9.0722 Y13.8535
G01 X8.9926 Y13.9009
G01 X8.9184 Y13.9562
G01 X8.7942 Y14.0807
G01 X8.6949 Y14.2294
G01 X8.6434 Y14.3471
G01 X8.2471 Y14.3472
G01 X8.3062 Y14.1652
G01 X8.3982 Y13.9846
G01 X8.5173 Y13.8207
G01 X8.6607 Y13.6773
G01 X8.8246 Y13.5582
G01 X9.0052 Y13.4662
G01 X9.1823 Y13.4084
G01 X9.2516 Y13.3623
G01 X9.2714 Y13.3387
G01 X9.3043 Y13.2545
G01 X9.2876 Y13.1537
G01 X9.2272 Y13.0829
G01 X9.0314 Y12.9952
G01 X8.8696 Y12.8870
G01 X8.7320 Y12.7494
G01 X8.6238 Y12.5876
G01 X8.5828 Y12.4901
G01 X8.5329 Y12.4273
G01 X8.5105 Y12.4105
G01 X8.4357 Y12.3854
G01 X3.2101 Y12.3830
G01 X3.1227 Y12.4062
G01 X3.0979 Y12.4221
G01 X3.0446 Y12.4846
G01 X2.9904 Y12.6130
G01 X2.8822 Y12.7748
G01 X2.7446 Y12.9124
G01 X2.5827 Y13.0206
G01 X2.5285 Y13.0443
G01 X2.4648 Y13.0956
G01 X2.4492 Y13.1205
G01 X2.4243 Y13.2131
G01 X2.4515 Y13.3085
G01 X2.5342 Y13.3806
G01 X2.6084 Y13.3972
G01 X3.0576 Y13.4024
G01 X3.1766 Y13.4468
G01 X3.2773 Y13.5222
G01 X3.3527 Y13.6230
G01 X3.3971 Y13.7420
G01 X3.4023 Y14.3725
G01 X3.0270 Y14.3725
G01 X3.0267 Y13.8288
G01 X3.0129 Y13.7953
G01 X2.9828 Y13.7752
G01 X1.2647 Y13.7725
G01 X1.2228 Y13.7887
G01 X1.2026 Y13.8288
G01 X1.2023 Y14.3725
G01 X0.8270 Y14.3725
G01 X0.8322 Y13.7420
G01 X0.8766 Y13.6230
G01 X0.9520 Y13.5222
G01 X1.0528 Y13.4468
G01 X1.1717 Y13.4025
G01 X1.6221 Y13.3972
G01 X1.7037 Y13.3750
G01 X1.7333 Y13.3560
G01 X1.7827 Y13.2986
G01 X1.7934 Y13.2727
G01 X1.8031 Y13.1814
G01 X1.7630 Y13.0927
G01 X1.7000 Y13.0437
G01 X1.6466 Y13.0206
G01 X1.4848 Y12.9124
G01 X1.3471 Y12.7748
G01 X1.2390 Y12.6130
G01 X1.1645 Y12.4331
G01 X1.1265 Y12.2422
G01 X1.1265 Y12.0476
G01 X1.1645 Y11.8567
G01 X1.2390 Y11.6768
G00 Z2.0000
G00 X1.2023 Y14.9972
G01 F60.00
G01 Z-0.0700
G01 F120.00
G01 X1.2023 Y15.5364
G01 X1.2112 Y15.5669
G01 X1.2326 Y15.5884
G01 X1.2616 Y15.5972
G01 X1.8023 Y15.5972
G01 X1.8023 Y15.9725
G01 X1.1718 Y15.9673
G01 X1.0528 Y15.9230
G01 X0.9520 Y15.8475
G01 X0.8766 Y15.7468
G01 X0.8322 Y15.6278
G01 X0.8270 Y15.5794
G01 X0.8270 Y14.9972
G01 X1.2023 Y14.9972
G00 Z2.0000
G00 X-0.0621 Y16.3809
G01 F60.00
G01 Z-0.0700
G01 F120.00
G01 X-0.0392 Y16.4624
G01 X-0.0233 Y16.4872
G01 X0.0446 Y16.5435
G01 X0.1240 Y16.5614
G01 X11.3750 Y16.5614
G01 X11.4732 Y16.5333
G01 X11.5388 Y16.4624
G01 X11.5614 Y16.3750
G01 X11.5614 Y0.1240
G01 X11.5333 Y0.0258
G01 X11.4624 Y-0.0398
G01 X11.3750 Y-0.0623
G01 X0.1240 Y-0.0623
G01 X0.0258 Y-0.0343
G01 X-0.0398 Y0.0366
G01 X-0.0623 Y0.1240
G01 X-0.0621 Y16.3809
G00 Z2.0000
G00 X3.4023 Y14.9972
G01 F60.00
G01 Z-0.0700
G01 F120.00
G01 X3.3971 Y15.6278
G01 X3.3527 Y15.7468
G01 X3.2773 Y15.8475
G01 X3.1766 Y15.9230
G01 X3.0576 Y15.9673
G01 X3.0092 Y15.9725
G01 X2.4270 Y15.9725
G01 X2.4270 Y15.5972
G01 X2.9677 Y15.5972
G01 X2.9967 Y15.5884
G01 X3.0182 Y15.5669
G01 X3.0270 Y15.5364
G01 X3.0270 Y14.9972
G01 X3.4023 Y14.9972
G00 Z2.0000
G00 X8.6434 Y14.9719
G01 F60.00
G01 Z-0.0700
G01 F120.00
G01 X8.7409 Y15.1664
G01 X8.8544 Y15.3046
G01 X8.9926 Y15.4181
G01 X9.0722 Y15.4655
G01 X9.1871 Y15.5156
G01 X9.1872 Y15.9119
G01 X9.0052 Y15.8528
G01 X8.8246 Y15.7608
G01 X8.6607 Y15.6417
G01 X8.5173 Y15.4983
G01 X8.3982 Y15.3344
G01 X8.3062 Y15.1538
G01 X8.2471 Y14.9719
G01 X8.6434 Y14.9719
G00 Z2.0000
G00 X9.8119 Y15.5156
G01 F60.00
G01 Z-0.0700
G01 F120.00
G01 X10.0064 Y15.4181
G01 X10.1446 Y15.3046
G01 X10.2581 Y15.1664
G01 X10.3055 Y15.0868
G01 X10.3556 Y14.9719
G01 X10.7519 Y14.9719
G01 X10.6928 Y15.1538
G01 X10.6008 Y15.3344
G01 X10.4817 Y15.4983
G01 X10.3383 Y15.6417
G01 X10.1744 Y15.7608
G01 X9.9938 Y15.8528
G01 X9.8119 Y15.9119
G01 X9.8119 Y15.5156
G00 Z2.0000
M05
G00 Z2.0000
G00 Z15.00


